luts/新涼.cube
TITLE "Generated by Resolve"
LUT_3D_SIZE 33
0 0 0.000366217
0 0 0.000366217
0 1.5259e-05 0.000259403
0 1.5259e-05 0.00015259
3.0518e-05 1.5259e-05 0.000106813
0.000396735 1.5259e-05 6.10361e-05
0.00248722 3.0518e-05 3.0518e-05
0.011368 3.0518e-05 1.5259e-05
0.0344396 3.0518e-05 0
0.0784009 3.0518e-05 0
0.13991 1.5259e-05 0
0.204074 1.5259e-05 0
0.265278 1.5259e-05 0
0.32163 1.5259e-05 0
0.371603 1.5259e-05 0
0.410834 1.5259e-05 0
0.444999 1.5259e-05 0
0.474601 1.5259e-05 0
0.501167 1.5259e-05 0
0.523415 3.0518e-05 0
0.544442 4.57771e-05 0
0.565805 7.62951e-05 0
0.58381 0.000106813 0
0.58381 0.000106813 0
0.58381 0.000106813 0
0.58381 0.000106813 0
0.58381 0.000106813 0
0.58381 0.000106813 0
0.58381 0.000106813 0
0.58381 0.000106813 0
0.58381 0.000106813 0
0.58381 0.000106813 0
0.58381 0.000106813 0
0 0 0.000366217
0 0 0.000366217
0 1.5259e-05 0.000320439
0 1.5259e-05 0.000213626
0 1.5259e-05 0.000137331
0.000106813 1.5259e-05 9.15541e-05
0.0010071 1.5259e-05 4.57771e-05
0.00556954 3.0518e-05 1.5259e-05
0.0213626 3.0518e-05 0
0.0546273 3.0518e-05 0
0.110887 3.0518e-05 0
0.174456 1.5259e-05 0
0.236881 1.5259e-05 0
0.296117 1.5259e-05 0
0.349157 1.5259e-05 0
0.392935 1.5259e-05 0
0.429221 1.5259e-05 0
0.460655 1.5259e-05 0
0.488045 1.5259e-05 0
0.512825 3.0518e-05 0
0.533989 3.0518e-05 0
0.554528 4.57771e-05 0
0.57847 0.000106813 0
0.58381 0.000106813 0
0.58381 0.000106813 0
0.58381 0.000106813 0
0.58381 0.000106813 0
0.58381 0.000106813 0
0.58381 0.000106813 0
0.58381 0.000106813 0
0.58381 0.000106813 0
0.58381 0.000106813 0
0.58381 0.000106813 0
0 0 0.000366217
0 0 0.000366217
0 0 0.000366217
0 1.5259e-05 0.000244144
0 1.5259e-05 0.00015259
3.0518e-05 1.5259e-05 0.000106813
0.000457771 1.5259e-05 6.10361e-05
0.00306706 3.0518e-05 3.0518e-05
0.0139773 3.0518e-05 1.5259e-05
0.0402228 3.0518e-05 0
0.0889143 3.0518e-05 0
0.151385 1.5259e-05 0
0.21503 1.5259e-05 0
0.275578 1.5259e-05 0
0.330419 1.5259e-05 0
0.3785 1.5259e-05 0
0.416251 1.5259e-05 0
0.449287 1.5259e-05 0
0.477943 1.5259e-05 0
0.504112 1.5259e-05 0
0.525719 3.0518e-05 0
0.546639 4.57771e-05 0
0.568139 9.15541e-05 0
0.58381 0.000106813 0
0.58381 0.000106813 0
0.58381 0.000106813 0
0.58381 0.000106813 0
0.58381 0.000106813 0
0.58381 0.000106813 0
0.58381 0.000106813 0
0.58381 0.000106813 0
0.58381 0.000106813 0
0.58381 0.000106813 0
0 0 0.000457771
0 0 0.000427253
0 0 0.000411994
0 0 0.000289921
0 0 0.000183108
0 1.5259e-05 0.000122072
0.000198367 1.5259e-05 7.62951e-05
0.00172427 3.0518e-05 4.57771e-05
0.00874342 3.0518e-05 1.5259e-05
0.0295567 3.0518e-05 0
0.0701762 3.0518e-05 0
0.130739 1.5259e-05 0
0.194583 1.5259e-05 0
0.255558 1.5259e-05 0
0.312718 1.5259e-05 0
0.363455 1.5259e-05 0
0.404135 1.5259e-05 0
0.438605 1.5259e-05 0
0.468742 1.5259e-05 0
0.495399 1.5259e-05 0
0.518334 3.0518e-05 0
0.539666 3.0518e-05 0
0.560037 6.10361e-05 0
0.58381 0.000106813 0
0.58381 0.000106813 0
0.58381 0.000106813 0
0.58381 0.000106813 0
0.58381 0.000106813 0
0.58381 0.000106813 0
0.58381 0.000106813 0
0.58381 0.000106813 0
0.58381 0.000106813 0
0.58381 0.000106813 0
0 0 0.000656138
0 0 0.000595102
0 0 0.000549325
0 0 0.000411994
0 0 0.000259403
0 0 0.000183108
3.0518e-05 0 0.000106813
0.000579843 0 6.10361e-05
0.00419623 0 3.0518e-05
0.0194705 1.5259e-05 1.5259e-05
0.0547799 3.0518e-05 0
0.111757 3.0518e-05 0
0.175158 1.5259e-05 0
0.237171 1.5259e-05 0
0.296117 1.5259e-05 0
0.348562 1.5259e-05 0
0.392218 1.5259e-05 0
0.428351 1.5259e-05 0
0.459556 1.5259e-05 0
0.486992 1.5259e-05 0
0.511635 3.0518e-05 0
0.532631 3.0518e-05 0
0.552895 4.57771e-05 0
0.576059 0.000106813 0
0.58381 0.000106813 0
0.58381 0.000106813 0
0.58381 0.000106813 0
0.58381 0.000106813 0
0.58381 0.000106813 0
0.58381 0.000106813 0
0.58381 0.000106813 0
0.58381 0.000106813 0
0.58381 0.000106813 0
0 0 0.000961318
0 0 0.000900282
0 0 0.00077821
0 0 0.000656138
0 0 0.000396735
0 0 0.000244144
0 0 0.00015259
0.000106813 0 9.15541e-05
0.00138857 0 4.57771e-05
0.00877394 0 1.5259e-05
0.0327001 0 0
0.0816968 0 0
0.1523 1.5259e-05 0
0.219364 1.5259e-05 0
0.279377 1.5259e-05 0
0.333196 1.5259e-05 0
0.380346 1.5259e-05 0
0.417655 1.5259e-05 0
0.450187 1.5259e-05 0
0.478676 1.5259e-05 0
0.504616 1.5259e-05 0
0.525933 3.0518e-05 0
0.546578 4.57771e-05 0
0.567788 9.15541e-05 0
0.58381 0.000106813 0
0.58381 0.000106813 0
0.58381 0.000106813 0
0.58381 0.000106813 0
0.58381 0.000106813 0
0.58381 0.000106813 0
0.58381 0.000106813 0
0.58381 0.000106813 0
0.58381 0.000106813 0
0 7.62951e-05 0.00167849
0 4.57771e-05 0.00149538
0 1.5259e-05 0.00125124
0 1.5259e-05 0.00111391
0 0 0.000671397
0 0 0.000381476
0 0 0.000228885
1.5259e-05 0 0.000137331
0.000396735 0 7.62951e-05
0.0034638 0 3.0518e-05
0.0181277 0 1.5259e-05
0.0534524 0 0
0.115755 0 0
0.190494 0 0
0.261845 1.5259e-05 0
0.318044 1.5259e-05 0
0.367498 1.5259e-05 0
0.407141 1.5259e-05 0
0.441138 1.5259e-05 0
0.470466 1.5259e-05 0
0.496742 1.5259e-05 0
0.519539 3.0518e-05 0
0.540673 4.57771e-05 0
0.560723 6.10361e-05 0
0.58381 0.000106813 0
0.58381 0.000106813 0
0.58381 0.000106813 0
0.58381 0.000106813 0
0.58381 0.000106813 0
0.58381 0.000106813 0
0.58381 0.000106813 0
0.58381 0.000106813 0
0.58381 0.000106813 0
0 0.000793469 0.00361639
0 0.000564584 0.00317388
0 0.000335698 0.00262455
0 0.000213626 0.00227359
0 7.62951e-05 0.00138857
0 0 0.000854505
0 0 0.000488289
0 0 0.000244144
6.10361e-05 0 0.000137331
0.00111391 0 6.10361e-05
0.00814832 0 1.5259e-05
0.033051 0 0
0.0825513 0 0
0.152926 0 0
0.229541 0 0
0.302693 1.5259e-05 0
0.354345 1.5259e-05 0
0.39646 1.5259e-05 0
0.431632 1.5259e-05 0
0.462181 1.5259e-05 0
0.489128 1.5259e-05 0
0.513298 3.0518e-05 0
0.534218 3.0518e-05 0
0.554406 4.57771e-05 0
0.577722 0.000106813 0
0.58381 0.000106813 0
0.58381 0.000106813 0
0.58381 0.000106813 0
0.58381 0.000106813 0
0.58381 0.000106813 0
0.58381 0.000106813 0
0.58381 0.000106813 0
0.58381 0.000106813 0
0 0.00390631 0.00767529
0 0.00303655 0.00674449
0 0.00231937 0.00590524
0 0.00172427 0.00511177
0 0.00129702 0.00389105
0 0.000335698 0.0019379
0 7.62951e-05 0.00135805
0 0 0.000732433
0 0 0.00030518
0.000244144 0 0.000122072
0.00292973 0 6.10361e-05
0.0179294 0 1.5259e-05
0.0543679 0 0
0.116258 0 0
0.19057 0 0
0.268711 0 0
0.340505 1.5259e-05 0
0.385611 1.5259e-05 0
0.422309 1.5259e-05 0
0.453773 1.5259e-05 0
0.481804 1.5259e-05 0
0.507347 3.0518e-05 0
0.527962 3.0518e-05 0
0.548409 4.57771e-05 0
0.56994 9.15541e-05 0
0.58381 0.000106813 0
0.58381 0.000106813 0
0.58381 0.000106813 0
0.58381 0.000106813 0
0.58381 0.000106813 0
0.58381 0.000106813 0
0.58381 0.000106813 0
0.58381 0.000106813 0
1.5259e-05 0.014023 0.0155947
0 0.011429 0.0138552
0 0.00944533 0.0125582
0 0.00747692 0.011017
0 0.00614939 0.00981155
0 0.00329595 0.00494392
0 0.00111391 0.00289921
0 0.000488289 0.002121
0 4.57771e-05 0.00103761
0 0 0.000411994
0.000854505 0 0.000137331
0.00762951 0 4.57771e-05
0.0345006 0 1.5259e-05
0.0851453 0 0
0.154269 0 0
0.230625 0 0
0.304997 0 0
0.374121 0 0
0.412329 1.5259e-05 0
0.445472 1.5259e-05 0
0.474083 1.5259e-05 0
0.500069 1.5259e-05 0
0.522087 3.0518e-05 0
0.542809 4.57771e-05 0
0.563378 7.62951e-05 0
0.58381 0.000106813 0
0.58381 0.000106813 0
0.58381 0.000106813 0
0.58381 0.000106813 0
0.58381 0.000106813 0
0.58381 0.000106813 0
0.58381 0.000106813 0
0.58381 0.000106813 0
4.57771e-05 0.0352789 0.0286412
3.0518e-05 0.0305791 0.0257877
3.0518e-05 0.0272679 0.0238193
1.5259e-05 0.0233616 0.0214237
1.5259e-05 0.0204471 0.0196078
0 0.0169528 0.0133669
0 0.007187 0.00650034
0 0.00341802 0.0043183
0 0.00190738 0.00317388
0 0.000488289 0.00144961
0.000106813 1.5259e-05 0.000534066
0.00303655 0 0.00015259
0.0202029 0 4.57771e-05
0.061387 0 1.5259e-05
0.126207 0 0
0.19884 0 0
0.273518 0 0
0.341695 0 0
0.400427 0 0
0.436744 1.5259e-05 0
0.466514 1.5259e-05 0
0.492927 1.5259e-05 0
0.516182 3.0518e-05 0
0.537087 3.0518e-05 0
0.557031 6.10361e-05 0
0.581308 0.000106813 0
0.58381 0.000106813 0
0.58381 0.000106813 0
0.58381 0.000106813 0
0.58381 0.000106813 0
0.58381 0.000106813 0
0.58381 0.000106813 0
0.58381 0.000106813 0
0.000106813 0.0684367 0.0485389
9.15541e-05 0.0616617 0.0442512
7.62951e-05 0.0565805 0.0413214
7.62951e-05 0.0508888 0.0380102
6.10361e-05 0.0464027 0.0352789
1.5259e-05 0.0427405 0.0310826
0 0.0307469 0.0170748
0 0.0163729 0.00947585
0 0.00900282 0.00616464
0 0.00587472 0.0043183
0 0.00198367 0.00189212
0.000747692 0.000274662 0.000640879
0.0104372 6.10361e-05 0.000198367
0.045304 4.57771e-05 6.10361e-05
0.107744 6.10361e-05 1.5259e-05
0.178012 6.10361e-05 0
0.251331 4.57771e-05 0
0.323537 3.0518e-05 0
0.381048 0 0
0.425498 0 0
0.458534 1.5259e-05 0
0.485756 1.5259e-05 0
0.510323 3.0518e-05 0
0.531212 3.0518e-05 0
0.550988 4.57771e-05 0
0.573587 0.000106813 0
0.58381 0.000106813 0
0.58381 0.000106813 0
0.58381 0.000106813 0
0.58381 0.000106813 0
0.58381 0.000106813 0
0.58381 0.000106813 0
0.58381 0.000106813 0
0.000213626 0.110216 0.0764172
0.000198367 0.10248 0.0707256
0.000183108 0.0965744 0.0665751
0.00015259 0.0903487 0.0623484
0.000137331 0.0844892 0.0584573
0.000137331 0.0789044 0.0550851
0 0.0741131 0.040589
0 0.0511788 0.0224918
0 0.0306249 0.0135958
0 0.0206912 0.00859083
0 0.014786 0.00572213
6.10361e-05 0.00613413 0.00231937
0.00343328 0.00148013 0.000717174
0.0296788 0.000640879 0.000228885
0.091371 0.000503548 6.10361e-05
0.165438 0.000564584 1.5259e-05
0.241474 0.000595102 0
0.317006 0.00047303 0
0.38027 0.000228885 0
0.426581 4.57771e-05 0
0.449928 1.5259e-05 0
0.478553 1.5259e-05 0
0.504204 1.5259e-05 0
0.525292 3.0518e-05 0
0.545739 4.57771e-05 0
0.566598 7.62951e-05 0
0.58381 0.000106813 0
0.58381 0.000106813 0
0.58381 0.000106813 0
0.58381 0.000106813 0
0.58381 0.000106813 0
0.58381 0.000106813 0
0.58381 0.000106813 0
0.000366217 0.151644 0.11075
0.000335698 0.143877 0.104143
0.000320439 0.137911 0.0991684
0.000289921 0.132052 0.0941939
0.000274662 0.126543 0.0894484
0.000259403 0.121263 0.0852522
0.000167849 0.117082 0.0792859
1.5259e-05 0.108125 0.0521248
1.5259e-05 0.0785382 0.0304417
0 0.0492256 0.0179141
0 0.0390784 0.0122072
0 0.0303197 0.00741588
0.00062562 0.0154879 0.00274662
0.0132601 0.00553903 0.000793469
0.066453 0.00315862 0.000289921
0.151049 0.0024567 6.10361e-05
0.231037 0.00276188 1.5259e-05
0.312169 0.00294499 0
0.386282 0.00247196 0
0.446159 0.00135805 0
0.47863 0.00030518 0
0.477058 3.0518e-05 0
0.497414 1.5259e-05 0
0.519631 3.0518e-05 0
0.540459 4.57771e-05 0
0.560418 6.10361e-05 0
0.58381 0.000106813 0
0.58381 0.000106813 0
0.58381 0.000106813 0
0.58381 0.000106813 0
0.58381 0.000106813 0
0.58381 0.000106813 0
0.58381 0.000106813 0
0.000549325 0.192126 0.147524
0.000518807 0.184436 0.140291
0.000488289 0.17879 0.134859
0.000457771 0.173602 0.130083
0.000442512 0.167712 0.124956
0.000411994 0.162417 0.120333
0.000396735 0.157656 0.116121
0.000137331 0.156085 0.103868
4.57771e-05 0.145174 0.0698253
4.57771e-05 0.103487 0.0379644
0 0.0742199 0.0238956
0 0.0651713 0.0163119
0.000137331 0.053727 0.009308
0.00309758 0.0328527 0.00329595
0.0357824 0.0161898 0.000961318
0.122713 0.0102998 0.000320439
0.214343 0.00892653 7.62951e-05
0.300221 0.00933852 1.5259e-05
0.382681 0.00979629 0
0.455436 0.00886549 0
0.512642 0.00588998 0
0.539528 0.00169375 0
0.50898 4.57771e-05 0
0.513909 3.0518e-05 0
0.534783 3.0518e-05 0
0.554604 4.57771e-05 0
0.578027 0.000106813 0
0.58381 0.000106813 0
0.58381 0.000106813 0
0.58381 0.000106813 0
0.58381 0.000106813 0
0.58381 0.000106813 0
0.58381 0.000106813 0
0.000732433 0.22948 0.184344
0.000686656 0.222431 0.177386
0.000656138 0.217319 0.17203
0.000640879 0.212146 0.167132
0.000610361 0.20708 0.162066
0.000595102 0.202182 0.15729
0.000579843 0.197818 0.152911
0.000549325 0.193256 0.148638
0.000213626 0.194064 0.134371
0.000137331 0.178622 0.0887007
9.15541e-05 0.12401 0.0454261
0 0.106325 0.0310826
6.10361e-05 0.0984512 0.0213016
0.000793469 0.0883192 0.0119936
0.0112612 0.0577859 0.00387579
0.0776074 0.0346075 0.0010071
0.182925 0.0256962 0.000350958
0.279606 0.0229648 9.15541e-05
0.369436 0.0228275 1.5259e-05
0.448386 0.0240482 0
0.519295 0.0230411 0
0.573892 0.0180667 0
0.60032 0.00735485 0
0.550515 0.000167849 0
0.529107 3.0518e-05 0
0.549035 4.57771e-05 0
0.570764 9.15541e-05 0
0.58381 0.000106813 0
0.58381 0.000106813 0
0.58381 0.000106813 0
0.58381 0.000106813 0
0.58381 0.000106813 0
0.58381 0.000106813 0
0.00144961 0.253208 0.227085
0.00102235 0.252461 0.215198
0.000900282 0.25069 0.208011
0.000885023 0.247944 0.203098
0.000854505 0.243244 0.198383
0.000808728 0.238712 0.19379
0.00077821 0.234424 0.189471
0.000747692 0.230304 0.185351
0.000717174 0.226429 0.181369
0.000350958 0.228519 0.165667
0.000396735 0.204929 0.10515
0.000106813 0.148363 0.0557717
3.0518e-05 0.138231 0.039353
0.000457771 0.134737 0.0271763
0.00364691 0.123522 0.0140078
0.0314794 0.0932021 0.00444038
0.138384 0.0611734 0.00106813
0.247898 0.049546 0.000381476
0.344717 0.0456703 0.000106813
0.434928 0.0445716 1.5259e-05
0.511818 0.0463874 0
0.577218 0.0454566 0
0.628275 0.0391089 0
0.657343 0.0229038 0
0.602579 0.000900282 0
0.544182 4.57771e-05 0
0.56437 7.62951e-05 0
0.58381 0.000106813 0
0.58381 0.000106813 0
0.58381 0.000106813 0
0.58381 0.000106813 0
0.58381 0.000106813 0
0.58381 0.000106813 0
0.000686656 0.273365 0.262684
0.000869764 0.269154 0.253895
0.0010071 0.265476 0.248005
0.00112917 0.262287 0.243244
0.0012665 0.259693 0.239475
0.00138857 0.257084 0.235615
0.00143435 0.255207 0.231922
0.00148013 0.253315 0.22826
0.00123598 0.252842 0.221546
0.00102235 0.252583 0.214984
0.000503548 0.260136 0.196963
0.000869764 0.224247 0.115908
0.000122072 0.178286 0.0691234
0.000183108 0.171542 0.0490578
0.00192264 0.173861 0.0325628
0.0121004 0.162783 0.0163272
0.0704051 0.131945 0.00502022
0.199207 0.100832 0.00115969
0.310445 0.086717 0.000396735
0.406516 0.079881 0.000106813
0.495125 0.0778668 1.5259e-05
0.569711 0.0792706 0
0.629526 0.0788281 0
0.676387 0.0707561 0
0.704692 0.0494392 0
0.664073 0.00494392 0
0.55848 6.10361e-05 0
0.583017 0.000106813 0
0.58381 0.000106813 0
0.58381 0.000106813 0
0.58381 0.000106813 0
0.58381 0.000106813 0
0.58381 0.000106813 0
0.000228885 0.303273 0.328786
0.000244144 0.294026 0.314031
0.000289921 0.288197 0.302724
0.000335698 0.284672 0.292531
0.000411994 0.281697 0.283635
0.000503548 0.278965 0.275517
0.000595102 0.276463 0.268849
0.000686656 0.273823 0.263401
0.00077821 0.271595 0.258473
0.000885023 0.268894 0.253513
0.000976577 0.266392 0.249348
0.000671397 0.272908 0.234134
0.000762951 0.273671 0.14699
0.000366217 0.222522 0.0827649
0.00103761 0.220127 0.0585336
0.00801099 0.226154 0.0379797
0.0346532 0.213397 0.0191196
0.132601 0.179095 0.00517281
0.266255 0.144579 0.00109865
0.375128 0.128161 0.000411994
0.466056 0.122972 0.000122072
0.549523 0.120943 1.5259e-05
0.622446 0.120714 0
0.67689 0.120531 0
0.718151 0.112657 0
0.747234 0.0900893 0
0.725185 0.0235752 0
0.57583 0.000106813 0
0.58381 0.000106813 0
0.58381 0.000106813 0
0.58381 0.000106813 0
0.58381 0.000106813 0
0.58381 0.000106813 0
0.000198367 0.344549 0.40061
0.000213626 0.336095 0.387137
0.000213626 0.329519 0.376257
0.000213626 0.323659 0.366125
0.000213626 0.318074 0.356512
0.000213626 0.312749 0.347387
0.000228885 0.307988 0.338491
0.000228885 0.303517 0.329274
0.000228885 0.298695 0.320653
0.000244144 0.293339 0.312871
0.000274662 0.289204 0.305013
0.000320439 0.286412 0.297169
0.000106813 0.294453 0.270146
0.000396735 0.337194 0.19353
0.00105287 0.279042 0.106264
0.00505074 0.282994 0.0783398
0.031342 0.295064 0.0546273
0.0884565 0.28658 0.0307927
0.207767 0.247654 0.00733959
0.344869 0.206485 0.0011902
0.44683 0.186282 0.000259403
0.532265 0.175982 4.57771e-05
0.605371 0.1691 0
0.668284 0.165362 0
0.718288 0.165011 0
0.757626 0.159762 0
0.783154 0.140063 0
0.779553 0.0678416 0
0.58381 0.000106813 0
0.58381 0.000106813 0
0.58381 0.000106813 0
0.58381 0.000106813 0
0.58381 0.000106813 0
0.000167849 0.383154 0.46154
0.000183108 0.375555 0.450477
0.000183108 0.370001 0.441398
0.000183108 0.364721 0.432914
0.000198367 0.359426 0.42446
0.000198367 0.354391 0.416236
0.000198367 0.349477 0.408469
0.000198367 0.34464 0.400534
0.000213626 0.339773 0.392859
0.000213626 0.335088 0.38555
0.000213626 0.33048 0.378012
0.000213626 0.326085 0.370367
0.000213626 0.321736 0.362539
0 0.319707 0.330648
0.000137331 0.383291 0.25771
0.00321965 0.353201 0.16466
0.0222477 0.354696 0.124392
0.0926833 0.370871 0.098024
0.17496 0.369451 0.064744
0.291493 0.330114 0.0212406
0.422004 0.284306 0.00308232
0.523369 0.257832 0.000610361
0.604013 0.244312 0.000122072
0.668696 0.234836 1.5259e-05
0.719844 0.22533 0
0.756069 0.212894 0
0.791058 0.212009 0
0.817975 0.199466 0
0.822156 0.136065 0
0.58381 0.000106813 0
0.58381 0.000106813 0
0.58381 0.000106813 0
0.58381 0.000106813 0
0.00015259 0.418204 0.510216
0.00015259 0.412039 0.501228
0.00015259 0.407202 0.494179
0.00015259 0.401724 0.486976
0.00015259 0.396765 0.480125
0.000167849 0.392111 0.473442
0.000167849 0.387472 0.467506
0.000167849 0.382879 0.46128
0.000183108 0.378546 0.454932
0.000183108 0.374533 0.448783
0.000183108 0.370642 0.442451
0.000183108 0.366766 0.436027
0.000198367 0.362676 0.429496
0.000198367 0.358526 0.42298
0 0.35259 0.390326
3.0518e-05 0.421851 0.316075
0.00769055 0.419577 0.242069
0.0622568 0.42739 0.191302
0.176791 0.445014 0.162325
0.26508 0.444892 0.126375
0.368078 0.411856 0.0601511
0.498817 0.365713 0.0137942
0.597391 0.340505 0.00357061
0.669795 0.326726 0.00111391
0.727153 0.314092 0.000274662
0.771145 0.298894 3.0518e-05
0.802579 0.281682 0
0.823606 0.268879 0
0.855177 0.277821 0
0.834409 0.174075 0
0.58381 0.000106813 0
0.58381 0.000106813 0
0.58381 0.000106813 0
0.000167849 0.445899 0.550286
0.00015259 0.440589 0.542596
0.00015259 0.436362 0.536324
0.00015259 0.432425 0.530648
0.00015259 0.428794 0.525139
0.00015259 0.42504 0.520073
0.00015259 0.42121 0.51458
0.00015259 0.417899 0.50956
0.00015259 0.41445 0.504524
0.00015259 0.410956 0.499611
0.00015259 0.407446 0.494484
0.00015259 0.403403 0.489326
0.00015259 0.399466 0.483894
0.00015259 0.395682 0.478462
0.000167849 0.391806 0.473274
0 0.38706 0.438071
1.5259e-05 0.462806 0.368582
0.0195468 0.477775 0.319615
0.127169 0.492912 0.26154
0.256214 0.509636 0.233265
0.345083 0.508919 0.199664
0.442695 0.479057 0.128359
0.566583 0.438834 0.0472267
0.655344 0.415824 0.0196689
0.722789 0.404135 0.00909438
0.774762 0.397024 0.00425727
0.814649 0.38584 0.00140383
0.843839 0.36495 0.00015259
0.861891 0.349783 0
0.864881 0.321263 0
0.844739 0.212863 0
0.58381 0.000106813 0
0.58381 0.000106813 0
0.000198367 0.472023 0.584573
0.000183108 0.467445 0.577707
0.000183108 0.463218 0.572519
0.000167849 0.45922 0.567727
0.000167849 0.455726 0.563149
0.000167849 0.452171 0.558434
0.000167849 0.448661 0.553765
0.00015259 0.445441 0.549371
0.00015259 0.442374 0.545052
0.00015259 0.439521 0.540825
0.00015259 0.436439 0.536477
0.00015259 0.433616 0.532219
0.00015259 0.430808 0.527871
0.00015259 0.427649 0.52369
0.00015259 0.424582 0.519478
0.00015259 0.421622 0.515145
0 0.420233 0.475959
6.10361e-05 0.502831 0.415152
0.0433204 0.532525 0.384955
0.199954 0.54876 0.32842
0.331365 0.561578 0.303304
0.418555 0.562005 0.272984
0.508095 0.539651 0.206668
0.626108 0.501152 0.106966
0.70454 0.481392 0.0591287
0.76289 0.472389 0.0380255
0.809308 0.468452 0.0250401
0.848386 0.463935 0.0137636
0.878126 0.460349 0.00572213
0.887373 0.432853 0.000961318
0.868879 0.353094 0
0.853071 0.251865 0
0.58381 0.000106813 0
0.000213626 0.493034 0.615534
0.000213626 0.488823 0.609384
0.000213626 0.48539 0.604578
0.000213626 0.482307 0.600046
0.000198367 0.479576 0.595666
0.000198367 0.476753 0.59144
0.000198367 0.474006 0.587411
0.000183108 0.471382 0.583627
0.000183108 0.468757 0.57966
0.000183108 0.466255 0.575845
0.000183108 0.463004 0.572259
0.000183108 0.460212 0.568887
0.000167849 0.457221 0.565286
0.000167849 0.454505 0.561563
0.000167849 0.451514 0.557763
0.000167849 0.448844 0.553933
0.000167849 0.44593 0.550072
0 0.450599 0.504997
0.000244144 0.536614 0.458183
0.0889296 0.577371 0.442939
0.271855 0.59472 0.388037
0.398642 0.603952 0.365728
0.483604 0.607233 0.340597
0.567712 0.588357 0.279286
0.672801 0.556893 0.174899
0.742901 0.537667 0.122225
0.794354 0.531746 0.0943313
0.83798 0.53106 0.0726635
0.875288 0.533043 0.0531319
0.901808 0.545876 0.0425574
0.896422 0.493919 0.00929274
0.872496 0.385199 4.57771e-05
0.860319 0.290013 0
0.000213626 0.512749 0.638788
0.000213626 0.508553 0.634348
0.000213626 0.505333 0.63064
0.000228885 0.502602 0.62742
0.000213626 0.499916 0.624094
0.000213626 0.497505 0.621149
0.000213626 0.494774 0.61799
0.000213626 0.492332 0.614466
0.000213626 0.490028 0.611124
0.000213626 0.487556 0.60766
0.000213626 0.4851 0.604105
0.000213626 0.482887 0.600793
0.000198367 0.48069 0.597482
0.000198367 0.478462 0.594186
0.000198367 0.476265 0.590707
0.000198367 0.474083 0.587488
0.000198367 0.471748 0.584176
0.000183108 0.46952 0.580606
0 0.481086 0.530571
0.00125124 0.570108 0.499077
0.146838 0.622034 0.488685
0.342428 0.632975 0.439292
0.459663 0.641047 0.415991
0.540002 0.64445 0.394766
0.619913 0.630045 0.335744
0.714656 0.602075 0.236179
0.774517 0.58674 0.18526
0.8206 0.582986 0.160983
0.863371 0.587274 0.142061
0.898451 0.601144 0.131945
0.90367 0.587686 0.0977646
0.900725 0.543801 0.0374914
0.88278 0.435096 0.000717174
0.000167849 0.532464 0.655558
0.000183108 0.528435 0.652415
0.000183108 0.525399 0.649821
0.000198367 0.522408 0.647608
0.000198367 0.519493 0.645212
0.000213626 0.517143 0.64303
0.000213626 0.514366 0.640391
0.000213626 0.511849 0.637919
0.000213626 0.509621 0.635431
0.000213626 0.507301 0.632792
0.000213626 0.505119 0.63035
0.000228885 0.502998 0.627817
0.000213626 0.500969 0.625315
0.000213626 0.498833 0.622782
0.000213626 0.496681 0.620325
0.000213626 0.494667 0.617563
0.000213626 0.4925 0.614832
0.000213626 0.490578 0.61178
0.000213626 0.488426 0.608682
0 0.507286 0.555138
0.00630198 0.605432 0.534264
0.210544 0.656352 0.525856
0.406531 0.663233 0.479347
0.51371 0.672129 0.458839
0.594385 0.67686 0.441688
0.664012 0.664897 0.391089
0.746471 0.639689 0.290623
0.799374 0.628 0.244373
0.846418 0.628916 0.223331
0.886625 0.637781 0.212421
0.902586 0.642206 0.201984
0.902831 0.622583 0.159396
0.902617 0.586496 0.090074
9.15541e-05 0.55082 0.669291
0.000106813 0.546883 0.666468
0.000122072 0.544076 0.664378
0.000137331 0.541222 0.662181
0.00015259 0.538643 0.660304
0.00015259 0.536019 0.658442
0.000167849 0.533639 0.656611
0.000167849 0.531456 0.65478
0.000183108 0.529137 0.652888
