luts/新涼.cube
TITLE "Generated by Resolve"
LUT_3D_SIZE 9
0 0 0.000366217
3.0518e-05 1.5259e-05 0.000106813
0.0344396 3.0518e-05 0
0.265278 1.5259e-05 0
0.444999 1.5259e-05 0
0.544442 4.57771e-05 0
0.58381 0.000106813 0
0.58381 0.000106813 0
0.58381 0.000106813 0
0 0 0.000656138
0 0 0.000259403
0.00419623 0 3.0518e-05
0.175158 1.5259e-05 0
0.392218 1.5259e-05 0
0.511635 3.0518e-05 0
0.58381 0.000106813 0
0.58381 0.000106813 0
0.58381 0.000106813 0
0 0.00390631 0.00767529
0 0.00129702 0.00389105
0 0 0.00030518
0.0543679 0 0
0.340505 1.5259e-05 0
0.481804 1.5259e-05 0
0.56994 9.15541e-05 0
0.58381 0.000106813 0
0.58381 0.000106813 0
0.000213626 0.110216 0.0764172
0.000137331 0.0844892 0.0584573
0 0.0306249 0.0135958
0.00343328 0.00148013 0.000717174
0.241474 0.000595102 0
0.449928 1.5259e-05 0
0.545739 4.57771e-05 0
0.58381 0.000106813 0
0.58381 0.000106813 0
0.00144961 0.253208 0.227085
0.000854505 0.243244 0.198383
0.000717174 0.226429 0.181369
3.0518e-05 0.138231 0.039353
0.138384 0.0611734 0.00106813
0.511818 0.0463874 0
0.602579 0.000900282 0
0.58381 0.000106813 0
0.58381 0.000106813 0
0.000167849 0.383154 0.46154
0.000198367 0.359426 0.42446
0.000213626 0.339773 0.392859
0.000213626 0.321736 0.362539
0.0222477 0.354696 0.124392
0.422004 0.284306 0.00308232
0.719844 0.22533 0
0.822156 0.136065 0
0.58381 0.000106813 0
0.000213626 0.493034 0.615534
0.000198367 0.479576 0.595666
0.000183108 0.468757 0.57966
0.000167849 0.457221 0.565286
0.000167849 0.44593 0.550072
0.271855 0.59472 0.388037
0.672801 0.556893 0.174899
0.875288 0.533043 0.0531319
0.860319 0.290013 0
4.57771e-05 0.569512 0.677958
6.10361e-05 0.55816 0.672724
0.000106813 0.547448 0.666972
0.00015259 0.539162 0.660761
0.000167849 0.531487 0.654841
0.000198367 0.523674 0.648569
0.519158 0.708888 0.54583
0.79176 0.702205 0.37908
0.898238 0.692195 0.308186
0.00415045 0.613916 0.716655
0.00196841 0.605142 0.710536
0.00112917 0.598779 0.705989
0.000671397 0.593256 0.70161
0.000411994 0.588235 0.697368
0.000259403 0.583734 0.692851
0.000167849 0.579767 0.688655
0.689509 0.76556 0.637293
0.825681 0.79379 0.533669
0 1.5259e-05 1.5259e-05
0 0.000106813 0
0.0228733 9.15541e-05 0
0.262913 3.0518e-05 0
0.450355 0 0
0.541543 4.57771e-05 0
0.58381 0.000106813 0
0.58381 0.000106813 0
0.58381 0.000106813 0
0 0 0.000457771
0 0 4.57771e-05
0.00251774 0 0
0.167315 0 0
0.392401 0 0
0.508293 3.0518e-05 0
0.58381 0.000106813 0
0.58381 0.000106813 0
0.58381 0.000106813 0
0 0.00227359 0.00761425
0 0.000961318 0.00321965
0 0 0.000183108
0.0474861 0 0
0.320943 0 0
0.477348 1.5259e-05 0
0.565896 7.62951e-05 0
0.58381 0.000106813 0
0.58381 0.000106813 0
6.10361e-05 0.0784924 0.0770581
9.15541e-05 0.0683146 0.0586252
0 0.0299992 0.012604
0.00248722 0.00149538 0.000762951
0.22858 0.000518807 0
0.444617 1.5259e-05 0
0.542535 4.57771e-05 0
0.58381 0.000106813 0
0.58381 0.000106813 0
0.00015259 0.226108 0.236545
0.000534066 0.211688 0.194705
0.000656138 0.219501 0.174365
1.5259e-05 0.130709 0.0372015
0.122805 0.05449 0.00106813
0.496605 0.0401923 0
0.590585 0.000640879 0
0.58381 0.000106813 0
0.58381 0.000106813 0
0.000183108 0.375235 0.44979
0.000198367 0.350896 0.410636
0.000213626 0.330632 0.378149
0.000213626 0.312581 0.347127
0.0163577 0.337163 0.111406
0.402319 0.263722 0.0021973
0.70695 0.208743 0
0.818494 0.126726 0
0.58381 0.000106813 0
0.000213626 0.488533 0.609094
0.000198367 0.474769 0.58854
0.000183108 0.463127 0.572335
0.000167849 0.451209 0.557412
0.00015259 0.440146 0.541756
0.253651 0.584298 0.37554
0.660639 0.544106 0.15758
0.869001 0.516182 0.0399329
0.858885 0.281788 0
3.0518e-05 0.56759 0.675578
7.62951e-05 0.552834 0.670436
0.000122072 0.543664 0.66392
0.000167849 0.53492 0.657572
0.000183108 0.527031 0.651255
0.000198367 0.519142 0.644678
0.504189 0.703609 0.537682
0.786511 0.694667 0.368856
0.899077 0.686351 0.295399
0.00321965 0.610925 0.714611
0.00154116 0.60238 0.708568
0.000869764 0.595987 0.703944
0.000503548 0.590448 0.699199
0.000320439 0.58558 0.694728
0.000198367 0.581308 0.690455
0.000122072 0.57734 0.686275
0.676234 0.761654 0.633799
0.82504 0.79234 0.526009
0 6.10361e-05 4.57771e-05
0 0.00015259 0
0.0065919 0.000564584 0
0.225742 0.000442512 0
0.442344 0.000289921 0
0.564065 0.000228885 0
0.58381 0.000106813 0
0.58381 0.000106813 0
0.58381 0.000106813 0
0 7.62951e-05 0.00584421
0 0 0.0012665
0.000335698 0.000106813 4.57771e-05
0.132509 9.15541e-05 0
0.381033 0.00015259 0
0.521904 7.62951e-05 0
0.58381 0.000106813 0
0.58381 0.000106813 0
0.58381 0.000106813 0
0 0.00251774 0.0268864
0 0.000686656 0.0103456
0 0.000350958 0.00146487
0.0894636 7.62951e-05 0
0.343877 1.5259e-05 0
0.487739 3.0518e-05 0
0.562982 7.62951e-05 0
0.58381 0.000106813 0
0.58381 0.000106813 0
0 0.085832 0.150576
0 0.0595712 0.112734
0 0.0323644 0.0289006
0.00910964 0.013901 0.00138857
0.309194 0.00430304 0
0.486595 1.5259e-05 0
0.539956 3.0518e-05 0
0.58381 0.000106813 0
0.58381 0.000106813 0
6.10361e-05 0.247471 0.314717
4.57771e-05 0.220981 0.276905
4.57771e-05 0.200656 0.247013
0 0.216434 0.102525
0.181292 0.131579 0.00349432
0.569619 0.085771 0
0.635935 0.00227359 0
0.58381 0.000106813 0
0.58381 0.000106813 0
0.000122072 0.386557 0.488533
0.000106813 0.364508 0.460685
0.000106813 0.347082 0.436835
0.000122072 0.331014 0.413825
0.0217136 0.406683 0.226429
0.445075 0.347097 0.0335241
0.760678 0.294011 0.000656138
0.812467 0.120348 0
0.58381 0.000106813 0
0.000259403 0.488731 0.614969
0.000244144 0.474601 0.595972
0.000213626 0.463401 0.580438
0.000183108 0.452018 0.565835
0.000183108 0.440818 0.551217
0.242206 0.592264 0.403891
0.66244 0.553536 0.194018
0.86978 0.527016 0.0650645
0.858106 0.277211 0
4.57771e-05 0.566339 0.676143
0.000106813 0.550759 0.670604
0.00015259 0.541588 0.663981
0.000183108 0.53312 0.657557
0.000213626 0.525093 0.650919
0.000228885 0.516838 0.644068
0.493248 0.701885 0.537163
0.782635 0.690501 0.365652
0.899947 0.68159 0.285588
0.0027924 0.609308 0.713405
0.00132753 0.600717 0.707408
0.000747692 0.594339 0.702617
0.000427253 0.588876 0.697841
0.000259403 0.583902 0.693034
0.000167849 0.579614 0.688594
0.000106813 0.575708 0.684367
0.666819 0.758724 0.630838
0.824399 0.791058 0.520211
0 0.00660716 0.0856184
0 0.00181582 0.0504158
0.00123598 0.00222782 0.0358587
0.212467 0.00247196 0.000991836
0.429389 0.00184634 0
0.569802 0.00205997 0
0.63534 0.00201419 0
0.58381 0.000106813 0
0.58381 0.000106813 0
0 0.0126345 0.115633
0 0.00903334 0.0897231
0 0.00476081 0.0582437
0.160296 0.011841 0.0151827
0.383658 0.000869764 0
0.519692 0.0010071 0
0.629694 0.00128176 0
0.58381 0.000106813 0
0.58381 0.000106813 0
0 0.017731 0.128313
0 0.00846876 0.08542
0 0.0115358 0.0745098
0.0906386 0.0191043 0.0268559
0.412009 0.00192264 0
0.481331 0.000595102 0
0.594278 0.000640879 0
0.58381 0.000106813 0
0.58381 0.000106813 0
0 0.0830854 0.23415
0 0.0591287 0.197787
0 0.0430152 0.133806
0.0308385 0.0785687 0.0939498
0.400473 0.0396582 0.0033875
0.553964 0.000915541 0
0.562692 0.000366217 0
0.58381 0.000106813 0
0.58381 0.000106813 0
3.0518e-05 0.253254 0.395804
3.0518e-05 0.227558 0.361837
0 0.207477 0.328679
0 0.204868 0.194751
0.223987 0.21088 0.0616312
0.629999 0.158816 0.00195315
0.712291 0.00799573 0
0.58381 0.000106813 0
0.58381 0.000106813 0
0.000137331 0.389548 0.512795
0.000106813 0.367773 0.486442
9.15541e-05 0.350805 0.465827
9.15541e-05 0.334646 0.446342
0.01149 0.433478 0.306279
0.464225 0.38349 0.095201
0.777127 0.337362 0.00927749
0.85713 0.179202 0
0.58381 0.000106813 0
0.000289921 0.488426 0.618875
0.000274662 0.474159 0.600702
0.000244144 0.462425 0.585916
0.000213626 0.451606 0.571923
0.000198367 0.440543 0.558312
0.228733 0.599207 0.430945
0.665202 0.562295 0.230152
0.870497 0.541436 0.106294
0.876936 0.314183 0
7.62951e-05 0.563455 0.677363
0.000137331 0.549218 0.670649
0.000183108 0.5402 0.664057
0.000213626 0.531929 0.658061
0.000244144 0.523827 0.651759
0.000259403 0.515709 0.645106
0.484977 0.703166 0.545663
0.781308 0.691798 0.381048
0.901732 0.687022 0.307408
0.00248722 0.607858 0.712398
0.0011902 0.599512 0.706493
0.000671397 0.593332 0.701793
0.000396735 0.587991 0.697047
0.000244144 0.583398 0.692592
0.00015259 0.5794 0.688319
0.000106813 0.575616 0.684276
0.657069 0.758022 0.633326
0.828992 0.78941 0.509865
0.00691234 0.348562 0.528511
0.0369421 0.35874 0.532296
0.0915236 0.356283 0.527672
0.25977 0.312734 0.479927
0.717372 0.350011 0.436316
0.569879 0.00730907 0.000381476
0.66067 0.00982681 6.10361e-05
0.654383 0.00686656 0
0.58381 0.000106813 0
0 0.214343 0.417746
0.00143435 0.246342 0.43653
0.0137484 0.251545 0.433738
0.125689 0.215885 0.385336
0.613428 0.258686 0.335454
0.559625 0.00588998 0.000335698
0.652873 0.00633249 0
0.64622 0.00424201 0
0.58381 0.000106813 0
0 0.128786 0.331716
0 0.156329 0.345602
0.000503548 0.176379 0.354482
0.0550546 0.169406 0.326925
0.507744 0.206958 0.271244
0.639918 0.0209049 0.00787366
0.605722 0.00358587 0
0.641154 0.00299077 0
0.58381 0.000106813 0
0 0.143191 0.347692
0 0.119951 0.309621
0 0.149126 0.319463
0.0247349 0.201236 0.342214
0.407904 0.226291 0.274052
0.700786 0.121508 0.0660716
0.566781 0.00216678 0
0.636683 0.00221256 0
0.58381 0.000106813 0
3.0518e-05 0.251408 0.45658
1.5259e-05 0.225132 0.425574
0 0.209369 0.388357
0.000640879 0.256992 0.382574
0.301717 0.342351 0.364492
0.68748 0.291966 0.178012
0.796063 0.113054 0.00708019
0.633433 0.00175479 0
0.58381 0.000106813 0
0.000274662 0.394034 0.565789
0.000198367 0.37322 0.542245
0.00015259 0.35613 0.52372
7.62951e-05 0.341085 0.504631
0.00367742 0.444633 0.419165
0.51577 0.464057 0.297612
0.801785 0.425071 0.136202
0.894148 0.269368 0.0136568
0.58381 0.000106813 0
0.000457771 0.495216 0.638086
0.000411994 0.47921 0.622141
0.000381476 0.466606 0.609293
0.000335698 0.454856 0.595666
0.000289921 0.443763 0.581888
0.201694 0.618677 0.496391
0.677195 0.583871 0.307515
0.872969 0.56759 0.180362
0.905333 0.425559 0.0198367
0.000122072 0.563882 0.681483
0.000183108 0.550256 0.674464
0.000228885 0.540749 0.668009
0.000259403 0.532555 0.661753
0.000289921 0.524376 0.655497
0.00030518 0.516014 0.648646
0.475425 0.706401 0.558984
0.780819 0.692927 0.396262
0.902831 0.690608 0.322667
0.00241093 0.607431 0.712184
0.00115969 0.59913 0.706279
0.000656138 0.592935 0.70135
0.000381476 0.58764 0.696773
0.000244144 0.58323 0.692271
0.00015259 0.57911 0.687938
9.15541e-05 0.575341 0.683955
0.648646 0.757229 0.634928
0.837446 0.784939 0.494347
0.337835 0.661906 0.691356
0.336919 0.648875 0.690196
0.346029 0.642115 0.689708
0.439155 0.651133 0.698314
0.592065 0.618799 0.680613
0.859602 0.64564 0.660029
0.771588 0.102983 0.171176
0.659312 0.0217441 0.0167086
0.662562 0.0169985 0.00526436
0.216266 0.584344 0.663996
0.21738 0.568093 0.658335
0.224308 0.556832 0.654047
0.311986 0.565469 0.659281
0.495201 0.532769 0.633112
0.820264 0.56321 0.605539
0.822583 0.156374 0.186892
0.663005 0.0157778 0.0034638
0.662974 0.0123751 0.000656138
0.111101 0.50956 0.627482
0.114855 0.491981 0.618601
0.127947 0.480964 0.612161
0.207202 0.487282 0.615213
0.394842 0.456855 0.582025
0.778485 0.490517 0.550759
0.810803 0.168688 0.199756
0.662943 0.0124514 0.000671397
0.660121 0.00944533 3.0518e-05
0.0264591 0.439078 0.586511
0.0274662 0.417731 0.572808
0.047425 0.414191 0.569009
0.116579 0.426368 0.571801
0.316762 0.414282 0.547845
0.731792 0.443336 0.504189
0.817716 0.235492 0.246509
0.660624 0.00975052 4.57771e-05
0.654536 0.00694286 0
0.000137331 0.377447 0.550698
0 0.324315 0.515633
0.00590524 0.380133 0.541207
0.0377356 0.398566 0.547219
0.271901 0.454276 0.565332
0.67364 0.468772 0.50663
0.837446 0.381186 0.337987
0.655985 0.00747692 0
0.649134 0.00509651 0
0.000350958 0.404135 0.597848
0.000274662 0.382559 0.581476
0.000137331 0.366308 0.566583
0.00015259 0.401602 0.565042
0.133318 0.504326 0.593347
0.577157 0.570245 0.579629
0.825864 0.535256 0.434989
0.904387 0.415457 0.231113
0.645548 0.0040589 0
0.000854505 0.504997 0.664546
0.000762951 0.487877 0.652338
0.000671397 0.474571 0.641962
0.000595102 0.461936 0.631281
0.000549325 0.449317 0.621317
0.158709 0.632303 0.592996
0.712016 0.639567 0.499168
0.8822 0.627985 0.368627
0.914519 0.52047 0.246311
0.000411994 0.574319 0.695201
0.000411994 0.558953 0.690532
0.000427253 0.548455 0.683345
0.000457771 0.540459 0.677745
0.000488289 0.532128 0.672465
0.000503548 0.524437 0.666423
0.446082 0.72462 0.617197
0.787869 0.708461 0.46363
0.905562 0.709102 0.388556
0.00340276 0.611521 0.715145
0.00161746 0.602945 0.708904
0.0009308 0.596643 0.70457
0.000549325 0.591302 0.699886
0.000335698 0.586496 0.695644
0.000213626 0.582208 0.691325
0.000137331 0.578302 0.687282
0.636027 0.760174 0.645945
0.844541 0.783307 0.501747
0.644739 0.797284 0.753887
0.621592 0.790616 0.749981
0.607431 0.785916 0.747127
0.61709 0.785779 0.747204
0.68661 0.79617 0.755306
0.77966 0.772457 0.746639
0.90338 0.780987 0.744686
0.876554 0.550225 0.606348
0.616053 0.0460517 0.135744
0.540352 0.766293 0.736996
0.514519 0.75671 0.731609
0.497047 0.749462 0.727718
0.502312 0.746746 0.726986
0.568139 0.752041 0.733257
0.639094 0.707362 0.721706
0.903883 0.745495 0.71313
0.875242 0.48838 0.556023
0.643809 0.0375982 0.0785534
0.453712 0.736049 0.719478
0.424323 0.722789 0.712505
0.413123 0.708339 0.707942
0.426551 0.69987 0.707485
0.513481 0.704921 0.716518
0.63917 0.671733 0.704784
0.884276 0.699687 0.684749
0.877974 0.441459 0.500908
0.654704 0.0268711 0.0343175
0.374945 0.693568 0.701579
0.350439 0.670558 0.695674
0.341131 0.656901 0.693614
0.35021 0.649165 0.693309
0.445335 0.658869 0.702281
0.598337 0.630655 0.68629
0.858 0.654185 0.665446
0.882002 0.434546 0.461616
0.66009 0.0209812 0.014313
0.29163 0.649348 0.69044
0.248432 0.621439 0.680339
0.256931 0.612329 0.678996
0.265003 0.60444 0.677043
0.36286 0.618662 0.685725
0.560937 0.611231 0.676173
0.83415 0.62678 0.645731
0.894362 0.504997 0.467262
0.662562 0.0169375 0.00517281
0.173968 0.614572 0.681804
0.127947 0.585077 0.668269
0.148394 0.581552 0.666896
0.162371 0.576806 0.665064
0.262638 0.596902 0.674846
0.53611 0.644846 0.691386
0.806058 0.649699 0.655024
0.907515 0.598596 0.517311
0.663157 0.0140078 0.00163272
0.00209049 0.524559 0.668833
0.00131228 0.504067 0.658824
0.00103761 0.489799 0.651682
0.000640879 0.484688 0.64654
0.0821088 0.589929 0.684993
0.380987 0.669093 0.710048
0.748623 0.712993 0.699519
0.890501 0.690486 0.59321
0.912383 0.609354 0.463416
0.00511177 0.605875 0.716381
0.00265507 0.584619 0.707805
0.00170901 0.570291 0.701534
0.00112917 0.557977 0.695506
0.000991836 0.547662 0.690578
0.000671397 0.54284 0.686366
0.360464 0.742306 0.690364
0.807294 0.745647 0.615213
0.910597 0.747692 0.541268
0.0139925 0.627848 0.722683
0.00679026 0.619837 0.719738
0.00386053 0.613123 0.716182
0.00234989 0.607065 0.711971
0.00146487 0.601816 0.70808
0.000946059 0.596857 0.704799
0.000610361 0.592142 0.70071
0.60235 0.77557 0.681331
0.85272 0.790951 0.545708
0.842054 0.856703 0.778012
0.824552 0.852979 0.778424
0.811658 0.850004 0.777737
0.803845 0.848371 0.777234
0.813565 0.850523 0.777966
0.868406 0.859541 0.775982
0.879896 0.859297 0.775402
0.887755 0.853544 0.776761
0.897307 0.717021 0.706828
0.774273 0.841581 0.774411
0.75346 0.836561 0.772442
0.737942 0.833234 0.771466
0.737972 0.827237 0.770092
0.754421 0.82501 0.770565
0.812711 0.839811 0.77673
0.895293 0.837842 0.774365
0.899001 0.822828 0.768017
0.891325 0.665599 0.67425
0.727321 0.824247 0.768872
0.710521 0.813245 0.765133
0.692653 0.809079 0.761654
0.679316 0.805936 0.758663
0.687663 0.806836 0.758434
0.751797 0.820157 0.766247
0.85391 0.804562 0.762036
0.902373 0.799939 0.755718
0.88716 0.62652 0.650645
0.673503 0.804959 0.758709
0.641672 0.796658 0.753429
0.618692 0.790158 0.749767
0.60267 0.784817 0.746578
0.610681 0.784131 0.746212
0.679942 0.793973 0.754147
0.767147 0.767376 0.744808
0.903548 0.777829 0.742947
0.88307 0.595636 0.632639
0.600824 0.786252 0.747936
0.563272 0.775097 0.741497
0.544228 0.76817 0.737819
0.527138 0.76173 0.734569
0.533288 0.759762 0.733745
0.601602 0.767895 0.74049
0.680064 0.732403 0.732174
0.902602 0.757824 0.731533
0.8869 0.598123 0.627543
0.521141 0.766644 0.737408
0.482551 0.753994 0.729778
0.464393 0.746319 0.724849
0.446784 0.738796 0.720531
0.453956 0.736095 0.720043
0.542428 0.74374 0.730419
0.674861 0.725978 0.729885
0.897215 0.742611 0.706645
0.898421 0.646555 0.631037
0.41268 0.743938 0.726864
0.373541 0.731624 0.717632
0.358831 0.718639 0.715251
0.347539 0.707683 0.714336
0.363973 0.705104 0.717174
0.476997 0.724788 0.730205
0.694942 0.759472 0.747768
0.872801 0.757321 0.72575
0.910185 0.722957 0.654047
0.1785 0.678813 0.721645
0.10573 0.647456 0.713207
0.066041 0.625406 0.706767
0.0393378 0.604517 0.700038
0.0422217 0.606348 0.701106
0.273213 0.704753 0.739712
0.594186 0.767575 0.760815
0.833753 0.794797 0.757122
0.914748 0.782589 0.692836
0.143725 0.672343 0.724071
0.0943465 0.66099 0.725216
0.0645457 0.652949 0.725246
0.0452735 0.645945 0.725368
0.0319829 0.639689 0.725155
0.0223239 0.634302 0.724361
0.0270237 0.656107 0.722469
0.481636 0.793988 0.700557
0.861601 0.814893 0.656275
0.879896 0.859297 0.775402
0.879896 0.859297 0.775402
0.879896 0.859297 0.775402
0.879896 0.859297 0.775402
0.879896 0.859297 0.775402
0.879896 0.859297 0.775402
0.879896 0.859297 0.775402
0.879896 0.859297 0.775402
0.879896 0.859297 0.775402
0.879896 0.859297 0.775402
0.879896 0.859297 0.775402
0.879896 0.859297 0.775402
0.879896 0.859297 0.775402
0.879896 0.859297 0.775402
0.879896 0.859297 0.775402
0.879896 0.859297 0.775402
0.879896 0.859297 0.775402
0.879896 0.859297 0.775402
0.879896 0.859297 0.775402
0.879896 0.859297 0.775402
0.871946 0.859541 0.775647
0.856245 0.858305 0.776806
0.8477 0.857679 0.77763
0.856931 0.858457 0.776867
0.879896 0.859297 0.775402
0.879896 0.859297 0.775402
0.879896 0.859297 0.775402
0.85919 0.858564 0.776562
0.835218 0.855268 0.778225
0.819196 0.851713 0.778149
0.804364 0.848493 0.777279
0.79556 0.846464 0.776425
0.80383 0.848356 0.777218
0.856413 0.858335 0.776822
0.879896 0.859297 0.775402
0.891707 0.846922 0.776761
0.810864 0.849928 0.777783
0.786709 0.844495 0.775662
0.770031 0.840574 0.774029
0.754818 0.836881 0.772564
0.745174 0.834806 0.771908
0.759762 0.833936 0.771954
0.822293 0.843076 0.778637
0.893492 0.843137 0.775998
0.897917 0.828275 0.77052
0.76257 0.838727 0.773266
0.735866 0.832822 0.771344
0.716838 0.828717 0.770016
0.715862 0.818143 0.767147
0.707454 0.812619 0.764889
0.717159 0.814939 0.764446
0.779232 0.830442 0.771313
0.889769 0.825254 0.768658
0.900938 0.812268 0.762585
0.703563 0.825666 0.768841
0.675151 0.819593 0.766567
0.670802 0.807462 0.762707
0.651682 0.8 0.758587
0.637705 0.797116 0.755673
0.647471 0.798932 0.755276
0.718441 0.813718 0.761959
0.814755 0.8056 0.762081
0.901808 0.805905 0.759075
0.604166 0.804532 0.760647
0.573297 0.798016 0.758312
0.553582 0.793683 0.756695
0.551217 0.78793 0.754208
0.541924 0.779248 0.750378
0.55465 0.779004 0.748882
0.637034 0.797009 0.755337
0.79382 0.832654 0.772915
0.899489 0.820264 0.766796
0.190967 0.682185 0.720378
0.190967 0.682185 0.720378
0.190967 0.682185 0.720378
0.190967 0.682185 0.720378
0.190967 0.682185 0.720378
0.238376 0.703044 0.724544
0.459068 0.773114 0.748608
0.689967 0.822568 0.767697
0.879896 0.859297 0.775402
