luts/新涼.cube
TITLE "Generated by Resolve"
LUT_3D_SIZE 5
0 0 0.000366217
0.0344396 3.0518e-05 0
0.444999 1.5259e-05 0
0.58381 0.000106813 0
0.58381 0.000106813 0
0 0.00390631 0.00767529
0 0 0.00030518
0.340505 1.5259e-05 0
0.56994 9.15541e-05 0
0.58381 0.000106813 0
0.00144961 0.253208 0.227085
0.000717174 0.226429 0.181369
0.138384 0.0611734 0.00106813
0.602579 0.000900282 0
0.58381 0.000106813 0
0.000213626 0.493034 0.615534
0.000183108 0.468757 0.57966
0.000167849 0.44593 0.550072
0.672801 0.556893 0.174899
0.860319 0.290013 0
0.00415045 0.613916 0.716655
0.00112917 0.598779 0.705989
0.000411994 0.588235 0.697368
0.000167849 0.579767 0.688655
0.825681 0.79379 0.533669
0 6.10361e-05 4.57771e-05
0.0065919 0.000564584 0
0.442344 0.000289921 0
0.58381 0.000106813 0
0.58381 0.000106813 0
0 0.00251774 0.0268864
0 0.000350958 0.00146487
0.343877 1.5259e-05 0
0.562982 7.62951e-05 0
0.58381 0.000106813 0
6.10361e-05 0.247471 0.314717
4.57771e-05 0.200656 0.247013
0.181292 0.131579 0.00349432
0.635935 0.00227359 0
0.58381 0.000106813 0
0.000259403 0.488731 0.614969
0.000213626 0.463401 0.580438
0.000183108 0.440818 0.551217
0.66244 0.553536 0.194018
0.858106 0.277211 0
0.0027924 0.609308 0.713405
0.000747692 0.594339 0.702617
0.000259403 0.583902 0.693034
0.000106813 0.575708 0.684367
0.824399 0.791058 0.520211
0.00691234 0.348562 0.528511
0.0915236 0.356283 0.527672
0.717372 0.350011 0.436316
0.66067 0.00982681 6.10361e-05
0.58381 0.000106813 0
0 0.128786 0.331716
0.000503548 0.176379 0.354482
0.507744 0.206958 0.271244
0.605722 0.00358587 0
0.58381 0.000106813 0
3.0518e-05 0.251408 0.45658
0 0.209369 0.388357
0.301717 0.342351 0.364492
0.796063 0.113054 0.00708019
0.58381 0.000106813 0
0.000457771 0.495216 0.638086
0.000381476 0.466606 0.609293
0.000289921 0.443763 0.581888
0.677195 0.583871 0.307515
0.905333 0.425559 0.0198367
0.00241093 0.607431 0.712184
0.000656138 0.592935 0.70135
0.000244144 0.58323 0.692271
9.15541e-05 0.575341 0.683955
0.837446 0.784939 0.494347
0.644739 0.797284 0.753887
0.607431 0.785916 0.747127
0.68661 0.79617 0.755306
0.90338 0.780987 0.744686
0.616053 0.0460517 0.135744
0.453712 0.736049 0.719478
0.413123 0.708339 0.707942
0.513481 0.704921 0.716518
0.884276 0.699687 0.684749
0.654704 0.0268711 0.0343175
0.29163 0.649348 0.69044
0.256931 0.612329 0.678996
0.36286 0.618662 0.685725
0.83415 0.62678 0.645731
0.662562 0.0169375 0.00517281
0.00209049 0.524559 0.668833
0.00103761 0.489799 0.651682
0.0821088 0.589929 0.684993
0.748623 0.712993 0.699519
0.912383 0.609354 0.463416
0.0139925 0.627848 0.722683
0.00386053 0.613123 0.716182
0.00146487 0.601816 0.70808
0.000610361 0.592142 0.70071
0.85272 0.790951 0.545708
0.879896 0.859297 0.775402
0.879896 0.859297 0.775402
0.879896 0.859297 0.775402
0.879896 0.859297 0.775402
0.879896 0.859297 0.775402
0.879896 0.859297 0.775402
0.871946 0.859541 0.775647
0.8477 0.857679 0.77763
0.879896 0.859297 0.775402
0.879896 0.859297 0.775402
0.810864 0.849928 0.777783
0.770031 0.840574 0.774029
0.745174 0.834806 0.771908
0.822293 0.843076 0.778637
0.897917 0.828275 0.77052
0.703563 0.825666 0.768841
0.670802 0.807462 0.762707
0.637705 0.797116 0.755673
0.718441 0.813718 0.761959
0.901808 0.805905 0.759075
0.190967 0.682185 0.720378
0.190967 0.682185 0.720378
0.190967 0.682185 0.720378
0.459068 0.773114 0.748608
0.879896 0.859297 0.775402
