luts/杪夏.cube
TITLE "Generated by Resolve"
LUT_3D_SIZE 33
0 0 0
0 0 0
0 0 0
0 0 0
0 0 0
0 0 0
0.000167849 0 0
0.0018616 0 0
0.0116579 0 0
0.0414893 0 0
0.100191 0 0
0.173449 0 0
0.250034 0 0
0.322499 0 0
0.394476 0 0
0.465461 0 0
0.533486 0 0
0.603098 0 0
0.656138 0 0
0.656138 0 0
0.656138 0 0
0.656138 0 0
0.656138 0 0
0.656138 0 0
0.656138 0 0
0.656138 0 0
0.656138 0 0
0.656138 0 0
0.656138 0 0
0.656138 0 0
0.656138 0 0
0.656138 0 0
0.656138 0 0
0 0 0
0 0 0
0 0 0
0 0 0
0 0 0
0 0 0
7.62951e-05 0 0
0.00109865 0 0
0.00766003 0 0
0.0318456 0 0
0.0835889 0 0
0.155215 0 0
0.231083 0 0
0.305394 0 0
0.376944 0 0
0.44831 0 0
0.51632 0 0
0.585122 0 0
0.656138 0 0
0.656138 0 0
0.656138 0 0
0.656138 0 0
0.656138 0 0
0.656138 0 0
0.656138 0 0
0.656138 0 0
0.656138 0 0
0.656138 0 0
0.656138 0 0
0.656138 0 0
0.656138 0 0
0.656138 0 0
0.656138 0 0
0 0 0
0 0 0
0 0 0
0 0 0
0 0 0
0 0 0
1.5259e-05 0 0
0.00062562 0 0
0.00492866 0 0
0.0236057 0 0
0.0675212 0 0
0.136782 0 0
0.21236 0 0
0.28777 0 0
0.35967 0 0
0.430945 0 0
0.50016 0 0
0.568231 0 0
0.641917 0 0
0.656138 0 0
0.656138 0 0
0.656138 0 0
0.656138 0 0
0.656138 0 0
0.656138 0 0
0.656138 0 0
0.656138 0 0
0.656138 0 0
0.656138 0 0
0.656138 0 0
0.656138 0 0
0.656138 0 0
0.656138 0 0
0 0 0
0 0 0
0 0 0
0 0 0
0 0 0
0 0 0
0 0 0
0.000335698 0 0
0.00314336 0 0
0.0170596 0 0
0.0539559 0 0
0.118898 0 0
0.193515 0 0
0.269856 0 0
0.341161 0 0
0.413718 0 0
0.483131 0 0
0.551232 0 0
0.622431 0 0
0.656138 0 0
0.656138 0 0
0.656138 0 0
0.656138 0 0
0.656138 0 0
0.656138 0 0
0.656138 0 0
0.656138 0 0
0.656138 0 0
0.656138 0 0
0.656138 0 0
0.656138 0 0
0.656138 0 0
0.656138 0 0
0 0 0
0 0 0
0 0 0
0 0 0
0 0 0
0 0 0
0 0 0
9.15541e-05 0 0
0.00149538 0 0
0.0107576 0 0
0.0406195 0 0
0.0997787 0 0
0.1738 0 0
0.250614 0 0
0.323339 0 0
0.395514 0 0
0.466468 0 0
0.534508 0 0
0.604196 0 0
0.656138 0 0
0.656138 0 0
0.656138 0 0
0.656138 0 0
0.656138 0 0
0.656138 0 0
0.656138 0 0
0.656138 0 0
0.656138 0 0
0.656138 0 0
0.656138 0 0
0.656138 0 0
0.656138 0 0
0.656138 0 0
0 0 0
0 0 0
0 0 0
0 0 0
0 0 0
0 0 0
0 0 0
1.5259e-05 0 0
0.000717174 0 0
0.00642405 0 0
0.0300908 0 0
0.0821851 0 0
0.15465 0 0
0.231342 0 0
0.306004 0 0
0.377676 0 0
0.449195 0 0
0.517037 0 0
0.585931 0 0
0.656138 0 0
0.656138 0 0
0.656138 0 0
0.656138 0 0
0.656138 0 0
0.656138 0 0
0.656138 0 0
0.656138 0 0
0.656138 0 0
0.656138 0 0
0.656138 0 0
0.656138 0 0
0.656138 0 0
0.656138 0 0
0 0 0
0 0 0
0 0 0
0 0 0
0 0 0
0 0 0
0 0 0
0 0 0
0.000274662 0 0
0.00361639 0 0
0.0214237 0 0
0.0653697 0 0
0.135607 0 0
0.211963 0 0
0.288151 0 0
0.360159 0 0
0.431678 0 0
0.500877 0 0
0.569207 0 0
0.642939 0 0
0.656138 0 0
0.656138 0 0
0.656138 0 0
0.656138 0 0
0.656138 0 0
0.656138 0 0
0.656138 0 0
0.656138 0 0
0.656138 0 0
0.656138 0 0
0.656138 0 0
0.656138 0 0
0.656138 0 0
0 1.5259e-05 0
0 1.5259e-05 0
0 0 0
0 0 0
0 0 0
0 0 0
0 0 0
0 0 0
3.0518e-05 0 0
0.00151064 0 0
0.0132143 0 0
0.0502632 0 0
0.117647 0 0
0.192828 0 0
0.269841 0 0
0.341665 0 0
0.414313 0 0
0.483833 0 0
0.552056 0 0
0.623316 0 0
0.656138 0 0
0.656138 0 0
0.656138 0 0
0.656138 0 0
0.656138 0 0
0.656138 0 0
0.656138 0 0
0.656138 0 0
0.656138 0 0
0.656138 0 0
0.656138 0 0
0.656138 0 0
0.656138 0 0
0 0.000747692 0
0 0.000595102 0
0 0.00047303 0
0 0.000350958 0
0 0.000274662 0
0 0.00015259 0
0 7.62951e-05 0
0 0 0
0 0 0
0.000411994 0 0
0.00637827 0 0
0.0366522 0 0
0.0987411 0 0
0.176257 0 0
0.250736 0 0
0.323644 0 0
0.396124 0 0
0.467185 0 0
0.53521 0 0
0.605158 0 0
0.656138 0 0
0.656138 0 0
0.656138 0 0
0.656138 0 0
0.656138 0 0
0.656138 0 0
0.656138 0 0
0.656138 0 0
0.656138 0 0
0.656138 0 0
0.656138 0 0
0.656138 0 0
0.656138 0 0
0 0.00509651 0
0 0.00428778 0
0 0.00363165 0
0 0.0030518 0
0 0.00256352 0
0 0.00201419 0
0 0.00148013 0
0 0.000991836 0
0 0.000350958 0
0 7.62951e-05 0
0.00213626 0 0
0.0214084 0 0
0.0782483 0 0
0.161349 0 0
0.238666 0 0
0.306447 0 0
0.378241 0 0
0.449912 0 0
0.517891 0 0
0.586892 0 0
0.656138 0 0
0.656138 0 0
0.656138 0 0
0.656138 0 0
0.656138 0 0
0.656138 0 0
0.656138 0 0
0.656138 0 0
0.656138 0 0
0.656138 0 0
0.656138 0 0
0.656138 0 0
0.656138 0 0
0 0.0210422 0
0 0.0187533 0
0 0.0166629 0
0 0.0146487 0
0 0.0128939 0
0 0.0111543 0
0 0.00892653 0
0 0.0077821 0
0 0.00448615 0
0 0.00268559 0
0.000198367 0.00108339 0
0.00915541 0.000350958 0
0.0558175 0.000198367 0
0.141054 7.62951e-05 0
0.2336 0 0
0.305592 0 0
0.360647 0 0
0.43241 0 0
0.501595 0 0
0.569879 0 0
0.643961 0 0
0.656138 0 0
0.656138 0 0
0.656138 0 0
0.656138 0 0
0.656138 0 0
0.656138 0 0
0.656138 0 0
0.656138 0 0
0.656138 0 0
0.656138 0 0
0.656138 0 0
0.656138 0 0
0 0.0539406 0
0 0.049958 0
0 0.0458839 0
0 0.0422827 0
0 0.0387121 0
0 0.0353399 0
0 0.0314488 0
0 0.027985 0
0 0.024979 0
0 0.0160067 0
3.0518e-05 0.0122835 0
0.00209049 0.00657664 0
0.0327764 0.0030518 0
0.11957 0.00209049 0
0.220142 0.00120546 0
0.317662 0.000259403 0
0.381735 0 0
0.414939 0 0
0.484565 0 0
0.552895 0 0
0.624231 0 0
0.656138 0 0
0.656138 0 0
0.656138 0 0
0.656138 0 0
0.656138 0 0
0.656138 0 0
0.656138 0 0
0.656138 0 0
0.656138 0 0
0.656138 0 0
0.656138 0 0
0.656138 0 0
0 0.107149 3.0518e-05
0 0.101442 3.0518e-05
0 0.0959487 1.5259e-05
0 0.090425 1.5259e-05
0 0.0846571 1.5259e-05
0 0.0791485 1.5259e-05
0 0.0729992 0
0 0.0671397 0
0 0.0648661 0
0 0.0563058 0
0 0.0423438 0
0.000671397 0.0373693 0
0.0119631 0.0255589 0
0.0857099 0.0163424 0
0.200732 0.0118563 0
0.314824 0.00810254 0
0.415656 0.00294499 0
0.46865 0 0
0.467781 0 0
0.535927 0 0
0.605966 0 0
0.656138 0 0
0.656138 0 0
0.656138 0 0
0.656138 0 0
0.656138 0 0
0.656138 0 0
0.656138 0 0
0.656138 0 0
0.656138 0 0
0.656138 0 0
0.656138 0 0
0.656138 0 0
0 0.167468 0.000198367
0 0.161517 0.000167849
0 0.155169 0.00015259
0 0.148989 0.000122072
0 0.143053 0.000106813
0 0.137041 9.15541e-05
0 0.130541 7.62951e-05
0 0.124407 6.10361e-05
0 0.117968 4.57771e-05
0 0.119081 1.5259e-05
0 0.101381 0
0.000213626 0.0880293 0
0.00436408 0.0862287 0
0.0416571 0.067216 0
0.162387 0.0494392 0
0.295842 0.040238 0
0.413703 0.0312047 0
0.514946 0.0160067 0
0.562264 0.00047303 0
0.518471 0 0
0.587732 0 0
0.656138 0 0
0.656138 0 0
0.656138 0 0
0.656138 0 0
0.656138 0 0
0.656138 0 0
0.656138 0 0
0.656138 0 0
0.656138 0 0
0.656138 0 0
0.656138 0 0
0.656138 0 0
0 0.227878 0.00122072
0 0.222385 0.000976577
0 0.216892 0.000732433
0 0.212161 0.000503548
0 0.206302 0.000366217
0 0.199603 0.000335698
0 0.1935 0.00030518
0 0.186297 0.000274662
0 0.179904 0.000244144
0 0.173571 0.000213626
0 0.174945 9.15541e-05
3.0518e-05 0.152102 0
0.00192264 0.149386 0
0.0189975 0.152392 0
0.106218 0.129915 0
0.251575 0.108095 0
0.389319 0.0948196 0
0.510872 0.0777295 0
0.608194 0.0490883 0
0.6542 0.00483711 0
0.570459 0 0
0.645029 0 0
0.656138 0 0
0.656138 0 0
0.656138 0 0
0.656138 0 0
0.656138 0 0
0.656138 0 0
0.656138 0 0
0.656138 0 0
0.656138 0 0
0.656138 0 0
0.656138 0 0
0 0.301366 0.0132143
0 0.292454 0.0100252
0 0.284703 0.00766003
0 0.276631 0.00585946
0 0.269322 0.00469978
0 0.261646 0.00373846
0 0.254337 0.00300603
0 0.247333 0.00236515
0 0.240848 0.00189212
0 0.234455 0.0015259
0 0.227939 0.00120546
0 0.23888 0.000564584
0.000671397 0.216114 0
0.0103456 0.223377 0
0.0566873 0.226169 0
0.193286 0.202655 0
0.343832 0.182116 0
0.478584 0.1664 0
0.602701 0.145846 0
0.691478 0.109407 0
0.739498 0.0234684 0
0.625055 0 0
0.656138 0 0
0.656138 0 0
0.656138 0 0
0.656138 0 0
0.656138 0 0
0.656138 0 0
0.656138 0 0
0.656138 0 0
0.656138 0 0
0.656138 0 0
0.656138 0 0
0 0.393591 0.0628824
0 0.385534 0.0559548
0 0.376715 0.0492409
0 0.368872 0.0430762
0 0.360433 0.0372473
0 0.351614 0.0324865
0 0.341085 0.0284733
0 0.330144 0.0245365
0 0.319982 0.020798
0 0.310704 0.016846
0 0.301869 0.0133211
0 0.292699 0.0100099
0 0.306035 0.00604257
0.00451667 0.307622 0.000701915
0.0428626 0.320241 0.000259403
0.140826 0.324346 3.0518e-05
0.294865 0.294911 0
0.442206 0.268437 0
0.569772 0.249485 0
0.684215 0.224567 0
0.763684 0.184222 0
0.815412 0.0678416 0
0.656138 0 0
0.656138 0 0
0.656138 0 0
0.656138 0 0
0.656138 0 0
0.656138 0 0
0.656138 0 0
0.656138 0 0
0.656138 0 0
0.656138 0 0
0.656138 0 0
0 0.482612 0.145739
0 0.473747 0.137499
0 0.46479 0.129305
0 0.455528 0.120943
0 0.447074 0.112688
0 0.438148 0.104372
0 0.429664 0.0961776
0 0.420371 0.0877852
0 0.411612 0.0789654
0 0.403128 0.0709697
0 0.394507 0.0634623
0 0.386191 0.0564279
0 0.377218 0.0494392
0 0.389059 0.035111
0.0198062 0.416022 0.0192264
0.128252 0.422461 0.0112001
0.254582 0.430259 0.00624094
0.403769 0.402472 0.00062562
0.54902 0.373373 3.0518e-05
0.671641 0.350668 0
0.762997 0.316213 0
0.828962 0.270298 0
0.881117 0.150149 0
0.656138 0 0
0.656138 0 0
0.656138 0 0
0.656138 0 0
0.656138 0 0
0.656138 0 0
0.656138 0 0
0.656138 0 0
0.656138 0 0
0.656138 0 0
0 0.566278 0.229099
0 0.558465 0.220706
0 0.550942 0.21294
0 0.543191 0.204593
0 0.535378 0.196841
0 0.527871 0.188647
0 0.519432 0.180423
0 0.510933 0.172213
0 0.501778 0.16318
0 0.492866 0.1552
0 0.483513 0.146624
0 0.474372 0.138109
0 0.465568 0.129915
0 0.456184 0.121324
0 0.472938 0.101289
0.0552987 0.512779 0.0851453
0.232746 0.521462 0.0622721
0.364096 0.525536 0.0496834
0.50663 0.501732 0.0196384
0.643519 0.477119 0.00807202
0.754604 0.45626 0.00329595
0.836896 0.420981 0.000366217
0.894606 0.373144 0
0.88954 0.211627 0
0.656138 0 0
0.656138 0 0
0.656138 0 0
0.656138 0 0
0.656138 0 0
0.656138 0 0
0.656138 0 0
0.656138 0 0
0.656138 0 0
0 0.639094 0.319432
0 0.631724 0.3093
0 0.624704 0.300465
0 0.617395 0.290654
0 0.610422 0.281941
0 0.603082 0.272862
0 0.596246 0.264195
0 0.588998 0.255711
0 0.581918 0.247059
0 0.574411 0.23856
0 0.567102 0.229969
0 0.559457 0.221576
0 0.551583 0.213611
0 0.543954 0.205234
0 0.535912 0.197208
1.5259e-05 0.568795 0.172824
0.126482 0.598321 0.168917
0.336461 0.603357 0.149722
0.467124 0.604913 0.137911
0.595499 0.588876 0.0883497
0.719341 0.567117 0.0611429
0.817761 0.548501 0.0464637
0.901503 0.525704 0.0282597
0.92134 0.46099 0.00105287
0.896437 0.274769 0
0.656138 0 0
0.656138 0 0
0.656138 0 0
0.656138 0 0
0.656138 0 0
0.656138 0 0
0.656138 0 0
0.656138 0 0
0 0.706966 0.419532
0 0.700099 0.410529
0 0.69308 0.399207
0 0.686336 0.38912
0 0.679622 0.378332
0 0.672999 0.368688
0 0.666621 0.358785
0 0.660075 0.348928
0 0.653452 0.339727
0 0.646464 0.329854
0 0.64004 0.320607
0 0.632685 0.310719
0 0.62565 0.301656
0 0.618235 0.291539
0 0.611078 0.282811
0 0.603647 0.273335
0.00112917 0.641154 0.251698
0.22385 0.674449 0.255665
0.441657 0.673716 0.239414
0.556054 0.675853 0.228733
0.672328 0.662943 0.183017
0.781674 0.643427 0.163622
0.87776 0.628229 0.153536
0.936492 0.612268 0.134569
0.931731 0.541466 0.0241093
0.901427 0.337209 0
0.656138 0 0
0.656138 0 0
0.656138 0 0
0.656138 0 0
0.656138 0 0
0.656138 0 0
0.656138 0 0
0 0.783917 0.500771
0 0.775448 0.49189
0 0.767361 0.483589
0 0.759564 0.475685
0 0.751919 0.467872
0 0.744503 0.460121
0 0.737011 0.452476
0 0.729564 0.445212
0 0.722347 0.437812
0 0.714946 0.429603
0 0.707973 0.421057
0 0.701045 0.411994
0 0.693965 0.400671
0 0.687251 0.390433
0 0.680308 0.379385
0 0.673671 0.369726
0 0.667155 0.359442
0.0100099 0.708263 0.334066
0.32398 0.740291 0.337453
0.531746 0.737606 0.322606
0.634836 0.737316 0.313573
0.737728 0.725231 0.272709
0.839246 0.709361 0.266743
0.936538 0.701305 0.277394
0.936477 0.673838 0.225925
0.934981 0.612299 0.0963607
0.904738 0.396384 0
0.656138 0 0
0.656138 0 0
0.656138 0 0
0.656138 0 0
0.656138 0 0
0.656138 0 0
0.000137331 0.826734 0.575326
0.000122072 0.826505 0.569848
0.000106813 0.826291 0.564569
9.15541e-05 0.826062 0.558846
7.62951e-05 0.825895 0.553536
7.62951e-05 0.825711 0.547936
4.57771e-05 0.822904 0.541329
1.5259e-05 0.812604 0.530983
0 0.802808 0.521004
0 0.79382 0.511116
0 0.785183 0.502098
0 0.776638 0.49305
0 0.768521 0.484779
0 0.760601 0.47657
0 0.752956 0.468849
0 0.745373 0.460929
0 0.737819 0.453056
0 0.730175 0.445655
0.0474098 0.778332 0.411078
0.42501 0.796002 0.414343
0.618341 0.793851 0.402426
0.704036 0.793103 0.395941
0.789914 0.782834 0.357809
0.90695 0.769009 0.372869
0.932143 0.754482 0.355917
0.9346 0.72929 0.307393
0.93492 0.674174 0.187366
0.907012 0.452766 0
0.656138 0 0
0.656138 0 0
0.656138 0 0
0.656138 0 0
0.656138 0 0
0.000503548 0.829633 0.627726
0.000442512 0.829267 0.623148
0.000396735 0.828885 0.618158
0.000350958 0.828458 0.613519
0.00030518 0.828077 0.608606
0.000274662 0.827817 0.603555
0.000244144 0.827634 0.598016
0.000213626 0.827482 0.592737
0.000183108 0.827253 0.587045
0.000167849 0.826993 0.581659
0.000137331 0.826749 0.575998
0.000122072 0.826535 0.570596
0.000106813 0.826322 0.56524
9.15541e-05 0.826093 0.559625
9.15541e-05 0.825925 0.55433
7.62951e-05 0.825727 0.548592
6.10361e-05 0.824399 0.542657
1.5259e-05 0.813672 0.531975
0 0.803647 0.521721
0.157641 0.844373 0.488792
0.526558 0.854734 0.490822
0.700053 0.850935 0.482612
0.762325 0.849485 0.473854
0.852659 0.839658 0.44065
0.918502 0.826368 0.452003
0.922393 0.809186 0.428153
0.927153 0.782238 0.382574
0.932311 0.730663 0.270436
0.908278 0.506905 6.10361e-05
0.656138 0 0
0.656138 0 0
0.656138 0 0
0.656138 0 0
0.0019379 0.834836 0.674754
0.00172427 0.834302 0.670375
0.00151064 0.833799 0.665721
0.00132753 0.833234 0.661097
0.00115969 0.832685 0.65655
0.0010071 0.832197 0.651881
0.000885023 0.831678 0.647242
0.00077821 0.831174 0.642405
0.000686656 0.830716 0.637903
0.000595102 0.830213 0.633005
0.000518807 0.829694 0.628458
0.000457771 0.829328 0.623758
0.000396735 0.828946 0.618906
0.000350958 0.828519 0.614282
0.00030518 0.828138 0.609384
0.000274662 0.827863 0.604318
0.000244144 0.82768 0.598657
0.000213626 0.827512 0.593271
0.000183108 0.827268 0.587625
0.000167849 0.827008 0.582055
0.269932 0.879133 0.551171
0.620966 0.893339 0.555856
0.764858 0.896986 0.548241
0.820081 0.902968 0.542611
0.893309 0.906172 0.52491
0.897246 0.896727 0.503395
0.905776 0.872389 0.48571
0.914565 0.839658 0.44979
0.925566 0.783215 0.34464
0.907057 0.561349 0.000320439
0.656138 0 0
0.656138 0 0
0.656138 0 0
0.00682078 0.839963 0.719219
0.00604257 0.83946 0.714855
0.00537118 0.839017 0.710628
0.00474556 0.838468 0.706294
0.00418097 0.837995 0.701885
0.00369268 0.837491 0.697475
0.00326543 0.836927 0.693141
0.0028687 0.836423 0.688655
0.002533 0.83595 0.684276
0.00224308 0.835431 0.679774
0.00198367 0.834943 0.675349
0.00175479 0.834394 0.670985
0.00154116 0.83389 0.666392
0.00135805 0.833341 0.661891
0.00117494 0.832761 0.65716
0.00102235 0.832197 0.652445
0.000900282 0.831693 0.647974
0.000793469 0.83125 0.64303
0.000686656 0.830701 0.638437
0.000595102 0.830274 0.633478
0.000518807 0.82974 0.628779
0.354543 0.88658 0.59826
0.6963 0.897658 0.60737
0.807675 0.900954 0.600244
0.876707 0.907546 0.594553
0.894774 0.907332 0.574823
0.894545 0.907195 0.562081
0.893935 0.906737 0.542931
0.892699 0.905608 0.509407
0.913039 0.839506 0.411261
0.904051 0.612894 0.000991836
0.656138 0 0
0.656138 0 0
0.0229191 0.844526 0.76231
0.0205692 0.843885 0.757977
0.0183871 0.843183 0.753552
0.0164492 0.842573 0.749249
0.0146334 0.842161 0.745052
0.0129702 0.841779 0.74078
0.0114595 0.841382 0.736568
0.0100099 0.841062 0.73225
0.00883497 0.840696 0.728023
0.00782788 0.840345 0.723903
0.00697337 0.839994 0.719875
0.00616464 0.839582 0.71548
0.00546273 0.839048 0.711254
0.00482185 0.838575 0.70692
0.00425727 0.83801 0.702541
0.00375372 0.837507 0.698161
0.00331121 0.837018 0.693706
0.00292973 0.836515 0.68925
0.00257877 0.836057 0.684916
0.00227359 0.835508 0.680232
0.00201419 0.834928 0.675868
0.00177005 0.83444 0.671382
0.437552 0.892241 0.643778
0.758648 0.901595 0.657832
0.846693 0.905669 0.651987
0.896193 0.908003 0.635081
0.895903 0.907866 0.625849
0.895582 0.907698 0.613214
0.89514 0.907485 0.593515
0.894499 0.907179 0.557549
0.892088 0.90483 0.474571
0.900603 0.660533 0.00254826
0.656138 0 0
0.0708171 0.850309 0.814664
0.0633707 0.849867 0.808148
0.0559243 0.849256 0.801892
0.0496834 0.848737 0.79617
0.0442359 0.848234 0.790845
0.0396582 0.847776 0.78584
0.0357061 0.847395 0.78117
0.0321508 0.846845 0.776608
0.0289006 0.846098 0.772
