luts/杪夏.cube
TITLE "Generated by Resolve"
LUT_3D_SIZE 5
0 0 0
0.0116579 0 0
0.533486 0 0
0.656138 0 0
0.656138 0 0
0 0.000747692 0
0 0 0
0.396124 0 0
0.656138 0 0
0.656138 0 0
0 0.393591 0.0628824
0 0.319982 0.020798
0.294865 0.294911 0
0.656138 0 0
0.656138 0 0
0.0019379 0.834836 0.674754
0.000686656 0.830716 0.637903
0.000244144 0.82768 0.598657
0.893309 0.906172 0.52491
0.656138 0 0
0.0780804 0.850782 0.821469
0.0780804 0.850782 0.821469
0.0780804 0.850782 0.821469
0.0780804 0.850782 0.821469
0.909575 0.912306 0.877791
0 0 0.0010071
0.00285344 0 0.000503548
0.547555 0 0
0.656138 0 0
0.656138 0 0
0 0.0012665 0.000640879
0 0.000122072 0
0.394568 0 0
0.656138 0 0
0.656138 0 0
0 0.382284 0.106355
0 0.318196 0.0497902
0.282231 0.29453 0.000122072
0.656138 0 0
0.656138 0 0
0.00137331 0.833387 0.662257
0.00047303 0.829419 0.624765
0.000167849 0.827085 0.583658
0.900389 0.888716 0.502068
0.656138 0 0
0.0780804 0.850782 0.821469
0.0780804 0.850782 0.821469
0.0780804 0.850782 0.821469
0.0780804 0.850782 0.821469
0.909575 0.912306 0.877791
0.28983 0.592447 0.777508
0.267872 0.526543 0.730877
0.7673 0.428565 0.716487
0.764019 7.62951e-05 0.128603
0.656138 0 0
0.0365454 0.3729 0.59498
0.0511025 0.309819 0.538033
0.583322 0.233982 0.514214
0.757961 0 0.0293584
0.656138 0 0
0 0.405005 0.403067
0 0.338979 0.340459
0.332189 0.386633 0.350103
0.748211 0 0.0061799
0.656138 0 0
0.00137331 0.833432 0.662623
0.000488289 0.829526 0.625772
0.000183108 0.827222 0.586206
0.882048 0.866804 0.49839
0.656138 0 0
0.0780804 0.850782 0.821469
0.0780804 0.850782 0.821469
0.0780804 0.850782 0.821469
0.0780804 0.850782 0.821469
0.909575 0.912306 0.877791
0.909575 0.912306 0.877791
0.909575 0.912306 0.877791
0.909575 0.912306 0.877791
0.909575 0.912306 0.877791
0.690135 0.00436408 0.611505
0.909575 0.912306 0.877791
0.874006 0.91281 0.875349
0.835996 0.912459 0.873869
0.909621 0.912261 0.877852
0.690135 0.00436408 0.611505
0.755001 0.910735 0.871473
0.710369 0.895399 0.874128
0.680171 0.849119 0.880705
0.923415 0.778103 0.902296
0.724559 0.00288396 0.519921
0.0780804 0.850782 0.821469
0.0780804 0.850782 0.821469
0.0780804 0.850782 0.821469
0.87834 0.886473 0.848768
0.756176 0.000564584 0.322713
0.0780804 0.850782 0.821469
0.0780804 0.850782 0.821469
0.0780804 0.850782 0.821469
0.0780804 0.850782 0.821469
0.909575 0.912306 0.877791
0.909575 0.912306 0.877791
0.909575 0.912306 0.877791
0.909575 0.912306 0.877791
0.909575 0.912306 0.877791
0.909575 0.912306 0.877791
0.909575 0.912306 0.877791
0.909575 0.912306 0.877791
0.909575 0.912306 0.877791
0.909575 0.912306 0.877791
0.909575 0.912306 0.877791
0.909575 0.912306 0.877791
0.909575 0.912306 0.877791
0.909575 0.912306 0.877791
0.909575 0.912306 0.877791
0.909575 0.912306 0.877791
0.909575 0.912306 0.877791
0.909575 0.912306 0.877791
0.909575 0.912306 0.877791
0.909575 0.912306 0.877791
0.909575 0.912306 0.877791
0.0780804 0.850782 0.821469
0.0780804 0.850782 0.821469
0.0780804 0.850782 0.821469
0.606073 0.905669 0.868147
0.909575 0.912306 0.877791
