luts/杪夏.cube
TITLE "Generated by Resolve"
LUT_3D_SIZE 9
0 0 0
0 0 0
0.0116579 0 0
0.250034 0 0
0.533486 0 0
0.656138 0 0
0.656138 0 0
0.656138 0 0
0.656138 0 0
0 0 0
0 0 0
0.00149538 0 0
0.1738 0 0
0.466468 0 0
0.656138 0 0
0.656138 0 0
0.656138 0 0
0.656138 0 0
0 0.000747692 0
0 0.000274662 0
0 0 0
0.0987411 0 0
0.396124 0 0
0.656138 0 0
0.656138 0 0
0.656138 0 0
0.656138 0 0
0 0.107149 3.0518e-05
0 0.0846571 1.5259e-05
0 0.0648661 0
0.0119631 0.0255589 0
0.415656 0.00294499 0
0.605966 0 0
0.656138 0 0
0.656138 0 0
0.656138 0 0
0 0.393591 0.0628824
0 0.360433 0.0372473
0 0.319982 0.020798
0 0.306035 0.00604257
0.294865 0.294911 0
0.763684 0.184222 0
0.656138 0 0
0.656138 0 0
0.656138 0 0
0 0.706966 0.419532
0 0.679622 0.378332
0 0.653452 0.339727
0 0.62565 0.301656
0.00112917 0.641154 0.251698
0.672328 0.662943 0.183017
0.931731 0.541466 0.0241093
0.656138 0 0
0.656138 0 0
0.0019379 0.834836 0.674754
0.00115969 0.832685 0.65655
0.000686656 0.830716 0.637903
0.000396735 0.828946 0.618906
0.000244144 0.82768 0.598657
0.269932 0.879133 0.551171
0.893309 0.906172 0.52491
0.925566 0.783215 0.34464
0.656138 0 0
0.0780804 0.850782 0.821469
0.0780804 0.850782 0.821469
0.0780804 0.850782 0.821469
0.0570382 0.849317 0.802823
0.0362707 0.847425 0.781888
0.0235904 0.844724 0.763424
0.606912 0.90547 0.741527
0.899962 0.909621 0.726711
0.894636 0.907256 0.565988
0.0780804 0.850782 0.821469
0.0780804 0.850782 0.821469
0.0780804 0.850782 0.821469
0.0780804 0.850782 0.821469
0.0780804 0.850782 0.821469
0.0780804 0.850782 0.821469
0.0780804 0.850782 0.821469
0.909575 0.912306 0.877791
0.909575 0.912306 0.877791
0 0 0
0 0 0
0.0107271 0 0
0.242023 0 0
0.525795 0 0
0.656138 0 0
0.656138 0 0
0.656138 0 0
0.656138 0 0
0 0 0
0 0 0
0.0011902 0 0
0.165621 0 0
0.458824 0 0
0.656138 0 0
0.656138 0 0
0.656138 0 0
0.656138 0 0
0 0.000549325 0
0 0.000167849 0
0 0 0
0.0910353 0 0
0.388174 0 0
0.656138 0 0
0.656138 0 0
0.656138 0 0
0.656138 0 0
0 0.0992142 3.0518e-05
0 0.0770581 0
0 0.0579843 0
0.00941482 0.0212558 0
0.399969 0.002121 0
0.597803 0 0
0.656138 0 0
0.656138 0 0
0.656138 0 0
0 0.382116 0.0532387
0 0.347509 0.030869
0 0.308003 0.01561
0 0.294102 0.00442512
0.280629 0.279118 0
0.753643 0.172152 0
0.656138 0 0
0.656138 0 0
0.656138 0 0
0 0.697368 0.406027
0 0.670405 0.364416
0 0.644053 0.326253
0 0.615381 0.288289
0.000762951 0.631159 0.239475
0.661707 0.652308 0.169009
0.930648 0.529229 0.0170596
0.656138 0 0
0.656138 0 0
0.00163272 0.834119 0.668605
0.000961318 0.831937 0.649927
0.000564584 0.830045 0.631464
0.000335698 0.828428 0.612406
0.000198367 0.82739 0.591287
0.259693 0.878111 0.543633
0.895109 0.901884 0.5131
0.926863 0.774975 0.333425
0.656138 0 0
0.0780804 0.850782 0.821469
0.0780804 0.850782 0.821469
0.0766918 0.85066 0.82005
0.0482795 0.848615 0.794827
0.031342 0.846647 0.775464
0.0203555 0.843778 0.757443
0.595514 0.90425 0.733486
0.899657 0.909728 0.719326
0.894499 0.907179 0.558236
0.0780804 0.850782 0.821469
0.0780804 0.850782 0.821469
0.0780804 0.850782 0.821469
0.0780804 0.850782 0.821469
0.0780804 0.850782 0.821469
0.0780804 0.850782 0.821469
0.0780804 0.850782 0.821469
0.909575 0.912306 0.877791
0.909575 0.912306 0.877791
0 0 0.0010071
0 0 0.000503548
0.00285344 0 0.000503548
0.240345 0 4.57771e-05
0.547555 0 0
0.656138 0 0
0.656138 0 0
0.656138 0 0
0.656138 0 0
0 0 0.000381476
0 0 0.000167849
0.000335698 0 0.000106813
0.157641 0 0
0.467369 0 0
0.656138 0 0
0.656138 0 0
0.656138 0 0
0.656138 0 0
0 0.0012665 0.000640879
0 0.000640879 0.000274662
0 0.000122072 0
0.094789 0 0
0.394568 0 0
0.656138 0 0
0.656138 0 0
0.656138 0 0
0.656138 0 0
0 0.0950484 0.00727855
0 0.0696117 0.00370794
0 0.0484627 0.00112917
0.0112764 0.0290532 0
0.409262 0.00340276 0
0.589731 0 0
0.656138 0 0
0.656138 0 0
0.656138 0 0
0 0.382284 0.106355
0 0.349783 0.0773785
0 0.318196 0.0497902
0 0.296422 0.0227359
0.282231 0.29453 0.000122072
0.743358 0.161425 0
0.656138 0 0
0.656138 0 0
0.656138 0 0
0 0.688426 0.40206
0 0.661997 0.360265
0 0.634852 0.3187
0 0.605661 0.275868
0.000503548 0.621103 0.226612
0.650477 0.641688 0.153689
0.929366 0.517021 0.011429
0.656138 0 0
0.656138 0 0
0.00137331 0.833387 0.662257
0.000793469 0.831235 0.643488
0.00047303 0.829419 0.624765
0.000289921 0.827939 0.605509
0.000167849 0.827085 0.583658
0.249393 0.877028 0.536049
0.900389 0.888716 0.502068
0.928023 0.766735 0.321767
0.656138 0 0
0.0780804 0.850782 0.821469
0.0780804 0.850782 0.821469
0.06598 0.85005 0.810529
0.0413062 0.847898 0.787686
0.0269932 0.845655 0.76907
0.0174716 0.842908 0.751507
0.583947 0.903151 0.725322
0.899351 0.90985 0.712123
0.894286 0.907027 0.550713
0.0780804 0.850782 0.821469
0.0780804 0.850782 0.821469
0.0780804 0.850782 0.821469
0.0780804 0.850782 0.821469
0.0780804 0.850782 0.821469
0.0780804 0.850782 0.821469
0.0780804 0.850782 0.821469
0.909575 0.912306 0.877791
0.909575 0.912306 0.877791
0 0.0435035 0.227466
0 0.0372625 0.231724
0.0033875 0.013077 0.190784
0.276493 0.00222782 0.147555
0.570916 0 0.0261692
0.745586 0 0.0037995
0.656138 0 0
0.656138 0 0
0.656138 0 0
0 0.0197452 0.135637
0 0.00907912 0.100511
0.000122072 0.00218204 0.0872663
0.121675 1.5259e-05 0.0337835
0.485115 0 0.00923171
0.737545 0 0.000976577
0.656138 0 0
0.656138 0 0
0.656138 0 0
0 0.0197147 0.0895705
0 0.0124361 0.0658732
0 0.00961318 0.0618143
0.0879835 0.00610361 0.0495918
0.401251 0 0.00294499
0.729274 0 0.000213626
0.656138 0 0
0.656138 0 0
0.656138 0 0
0 0.1093 0.104433
0 0.085008 0.079408
0 0.0655222 0.0583352
0.0219883 0.0732128 0.0419318
0.465644 0.020676 0.00588998
0.639292 0 1.5259e-05
0.656138 0 0
0.656138 0 0
0.656138 0 0
0 0.382757 0.179309
0 0.349691 0.152865
0 0.318257 0.126467
0 0.303075 0.0948348
0.300237 0.327504 0.0363317
0.785534 0.205158 0.00350958
0.656138 0 0
0.656138 0 0
0.656138 0 0
0 0.679866 0.409506
0 0.654124 0.372549
0 0.6271 0.337331
0 0.598001 0.303075
0.00047303 0.613748 0.261265
0.644633 0.638422 0.203967
0.937377 0.532906 0.101106
0.656138 0 0
0.656138 0 0
0.00123598 0.832959 0.65861
0.000732433 0.83093 0.640391
0.000442512 0.82916 0.621988
0.000259403 0.827848 0.602777
0.00015259 0.826993 0.581491
0.238605 0.876081 0.53434
0.893629 0.876783 0.496544
0.930251 0.759426 0.335027
0.656138 0 0
0.0780804 0.850782 0.821469
0.0780804 0.850782 0.821469
0.0567941 0.849332 0.802609
0.0361486 0.847456 0.781735
0.0235904 0.844724 0.763424
0.0151827 0.842268 0.746303
0.572076 0.902159 0.71812
0.899077 0.909712 0.705333
0.894072 0.906844 0.545541
0.0780804 0.850782 0.821469
0.0780804 0.850782 0.821469
0.0780804 0.850782 0.821469
0.0780804 0.850782 0.821469
0.0780804 0.850782 0.821469
0.0780804 0.850782 0.821469
0.0780804 0.850782 0.821469
0.904967 0.912337 0.877577
0.909575 0.912306 0.877791
0.28983 0.592447 0.777508
0.269245 0.55903 0.753857
0.267872 0.526543 0.730877
0.400336 0.494743 0.715007
0.7673 0.428565 0.716487
0.760098 0.000350958 0.268208
0.764019 7.62951e-05 0.128603
0.656138 0 0
0.656138 0 0
0.158007 0.483467 0.693812
0.116869 0.443381 0.663874
0.151095 0.410925 0.64184
0.273671 0.371511 0.621164
0.681224 0.304417 0.624308
0.763394 0.00015259 0.184344
0.761578 3.0518e-05 0.0642252
0.656138 0 0
0.656138 0 0
0.0365454 0.3729 0.59498
0.01561 0.331594 0.556374
0.0511025 0.309819 0.538033
0.158709 0.283909 0.518242
0.583322 0.233982 0.514214
0.753979 6.10361e-05 0.11342
0.757961 0 0.0293584
0.656138 0 0
0.656138 0 0
4.57771e-05 0.296223 0.468879
0 0.245304 0.41532
0.00383001 0.253498 0.424552
0.0624552 0.24419 0.414893
0.469505 0.21326 0.405997
0.653407 0 0.0616312
0.752728 0 0.0125429
0.656138 0 0
0.656138 0 0
0 0.405005 0.403067
0 0.371511 0.371405
0 0.338979 0.340459
0.000595102 0.36144 0.349889
0.332189 0.386633 0.350103
0.787015 0.295094 0.289586
0.748211 0 0.0061799
0.656138 0 0
0.656138 0 0
0 0.680385 0.485527
0 0.652567 0.454719
0 0.623713 0.423636
0 0.594247 0.391974
0.00204471 0.616907 0.361135
0.647562 0.638972 0.314824
0.942489 0.548241 0.270298
0.656138 0 0
0.656138 0 0
0.00137331 0.833432 0.662623
0.000808728 0.831312 0.644312
0.000488289 0.829526 0.625772
0.000289921 0.827955 0.60705
0.000183108 0.827222 0.586206
0.227955 0.875593 0.538659
0.882048 0.866804 0.49839
0.932769 0.753491 0.363058
0.656138 0 0
0.0780804 0.850782 0.821469
0.0780804 0.850782 0.821469
0.0495613 0.848722 0.796017
0.032166 0.846845 0.776608
0.0209049 0.843946 0.758556
0.0132753 0.841886 0.741512
0.560494 0.901228 0.711742
0.898833 0.909545 0.699641
0.894057 0.906828 0.544701
0.0780804 0.850782 0.821469
0.0780804 0.850782 0.821469
0.0780804 0.850782 0.821469
0.0780804 0.850782 0.821469
0.0780804 0.850782 0.821469
0.0780804 0.850782 0.821469
0.0780804 0.850782 0.821469
0.890196 0.91284 0.876524
0.909575 0.912306 0.877791
0.736217 0.909987 0.871107
0.714305 0.888029 0.875425
0.691752 0.863722 0.878767
0.683818 0.844694 0.881529
0.780468 0.827817 0.890364
0.92401 0.771038 0.902953
0.690135 0.00436408 0.611505
0.725002 0.00285344 0.518166
0.656138 0 0
0.655329 0.842222 0.880476
0.625132 0.823728 0.881498
0.600946 0.805982 0.882078
0.592294 0.788861 0.88336
0.693202 0.770031 0.891829
0.925643 0.713329 0.905303
0.690135 0.00436408 0.611505
0.748806 0.000961318 0.392813
0.656138 0 0
0.558221 0.786954 0.881575
0.523796 0.768368 0.880613
0.499397 0.749569 0.879744
0.48896 0.730327 0.879606
0.598947 0.70634 0.87628
0.921569 0.644404 0.863218
0.734234 0.00222782 0.480842
0.758556 0.000427253 0.291325
0.656138 0 0
0.444556 0.730953 0.876616
0.406836 0.703151 0.86154
0.386435 0.670939 0.831464
0.379843 0.64155 0.807263
0.512413 0.616373 0.793027
0.837919 0.555657 0.792737
0.751934 0.000762951 0.363973
0.763012 0.000198367 0.204044
0.656138 0 0
0.311101 0.68191 0.801297
0.269215 0.651789 0.776699
0.249729 0.623026 0.753841
0.254215 0.595468 0.732387
0.403326 0.5776 0.720958
0.761868 0.532006 0.720302
0.760052 0.000350958 0.267643
0.764111 9.15541e-05 0.132601
0.656138 0 0
0.000213626 0.708659 0.687037
1.5259e-05 0.67892 0.661112
0 0.649714 0.635264
0 0.619577 0.608865
0.201709 0.684535 0.657038
0.655375 0.672984 0.646097
0.943038 0.600931 0.62182
0.76286 4.57771e-05 0.0853132
0.656138 0 0
0.0078584 0.84036 0.723964
0.00485237 0.838605 0.707103
0.00296025 0.836576 0.689723
0.00181582 0.834577 0.672267
0.00108339 0.832441 0.654108
0.232731 0.878706 0.60499
0.875059 0.86186 0.584756
0.937118 0.75903 0.536858
0.656138 0 0
0.0780804 0.850782 0.821469
0.0780804 0.850782 0.821469
0.0559243 0.849256 0.801877
0.0357824 0.84741 0.781231
0.0233463 0.844633 0.763043
0.0149996 0.842206 0.745846
0.55317 0.90161 0.717998
0.899107 0.909743 0.706218
0.894774 0.907332 0.572992
0.0780804 0.850782 0.821469
0.0780804 0.850782 0.821469
0.0780804 0.850782 0.821469
0.0780804 0.850782 0.821469
0.0780804 0.850782 0.821469
0.0780804 0.850782 0.821469
0.0780804 0.850782 0.821469
0.876387 0.912886 0.875578
0.909575 0.912306 0.877791
0.909575 0.912306 0.877791
0.909575 0.912306 0.877791
0.909575 0.912306 0.877791
0.909575 0.912306 0.877791
0.909575 0.912306 0.877791
0.909575 0.912306 0.877791
0.909575 0.912306 0.877791
0.690135 0.00436408 0.611505
0.690135 0.00436408 0.611505
0.909575 0.912306 0.877791
0.909575 0.912306 0.877791
0.909575 0.912306 0.877791
0.909575 0.912306 0.877791
0.909575 0.912306 0.877791
0.909575 0.912306 0.877791
0.909575 0.912306 0.877791
0.690135 0.00436408 0.611505
0.690135 0.00436408 0.611505
0.909575 0.912306 0.877791
0.909575 0.912306 0.877791
0.874006 0.91281 0.875349
0.842466 0.912764 0.874113
0.835996 0.912459 0.873869
0.909575 0.912306 0.877791
0.909621 0.912261 0.877852
0.690135 0.00436408 0.611505
0.690135 0.00436408 0.611505
0.835279 0.912413 0.873838
0.807599 0.911925 0.873289
0.78381 0.911604 0.872572
0.76228 0.910964 0.87158
0.757519 0.910796 0.871504
0.862165 0.891112 0.883085
0.919631 0.830304 0.896559
0.690135 0.00436408 0.611505
0.690135 0.00436408 0.611505
0.755001 0.910735 0.871473
0.732326 0.909865 0.871015
0.710369 0.895399 0.874128
0.688716 0.868696 0.877699
0.680171 0.849119 0.880705
0.776547 0.833021 0.889647
0.923415 0.778103 0.902296
0.690135 0.00436408 0.611505
0.724559 0.00288396 0.519921
0.670893 0.90837 0.869413
0.645258 0.894041 0.871519
0.614771 0.86659 0.874708
0.589426 0.845609 0.876524
0.579965 0.827955 0.878401
0.687404 0.814786 0.886595
0.924117 0.768948 0.90309
0.690135 0.00436408 0.611505
0.748119 0.000991836 0.397696
0.0780804 0.850782 0.821469
0.0780804 0.850782 0.821469
0.0780804 0.850782 0.821469
0.0780804 0.850782 0.821469
0.0780804 0.850782 0.821469
0.558694 0.904005 0.866926
0.87834 0.886473 0.848768
0.929946 0.796887 0.828229
0.756176 0.000564584 0.322713
0.0780804 0.850782 0.821469
0.0780804 0.850782 0.821469
0.0780804 0.850782 0.821469
0.0780804 0.850782 0.821469
0.0780804 0.850782 0.821469
0.0778973 0.850752 0.821302
0.626841 0.90724 0.831449
0.905867 0.910338 0.799741
0.899977 0.909621 0.727245
0.0780804 0.850782 0.821469
0.0780804 0.850782 0.821469
0.0780804 0.850782 0.821469
0.0780804 0.850782 0.821469
0.0780804 0.850782 0.821469
0.0780804 0.850782 0.821469
0.0780804 0.850782 0.821469
0.86688 0.912856 0.874937
0.909575 0.912306 0.877791
0.909575 0.912306 0.877791
0.909575 0.912306 0.877791
0.909575 0.912306 0.877791
0.909575 0.912306 0.877791
0.909575 0.912306 0.877791
0.909575 0.912306 0.877791
0.909575 0.912306 0.877791
0.909575 0.912306 0.877791
0.690135 0.00436408 0.611505
0.909575 0.912306 0.877791
0.909575 0.912306 0.877791
0.909575 0.912306 0.877791
0.909575 0.912306 0.877791
0.909575 0.912306 0.877791
0.909575 0.912306 0.877791
0.909575 0.912306 0.877791
0.909575 0.912306 0.877791
0.690135 0.00436408 0.611505
0.909575 0.912306 0.877791
0.909575 0.912306 0.877791
0.909575 0.912306 0.877791
0.909575 0.912306 0.877791
0.909575 0.912306 0.877791
0.909575 0.912306 0.877791
0.909575 0.912306 0.877791
0.909575 0.912306 0.877791
0.690135 0.00436408 0.611505
0.909575 0.912306 0.877791
0.909575 0.912306 0.877791
0.909575 0.912306 0.877791
0.909575 0.912306 0.877791
0.909575 0.912306 0.877791
0.909575 0.912306 0.877791
0.909575 0.912306 0.877791
0.909575 0.912306 0.877791
0.690135 0.00436408 0.611505
0.909575 0.912306 0.877791
0.909575 0.912306 0.877791
0.909575 0.912306 0.877791
0.909575 0.912306 0.877791
0.909575 0.912306 0.877791
0.909575 0.912306 0.877791
0.909575 0.912306 0.877791
0.909575 0.912306 0.877791
0.690135 0.00436408 0.611505
0.909575 0.912306 0.877791
0.909575 0.912306 0.877791
0.909575 0.912306 0.877791
0.909575 0.912306 0.877791
0.909575 0.912306 0.877791
0.909575 0.912306 0.877791
0.909575 0.912306 0.877791
0.909575 0.912306 0.877791
0.690135 0.00436408 0.611505
0.909575 0.912306 0.877791
0.909575 0.912306 0.877791
0.87866 0.912871 0.8757
0.844419 0.91284 0.874159
0.818662 0.912184 0.873594
0.814984 0.912108 0.873503
0.909575 0.912306 0.877791
0.909575 0.912306 0.877791
0.690135 0.00436408 0.611505
0.0780804 0.850782 0.821469
0.0780804 0.850782 0.821469
0.0780804 0.850782 0.821469
0.0780804 0.850782 0.821469
0.0780804 0.850782 0.821469
0.0780804 0.850782 0.821469
0.761837 0.910933 0.871565
0.909575 0.912306 0.877791
0.909575 0.912306 0.877791
0.0780804 0.850782 0.821469
0.0780804 0.850782 0.821469
0.0780804 0.850782 0.821469
0.0780804 0.850782 0.821469
0.0780804 0.850782 0.821469
0.0780804 0.850782 0.821469
0.0780804 0.850782 0.821469
0.889799 0.912871 0.876524
0.909575 0.912306 0.877791
0.909575 0.912306 0.877791
0.909575 0.912306 0.877791
0.909575 0.912306 0.877791
0.909575 0.912306 0.877791
0.909575 0.912306 0.877791
0.909575 0.912306 0.877791
0.909575 0.912306 0.877791
0.909575 0.912306 0.877791
0.909575 0.912306 0.877791
0.909575 0.912306 0.877791
0.909575 0.912306 0.877791
0.909575 0.912306 0.877791
0.909575 0.912306 0.877791
0.909575 0.912306 0.877791
0.909575 0.912306 0.877791
0.909575 0.912306 0.877791
0.909575 0.912306 0.877791
0.909575 0.912306 0.877791
0.909575 0.912306 0.877791
0.909575 0.912306 0.877791
0.909575 0.912306 0.877791
0.909575 0.912306 0.877791
0.909575 0.912306 0.877791
0.909575 0.912306 0.877791
0.909575 0.912306 0.877791
0.909575 0.912306 0.877791
0.909575 0.912306 0.877791
0.909575 0.912306 0.877791
0.909575 0.912306 0.877791
0.909575 0.912306 0.877791
0.909575 0.912306 0.877791
0.909575 0.912306 0.877791
0.909575 0.912306 0.877791
0.909575 0.912306 0.877791
0.909575 0.912306 0.877791
0.909575 0.912306 0.877791
0.909575 0.912306 0.877791
0.909575 0.912306 0.877791
0.909575 0.912306 0.877791
0.909575 0.912306 0.877791
0.909575 0.912306 0.877791
0.909575 0.912306 0.877791
0.909575 0.912306 0.877791
0.909575 0.912306 0.877791
0.909575 0.912306 0.877791
0.909575 0.912306 0.877791
0.909575 0.912306 0.877791
0.909575 0.912306 0.877791
0.909575 0.912306 0.877791
0.909575 0.912306 0.877791
0.909575 0.912306 0.877791
0.909575 0.912306 0.877791
0.909575 0.912306 0.877791
0.909575 0.912306 0.877791
0.909575 0.912306 0.877791
0.909575 0.912306 0.877791
0.909575 0.912306 0.877791
0.909575 0.912306 0.877791
0.909575 0.912306 0.877791
0.909575 0.912306 0.877791
0.909575 0.912306 0.877791
0.909575 0.912306 0.877791
0.909575 0.912306 0.877791
0.909575 0.912306 0.877791
0.909575 0.912306 0.877791
0.909575 0.912306 0.877791
0.909575 0.912306 0.877791
0.909575 0.912306 0.877791
0.909575 0.912306 0.877791
0.909575 0.912306 0.877791
0.909575 0.912306 0.877791
0.909575 0.912306 0.877791
0.0780804 0.850782 0.821469
0.0780804 0.850782 0.821469
0.0780804 0.850782 0.821469
0.0780804 0.850782 0.821469
0.0780804 0.850782 0.821469
0.0780804 0.850782 0.821469
0.606073 0.905669 0.868147
0.909575 0.912306 0.877791
0.909575 0.912306 0.877791
