luts/東雲.cube
TITLE "Generated by Resolve"
LUT_3D_SIZE 5
0 0 0
0.0110933 0 9.15541e-05
0.170779 0 0.000259403
0.317632 0 0.000503548
0.533883 0 0.000503548
0 0.0295262 0.00393683
0.00433356 0.00271611 6.10361e-05
0.193774 0.00109865 0
0.418555 0.00210575 0
0.667231 0.00486763 0
0.000381476 0.157656 0.00689708
0.00953689 0.152224 0.00306706
0.15877 0.0987411 0.000244144
0.422614 0.0841077 6.10361e-05
0.713222 0.0959487 4.57771e-05
0.0339055 0.364034 0.12311
0.0850538 0.359243 0.10013
0.20174 0.368078 0.0766461
0.41735 0.317464 0.0201877
0.746136 0.296971 0.0145113
0.139544 0.593988 0.328496
0.158648 0.575662 0.304616
0.274403 0.572305 0.270237
0.430716 0.582467 0.251423
0.72105 0.532357 0.13489
0 0.000595102 0.00077821
0.000457771 9.15541e-05 0.000961318
0.117189 1.5259e-05 0.000503548
0.338811 4.57771e-05 0.00105287
0.651102 0.00453193 0.00802625
0 0.0365301 0.0763714
0.0251469 0.0542458 0.0642557
0.252964 0.0480049 0.0302739
0.497276 0.0560464 0.020798
0.732387 0.0840009 0.0297246
6.10361e-05 0.205173 0.187076
0.0377203 0.250751 0.163424
0.235325 0.221912 0.0970016
0.506386 0.191485 0.0481117
0.760922 0.195544 0.0431067
0.0224002 0.418952 0.280003
0.099443 0.420081 0.258824
0.255634 0.414923 0.218357
0.440375 0.358816 0.0950332
0.755718 0.329244 0.061265
0.127703 0.6112 0.374792
0.151873 0.591592 0.352941
0.276295 0.583719 0.311574
0.443153 0.589242 0.290349
0.718791 0.542992 0.174304
0 0.0187533 0.0633249
0.000274662 0.0089723 0.0939193
0.146548 0.0438544 0.149065
0.457359 0.0632029 0.159106
0.748714 0.106752 0.184756
0 0.118517 0.20296
0.0277256 0.163058 0.236713
0.209567 0.176028 0.249989
0.49012 0.188296 0.242893
0.735409 0.209644 0.242313
0.0155642 0.274037 0.319524
0.115297 0.29929 0.323064
0.28423 0.30428 0.318715
0.513069 0.29485 0.284138
0.746868 0.302266 0.276616
0.0612039 0.432303 0.405921
0.123705 0.440726 0.397116
0.276692 0.462547 0.38233
0.486397 0.437644 0.325322
0.772641 0.411414 0.289235
0.10219 0.655299 0.460807
0.126986 0.637079 0.452537
0.266331 0.63331 0.444312
0.477012 0.626001 0.406592
0.735378 0.589349 0.313512
4.57771e-05 0.20679 0.319265
0.0146029 0.210086 0.334524
0.0800336 0.167742 0.370871
0.409064 0.250324 0.419318
0.828672 0.264012 0.438041
0.0028687 0.277836 0.373968
0.049897 0.300191 0.392264
0.153338 0.27277 0.401801
0.426947 0.314046 0.43151
0.764813 0.314595 0.441062
0.0445411 0.369665 0.436088
0.130739 0.382254 0.442985
0.264637 0.393622 0.448722
0.459815 0.393454 0.459648
0.749722 0.3897 0.459434
0.216297 0.499397 0.514244
0.253986 0.496651 0.508888
0.359838 0.503639 0.506065
0.527367 0.502663 0.501793
0.770275 0.487007 0.483284
0.123964 0.715389 0.572747
0.147524 0.675212 0.557931
0.257771 0.679454 0.545953
0.471397 0.688075 0.53463
0.757763 0.651881 0.455329
0.0126345 0.442557 0.5234
0.0423743 0.451499 0.540902
0.0842908 0.425635 0.546883
0.157763 0.367849 0.620935
0.804028 0.479133 0.695964
0.0280461 0.488075 0.553811
0.0623636 0.496071 0.567803
0.124651 0.494392 0.581537
0.187289 0.445945 0.618021
0.731716 0.490593 0.715023
0.0715343 0.546929 0.594797
0.11191 0.552468 0.603052
0.180255 0.559625 0.616403
0.261189 0.537591 0.627222
0.605692 0.518196 0.735882
0.175219 0.623133 0.645365
0.189883 0.622309 0.646357
0.266499 0.633753 0.659373
0.39089 0.645502 0.678233
0.633341 0.599207 0.74995
0.432395 0.783413 0.714336
0.438407 0.78436 0.714977
0.485985 0.791272 0.719509
0.564157 0.800351 0.725338
0.807126 0.802335 0.718975
