luts/東雲.cube
TITLE "Generated by Resolve"
LUT_3D_SIZE 33
0 0 0
0 0 0
0 0 0
0 0 0
0 0 1.5259e-05
0.000137331 0 4.57771e-05
0.00115969 0 6.10361e-05
0.00418097 0 7.62951e-05
0.0110933 0 9.15541e-05
0.0224308 0 0.000122072
0.0379797 0 0.000137331
0.057145 0 0.00015259
0.0798047 0 0.000183108
0.103944 0 0.000198367
0.126772 0 0.000213626
0.148989 0 0.000244144
0.170779 0 0.000259403
0.190906 0 0.000274662
0.210498 0 0.00030518
0.229496 0 0.000335698
0.247883 0 0.000366217
0.266178 0 0.000396735
0.284092 0 0.000427253
0.301091 0 0.000457771
0.317632 0 0.000503548
0.334157 0 0.000549325
0.351171 0 0.000595102
0.37052 0 0.000610361
0.394095 0 0.000579843
0.420294 0 0.000564584
0.450782 0 0.000534066
0.487266 0 0.000503548
0.533883 0 0.000503548
0 0 0
0 0 0
0 0 0
0 0 0
0 0 1.5259e-05
0.000137331 0 4.57771e-05
0.00106813 0 6.10361e-05
0.00389105 0 7.62951e-05
0.0102693 0 9.15541e-05
0.0212711 0 0.000122072
0.0363165 0 0.000137331
0.0550546 0 0.00015259
0.0771038 0 0.000183108
0.101091 0 0.000198367
0.12401 0 0.000213626
0.146288 0 0.000228885
0.168185 0 0.000259403
0.188418 0 0.000274662
0.207752 0 0.00030518
0.227054 0 0.000335698
0.245151 0 0.000350958
0.263462 0 0.000381476
0.281636 0 0.000411994
0.298665 0 0.000457771
0.315221 0 0.000488289
0.332265 0 0.000534066
0.35288 0 0.000518807
0.374502 0 0.000488289
0.398611 0 0.00047303
0.425284 0 0.000442512
0.456641 0 0.000411994
0.492714 0 0.000381476
0.538125 0 0.000381476
0 0 0
0 0 0
0 0 0
0 0 0
0 0 1.5259e-05
0.000137331 0 4.57771e-05
0.00105287 0 6.10361e-05
0.00375372 0 7.62951e-05
0.00982681 0 9.15541e-05
0.0204013 0 0.000122072
0.0350042 0 0.000137331
0.0532387 0 0.00015259
0.0748608 0 0.000183108
0.0986954 0 0.000198367
0.121843 0 0.000213626
0.143755 0 0.000228885
0.16556 0 0.000259403
0.185916 0 0.000274662
0.205509 0 0.00030518
0.224582 0 0.000320439
0.242939 0 0.000350958
0.261036 0 0.000381476
0.279423 0 0.000411994
0.297078 0 0.000442512
0.316426 0 0.000427253
0.336629 0 0.000411994
0.358053 0 0.000381476
0.380529 0 0.000366217
0.406027 0 0.000335698
0.433433 0 0.00030518
0.464637 0 0.000274662
0.500725 0 0.000244144
0.545052 0 0.000244144
0 0 0
0 0 0
0 0 0
0 0 0
0 0 1.5259e-05
0.000183108 0 4.57771e-05
0.00117494 0 6.10361e-05
0.00393683 0 7.62951e-05
0.00994888 0 9.15541e-05
0.0202335 0 0.000122072
0.0345006 0 0.000137331
0.0523537 0 0.00015259
0.0733959 0 0.000167849
0.0970474 0 0.000198367
0.11986 0 0.000213626
0.141833 0 0.000228885
0.163363 0 0.000244144
0.183886 0 0.000274662
0.203571 0 0.00030518
0.222385 0 0.000320439
0.242359 0 0.000320439
0.26247 0 0.000320439
0.283284 0 0.00030518
0.302998 0 0.000289921
0.323171 0 0.000274662
0.344686 0 0.000259403
0.367453 0 0.000228885
0.391287 0 0.000213626
0.417136 0 0.000183108
0.444907 0 0.000167849
0.476509 0 0.000137331
0.512306 0 0.000122072
0.556924 0 0.000122072
0 0.000137331 0.000183108
0 0.000106813 0.000167849
0 9.15541e-05 0.00015259
0 7.62951e-05 0.000106813
0 0 1.5259e-05
0.000717174 0 0
0.0027924 0 0
0.0074464 0 0
0.0169375 0 0
0.0309606 0 0
0.0506752 0 0
0.0768444 0 0
0.0872358 0 4.57771e-05
0.107301 0 7.62951e-05
0.128466 0 9.15541e-05
0.150011 0 0.000106813
0.171298 0 0.000122072
0.191852 0 0.000122072
0.212314 0 0.000137331
0.233051 0 0.000122072
0.253056 0 0.000122072
0.273564 0 0.000122072
0.295171 0 0.000106813
0.316701 0 0.000106813
0.338552 0 9.15541e-05
0.361242 0 7.62951e-05
0.384634 0 7.62951e-05
0.40911 0 6.10361e-05
0.4365 0 4.57771e-05
0.465171 0 3.0518e-05
0.497444 0 3.0518e-05
0.533349 0 1.5259e-05
0.576684 0 3.0518e-05
0 0.00204471 0.000701915
0 0.00192264 0.000671397
0 0.00180056 0.000640879
0 0.00187686 0.000427253
0 0.000335698 4.57771e-05
0.000122072 3.0518e-05 3.0518e-05
0.00105287 0 3.0518e-05
0.00410468 0 1.5259e-05
0.0120699 0 0
0.024979 0 0
0.0418555 0 0
0.0629129 0 0
0.0883803 0 0
0.11487 0 0
0.141299 0 0
0.167285 0 0
0.192996 0 0
0.218509 0 0
0.243931 0 0
0.269535 0 0
0.294682 0 0
0.320638 0 0
0.345785 0 0
0.370779 0 0
0.395987 0 0
0.421729 0 0
0.446845 0 0
0.472908 0 0
0.499016 0 0
0.518746 0 0
0.539895 0 0
0.571786 0 0
0.611048 0 0
0 0.00671397 0.00140383
0 0.00642405 0.00137331
0 0.00630198 0.00125124
0 0.00637827 0.000793469
0 0.00291447 0.000198367
4.57771e-05 0.000686656 4.57771e-05
0.000579843 0.000274662 3.0518e-05
0.00241093 0.000137331 3.0518e-05
0.00759899 7.62951e-05 3.0518e-05
0.0188296 6.10361e-05 1.5259e-05
0.0358129 4.57771e-05 0
0.0580148 4.57771e-05 0
0.0854047 3.0518e-05 0
0.112871 3.0518e-05 0
0.140154 4.57771e-05 0
0.166781 4.57771e-05 0
0.193637 4.57771e-05 0
0.220249 6.10361e-05 0
0.246876 7.62951e-05 0
0.273579 9.15541e-05 0
0.300557 0.000106813 0
0.327611 0.000122072 0
0.354376 0.00015259 0
0.380926 0.000183108 0
0.407874 0.000228885 0
0.434745 0.000274662 0
0.46154 0.000335698 0
0.489982 0.000411994 0
0.51838 0.000518807 0
0.54844 0.00062562 0
0.580713 0.000762951 0
0.616388 0.000915541 0
0.658579 0.00114443 0
0 0.0159762 0.00244144
0 0.0154879 0.00238041
0 0.0158236 0.00187686
0 0.0153048 0.00120546
0 0.00869764 0.000381476
4.57771e-05 0.00347906 0.000106813
0.000411994 0.00184634 6.10361e-05
0.00172427 0.00103761 4.57771e-05
0.00555428 0.000656138 4.57771e-05
0.0145113 0.00047303 3.0518e-05
0.0296025 0.000396735 1.5259e-05
0.0509041 0.000350958 1.5259e-05
0.0776684 0.000320439 0
0.108263 0.000289921 0
0.138308 0.000289921 0
0.166629 0.000289921 0
0.194583 0.000320439 0
0.221714 0.000350958 0
0.248905 0.000396735 0
0.276249 0.000442512 0
0.30396 0.000503548 0
0.331685 0.000564584 0
0.359182 0.000656138 0
0.386511 0.000747692 0
0.413428 0.000854505 0
0.44036 0.000976577 0
0.46743 0.00112917 0
0.496147 0.00131228 0
0.524865 0.00151064 0
0.554925 0.00173953 0
0.58761 0.00201419 0
0.623377 0.00231937 0
0.664546 0.00271611 0
0 0.0295262 0.00393683
0 0.0299992 0.00337224
0 0.029572 0.00251774
0 0.0269932 0.00157168
0 0.018204 0.00062562
4.57771e-05 0.00984207 0.000213626
0.000396735 0.00653086 0.000106813
0.00137331 0.00428778 7.62951e-05
0.00433356 0.00271611 6.10361e-05
0.0116121 0.00192264 4.57771e-05
0.0249027 0.00158694 3.0518e-05
0.0443427 0.00138857 1.5259e-05
0.0703746 0.00125124 1.5259e-05
0.101259 0.00117494 0
0.132357 0.00111391 0
0.16347 0.00109865 0
0.193774 0.00109865 0
0.223102 0.00114443 0
0.25153 0.00120546 0
0.279362 0.00132753 0
0.307179 0.00143435 0
0.335195 0.00158694 0
0.363363 0.00172427 0
0.391073 0.00189212 0
0.418555 0.00210575 0
0.445502 0.00231937 0
0.472938 0.00256352 0
0.501411 0.00282292 0
0.52961 0.00309758 0
0.559533 0.0034638 0
0.591882 0.00387579 0
0.627329 0.0043183 0
0.667231 0.00486763 0
0 0.0488289 0.00509651
0 0.0482948 0.00411994
0 0.0461891 0.00300603
0 0.0402075 0.00180056
0 0.0295872 0.000869764
7.62951e-05 0.0208438 0.000381476
0.000411994 0.0163729 0.000228885
0.0012665 0.0122835 0.000137331
0.00357061 0.00842298 9.15541e-05
0.00949111 0.00595102 6.10361e-05
0.0215457 0.004654 4.57771e-05
0.0394293 0.00393683 4.57771e-05
0.0638437 0.00352483 3.0518e-05
0.0944228 0.00329595 1.5259e-05
0.126146 0.00311284 1.5259e-05
0.15787 0.00302129 0
0.189532 0.00299077 0
0.220706 0.00302129 0
0.251698 0.0030518 0
0.282811 0.00309758 0
0.311009 0.00331121 0
0.339239 0.00354009 0
0.367269 0.0037995 0
0.395224 0.00410468 0
0.423148 0.00440986 0
0.450782 0.00471504 0
0.478401 0.005066 0
0.50631 0.00544747 0
0.534356 0.00585946 0
0.563455 0.00631724 0
0.595773 0.00691234 0
0.631662 0.00759899 0
0.670542 0.00834669 0
0 0.0708019 0.00575265
0 0.0679026 0.00450141
0 0.0617227 0.00311284
0 0.0521859 0.0018616
0 0.0422522 0.00108339
0.000122072 0.0341802 0.00062562
0.000518807 0.0300298 0.000396735
0.00135805 0.0250858 0.000244144
0.00325017 0.0201572 0.00015259
0.00801099 0.0153658 0.000106813
0.0184787 0.0117647 7.62951e-05
0.03505 0.00950637 6.10361e-05
0.0579385 0.00842298 4.57771e-05
0.0877699 0.00767529 3.0518e-05
0.119509 0.00715648 3.0518e-05
0.151141 0.00689708 1.5259e-05
0.18352 0.00675975 0
0.215747 0.00669871 0
0.247852 0.00671397 0
0.2795 0.00675975 0
0.310857 0.00677501 0
0.341161 0.0069276 0
0.370413 0.00724804 0
0.3991 0.00769055 0
0.426947 0.00813306 0
0.455406 0.00860609 0
0.48336 0.00909438 0
0.511162 0.00967422 0
0.539284 0.0102998 0
0.568475 0.0110323 0
0.600504 0.0118257 0
0.635798 0.0127565 0
0.674342 0.0137636 0
0 0.0900435 0.00552377
0 0.0830396 0.00402838
0 0.0736248 0.00274662
0 0.0636301 0.0018616
0 0.0571908 0.00135805
0.000137331 0.0508736 0.000976577
0.000717174 0.0471351 0.00062562
0.00158694 0.0422065 0.000427253
0.00318914 0.0369116 0.000274662
0.00726329 0.0305791 0.000167849
0.0162356 0.0243381 0.000106813
0.0314794 0.0198978 7.62951e-05
0.0534524 0.0172274 6.10361e-05
0.082414 0.0155642 6.10361e-05
0.114275 0.0143282 4.57771e-05
0.145617 0.0136873 3.0518e-05
0.177737 0.0132753 1.5259e-05
0.210285 0.0130007 1.5259e-05
0.243183 0.0128634 0
0.276158 0.0127871 0
0.307515 0.0128481 0
0.339254 0.0129854 0
0.371328 0.013077 0
0.402564 0.0132448 0
0.430701 0.0138705 0
0.459022 0.0144045 0
0.486992 0.0150759 0
0.515129 0.0158236 0
0.543694 0.0166171 0
0.573373 0.0174868 0
0.605081 0.0184176 0
0.64033 0.0195315 0
0.679026 0.0210574 0
0 0.100359 0.00433356
0 0.0918593 0.00326543
0 0.082948 0.00244144
0 0.0780041 0.00196841
0 0.0740673 0.00172427
4.57771e-05 0.0703288 0.00151064
0.000991836 0.06598 0.000900282
0.00198367 0.061677 0.000656138
0.00358587 0.0564126 0.00047303
0.0071107 0.049546 0.000289921
0.0144961 0.0421607 0.000183108
0.0278325 0.0356451 0.000122072
0.048249 0.0306859 9.15541e-05
0.0762951 0.0270848 7.62951e-05
0.108949 0.0248722 6.10361e-05
0.1402 0.023621 4.57771e-05
0.171771 0.0224918 3.0518e-05
0.20415 0.0217594 3.0518e-05
0.236652 0.0214084 1.5259e-05
0.270146 0.0211643 1.5259e-05
0.302556 0.0211643 0
0.335164 0.0212711 0
0.368032 0.0213626 0
0.40032 0.0214847 0
0.431357 0.0213474 0
0.460655 0.0218051 0
0.489479 0.0225376 0
0.518456 0.0234379 0
0.547372 0.0243992 0
0.577447 0.0254978 0
0.61059 0.0269169 0
0.647105 0.0285954 0
0.685725 0.0305943 0
0 0.105821 0.00344854
0 0.101442 0.00294499
0 0.098558 0.00259403
1.5259e-05 0.0957504 0.00236515
3.0518e-05 0.0930037 0.00218204
0.000106813 0.0894942 0.00196841
0.00134279 0.0875563 0.0012665
0.00244144 0.0843977 0.000976577
0.00421149 0.0784772 0.000717174
0.00753796 0.0715648 0.000488289
0.0137484 0.0644236 0.00030518
0.024918 0.0567788 0.000198367
0.0435035 0.0491951 0.000122072
0.0701762 0.0431373 9.15541e-05
0.103044 0.0389258 7.62951e-05
0.135012 0.0363775 6.10361e-05
0.167056 0.0344701 4.57771e-05
0.198932 0.0330663 4.57771e-05
0.231067 0.0322271 3.0518e-05
0.264302 0.0316777 1.5259e-05
0.295918 0.0316014 1.5259e-05
0.32874 0.0316625 1.5259e-05
0.362356 0.0316472 0
0.395773 0.0315862 0
0.426993 0.0315557 0
0.458976 0.0316472 0
0.491325 0.0320287 0
0.52256 0.0331884 0
0.553262 0.0346532 0
0.584772 0.036408 0
0.617868 0.0381018 0
0.654139 0.0402075 0
0.692866 0.0424506 0
1.5259e-05 0.119982 0.00354009
3.0518e-05 0.117769 0.00329595
4.57771e-05 0.115724 0.00308232
6.10361e-05 0.113451 0.00288396
0.000106813 0.110887 0.00270085
0.000244144 0.108324 0.00247196
0.00180056 0.108598 0.00169375
0.00317388 0.106844 0.00135805
0.00505074 0.102266 0.00103761
0.00830091 0.0966049 0.000747692
0.0141451 0.0899519 0.000503548
0.0235294 0.082475 0.000320439
0.0397345 0.0728923 0.000198367
0.06421 0.0643626 0.000122072
0.096849 0.0576028 7.62951e-05
0.130083 0.0527962 7.62951e-05
0.162478 0.0495155 6.10361e-05
0.194018 0.0473182 6.10361e-05
0.225742 0.0457771 4.57771e-05
0.258427 0.0447242 3.0518e-05
0.289921 0.0444648 3.0518e-05
0.322866 0.0445106 3.0518e-05
0.357015 0.0446632 1.5259e-05
0.391241 0.0448615 1.5259e-05
0.425132 0.0451057 1.5259e-05
0.459342 0.0455177 0
0.493553 0.0458228 0
0.527352 0.0464332 0
0.560067 0.0476692 0
0.591959 0.0497292 0
0.625238 0.0519112 0
0.661326 0.0544594 0
0.699855 0.0571603 1.5259e-05
0.000137331 0.138125 0.00468452
0.00015259 0.13579 0.00434882
0.000183108 0.1337 0.0041352
0.000244144 0.131533 0.00392157
0.000335698 0.129442 0.00366217
0.000518807 0.127443 0.0033875
0.00262455 0.129885 0.00260929
0.00462348 0.129213 0.00209049
0.00674449 0.126757 0.00170901
0.0100557 0.122972 0.00132753
0.0158846 0.117052 0.000961318
0.0247654 0.110262 0.000656138
0.0382391 0.102419 0.000427253
0.0604715 0.0931411 0.000274662
0.0916762 0.0840009 0.000183108
0.126482 0.0758679 0.000137331
0.160204 0.0703899 0.000137331
0.192187 0.0671397 0.000122072
0.22414 0.0647898 0.000106813
0.257053 0.0630961 9.15541e-05
0.288579 0.0624857 7.62951e-05
0.321675 0.0621805 6.10361e-05
0.355505 0.0620737 4.57771e-05
0.389761 0.06215 3.0518e-05
0.423896 0.062562 3.0518e-05
0.458549 0.0627756 1.5259e-05
0.493751 0.0630045 1.5259e-05
0.529473 0.0634775 0
0.565118 0.0642252 0
0.599268 0.0659037 0
0.632746 0.0685435 0
0.668528 0.0716259 1.5259e-05
0.706737 0.0749981 1.5259e-05
0.000381476 0.157656 0.00689708
0.000427253 0.155444 0.0065156
0.000503548 0.153521 0.0061799
0.000595102 0.151675 0.00584421
0.000762951 0.150179 0.00553903
0.00105287 0.148775 0.00518807
0.00248722 0.15021 0.00466926
0.00689708 0.152956 0.00355535
0.00953689 0.152224 0.00306706
0.0132296 0.150454 0.00256352
0.0188907 0.146166 0.00198367
0.0274662 0.140719 0.00144961
0.0399786 0.133989 0.00102235
0.0593118 0.125521 0.000686656
0.08925 0.115846 0.000442512
0.123201 0.106752 0.00030518
0.15877 0.0987411 0.000244144
0.190799 0.094255 0.000228885
0.223468 0.0902266 0.000198367
0.256291 0.0870832 0.000167849
0.288457 0.085481 0.00015259
0.321462 0.0845502 0.000122072
0.354742 0.0840772 9.15541e-05
0.388449 0.0838483 7.62951e-05
0.422614 0.0841077 6.10361e-05
0.457435 0.0842603 4.57771e-05
0.493492 0.084596 3.0518e-05
0.530449 0.0848096 3.0518e-05
0.567926 0.0852979 1.5259e-05
0.604425 0.0863355 1.5259e-05
0.639597 0.0886397 1.5259e-05
0.675273 0.0920119 3.0518e-05
0.713222 0.0959487 4.57771e-05
0.000915541 0.179202 0.0105287
0.000991836 0.177295 0.00999466
0.00111391 0.175753 0.00950637
0.00128176 0.174044 0.00906386
0.00149538 0.172564 0.00862135
0.00198367 0.171542 0.00810254
0.00321965 0.171847 0.00753796
0.0101472 0.177356 0.00598154
0.0137942 0.178134 0.00529488
0.0180056 0.176822 0.00454719
0.0236973 0.174929 0.0037995
0.031754 0.171237 0.00302129
0.0439307 0.165484 0.00225834
0.0611429 0.158373 0.0016022
0.0881971 0.149187 0.00105287
0.1205 0.139788 0.000686656
0.155749 0.130999 0.000457771
0.189364 0.123888 0.000396735
0.222919 0.118242 0.000335698
0.256489 0.114061 0.000289921
0.288716 0.111498 0.000259403
0.321294 0.10959 0.000213626
0.354147 0.108431 0.000183108
0.387579 0.108125 0.00015259
0.421836 0.107988 0.000137331
0.456931 0.107805 0.000106813
0.492622 0.108507 9.15541e-05
0.530755 0.10869 7.62951e-05
0.56907 0.108797 6.10361e-05
0.608011 0.109056 4.57771e-05
0.645502 0.110613 4.57771e-05
0.681926 0.113558 7.62951e-05
0.719676 0.117739 0.000106813
0.0019379 0.202564 0.0165408
0.00205997 0.20087 0.0157931
0.00224308 0.199222 0.0151217
0.00254826 0.197742 0.0144656
0.00292973 0.19649 0.0138094
0.00354009 0.195544 0.013077
0.00480659 0.195453 0.0122988
0.0148318 0.202655 0.010132
0.0199435 0.203647 0.00895705
0.0248112 0.203815 0.00801099
0.0309453 0.203098 0.00700389
0.0385748 0.201694 0.0059968
0.0504005 0.19704 0.00477607
0.0670176 0.191058 0.00361639
0.0902724 0.183719 0.00257877
0.119951 0.175021 0.00170901
0.152712 0.165988 0.00112917
0.188128 0.156512 0.000762951
0.222827 0.149004 0.000640879
0.256046 0.143709 0.000549325
0.288441 0.140154 0.00047303
0.320989 0.137179 0.000396735
0.353841 0.135378 0.000335698
0.387213 0.13431 0.00030518
0.421164 0.13344 0.000274662
0.456382 0.133272 0.000244144
0.492058 0.133867 0.000228885
0.529778 0.13431 0.000198367
0.568795 0.134447 0.000183108
0.61004 0.134447 0.000167849
0.651255 0.133654 0.000137331
0.688426 0.136995 0.000183108
0.726345 0.140612 0.000228885
0.00389105 0.227451 0.0249027
0.00416571 0.225956 0.0238651
0.00447089 0.224308 0.0229038
0.00483711 0.223133 0.0219883
0.00534066 0.221851 0.0210269
0.00605783 0.220935 0.0201114
0.00764477 0.220661 0.0190433
0.0202335 0.228016 0.0167849
0.0272984 0.230121 0.0152285
0.0333257 0.230915 0.0138857
0.0401617 0.231388 0.0126192
0.0488441 0.230838 0.0111696
0.0598917 0.229404 0.00962844
0.0759747 0.224674 0.00770581
0.0968948 0.21915 0.00596628
0.121523 0.21181 0.00437934
0.151492 0.202625 0.00292973
0.185275 0.193103 0.00190738
0.222019 0.183032 0.00134279
0.255406 0.176074 0.00108339
0.28835 0.170825 0.000915541
0.321889 0.166918 0.00077821
0.354238 0.164553 0.000686656
0.38703 0.162463 0.000610361
0.420584 0.160967 0.000564584
0.455512 0.160571 0.000518807
0.491508 0.160967 0.000503548
0.529198 0.160983 0.000488289
0.568734 0.161776 0.00047303
0.611109 0.162173 0.000442512
0.653178 0.161181 0.000411994
0.694606 0.161929 0.000442512
0.732906 0.165576 0.000564584
0.00703441 0.253819 0.0368505
0.00738537 0.252293 0.0354162
0.00782788 0.250584 0.0339818
0.00831617 0.248936 0.0325933
0.00915541 0.247959 0.031281
0.0104219 0.247379 0.0300755
0.0125582 0.247105 0.0287938
0.0267185 0.253727 0.026215
0.0361639 0.256352 0.0241245
0.0439155 0.257694 0.0224765
0.0527352 0.258854 0.0209354
0.0627451 0.259174 0.0191196
0.074876 0.258701 0.0172732
0.0897993 0.256184 0.0150759
0.107622 0.252506 0.012726
0.127901 0.24773 0.0102846
0.154757 0.239704 0.00733959
0.18526 0.23093 0.00503548
0.22031 0.220905 0.00326543
0.253803 0.212558 0.00254826
0.287785 0.205478 0.00209049
0.321798 0.199695 0.00178531
0.354391 0.196063 0.00155642
0.387259 0.192996 0.00138857
0.420935 0.190768 0.00125124
0.455467 0.189548 0.00117494
0.491539 0.189334 0.00114443
0.529534 0.189166 0.00112917
0.569619 0.190219 0.00112917
0.611536 0.190372 0.00109865
0.654826 0.189944 0.00108339
0.698054 0.189044 0.00109865
0.73814 0.19115 0.00125124
0.0116579 0.281514 0.0528725
0.0123445 0.279927 0.050782
0.013138 0.278737 0.0491035
0.0141146 0.27744 0.0474556
0.0152285 0.276432 0.0458228
0.016846 0.27541 0.0442969
0.0193179 0.274952 0.042649
0.0271916 0.276768 0.0406806
0.0472572 0.282582 0.0379339
0.0567788 0.284153 0.035935
0.0670787 0.285481 0.033875
0.0796674 0.286824 0.0317693
0.0930037 0.287068 0.029572
0.106722 0.287053 0.0273747
0.122301 0.285435 0.0247959
0.140215 0.282658 0.0217746
0.162417 0.276814 0.0176547
0.188754 0.269398 0.0133822
0.218463 0.261051 0.00944533
0.25243 0.251438 0.00660716
0.287037 0.242771 0.005066
0.321294 0.235401 0.00415045
0.35433 0.22974 0.00354009
0.387381 0.225559 0.00311284
0.420996 0.222171 0.00277714
0.455604 0.219913 0.00257877
0.491203 0.218555 0.00250248
0.529259 0.218128 0.00244144
0.569268 0.218952 0.00244144
0.611292 0.21912 0.00239567
0.655039 0.218372 0.00238041
0.700069 0.216617 0.00236515
0.742046 0.216968 0.00254826
0.0175784 0.310231 0.0742046
0.0183566 0.308522 0.0713512
0.0194247 0.30692 0.0688792
0.020737 0.305394 0.0665446
0.0222782 0.303975 0.064332
0.0241855 0.302953 0.0623026
0.0268406 0.302113 0.0603342
0.0336004 0.302388 0.0579995
0.0591897 0.308324 0.0552987
0.070222 0.309667 0.0529335
0.082063 0.311177 0.0506752
0.0953231 0.312673 0.0484321
0.109224 0.314046 0.0460975
0.124041 0.315007 0.0437476
0.139269 0.315267 0.0412451
0.155612 0.313771 0.0375677
0.17319 0.310765 0.0335393
0.194781 0.305882 0.0286259
0.219959 0.299275 0.0229648
0.250202 0.290394 0.0166323
0.284215 0.280934 0.0120394
0.318898 0.271824 0.00907912
0.352834 0.264347 0.00750744
0.386542 0.25861 0.00646983
0.420325 0.253712 0.0056611
0.454582 0.250324 0.00515755
0.490364 0.24802 0.00483711
0.527886 0.246845 0.00468452
0.567803 0.247303 0.00466926
0.610498 0.247929 0.00462348
0.654459 0.246708 0.004654
0.700374 0.244831 0.00462348
0.744701 0.243168 0.00474556
0.0249638 0.337423 0.0991379
0.0259556 0.335775 0.0962234
0.0271763 0.333883 0.0930343
0.0285344 0.33228 0.0900587
0.0303349 0.330831 0.0873274
0.0328527 0.329946 0.0848707
0.0362707 0.329076 0.0825818
0.0427863 0.328939 0.0797131
0.0717327 0.333883 0.0764477
0.0847028 0.335164 0.0737163
0.0960861 0.336172 0.0712749
0.10956 0.337636 0.0687724
0.124376 0.339483 0.0663005
0.139727 0.340932 0.0636149
0.156252 0.342245 0.0609598
0.17084 0.341558 0.057145
0.186847 0.340337 0.0532082
0.20415 0.338293 0.0488441
0.225467 0.333379 0.0423133
0.250324 0.326863 0.0348363
0.282078 0.318013 0.025391
0.315648 0.308537 0.0191958
0.350545 0.299184 0.0152438
0.385107 0.291539 0.0128939
0.419257 0.285588 0.0112001
0.453635 0.280888 0.00985733
0.48896 0.277668 0.0089723
0.526162 0.275624 0.00849927
0.565896 0.275242 0.00840772
0.608499 0.27538 0.00836194
0.652811 0.274601 0.00836194
0.699092 0.272953 0.00840772
0.746792 0.269139 0.00834669
0.0339055 0.364034 0.12311
0.0352026 0.362371 0.120272
0.036759 0.360784 0.117601
0.0385138 0.359411 0.114778
0.0406958 0.357855 0.111864
0.043473 0.356649 0.109148
0.0470588 0.355535 0.106477
0.053666 0.355123 0.103777
0.0850538 0.359243 0.10013
0.0991684 0.360204 0.0977188
0.110628 0.361288 0.0952316
0.123461 0.36257 0.092607
0.138369 0.364126 0.0898909
0.154742 0.366049 0.0873426
0.170855 0.367376 0.0840925
0.186404 0.36791 0.0802472
0.20174 0.368078 0.0766461
0.217288 0.367956 0.0732586
0.235187 0.36463 0.0664225
0.256168 0.359716 0.0584115
0.281163 0.35285 0.0491646
0.312856 0.344106 0.0371252
0.34696 0.334661 0.0284886
0.38233 0.324926 0.0231327
0.41735 0.317464 0.0201877
0.451713 0.311925 0.0178378
0.48687 0.307408 0.0158694
0.523827 0.304204 0.014725
0.56321 0.302266 0.0141756
0.605295 0.301717 0.0140841
0.65037 0.301686 0.0142214
0.697047 0.300252 0.0142977
0.746136 0.296971 0.0145113
0.04448 0.390021 0.147066
0.0457923 0.38851 0.14406
0.0473793 0.386786 0.140932
0.049424 0.385458 0.138155
0.0518807 0.384207 0.135531
0.0548257 0.383032 0.133043
0.0587472 0.382147 0.130434
0.0655222 0.381323 0.127245
0.0973831 0.384558 0.1234
0.113573 0.385809 0.120821
0.124743 0.386038 0.118441
0.137362 0.387137 0.116152
0.152026 0.388815 0.113573
0.168185 0.390631 0.111025
0.18407 0.391913 0.108309
0.200839 0.393378 0.105592
0.216663 0.394232 0.102586
0.232547 0.394263 0.0988937
0.24802 0.393027 0.0936751
0.266102 0.389853 0.0864881
0.286656 0.385626 0.0776989
0.312367 0.378851 0.0655528
0.343511 0.369894 0.0512093
0.378439 0.360174 0.0393988
0.414267 0.350835 0.0329137
0.44889 0.343954 0.0290379
0.484398 0.337743 0.0256809
0.520943 0.333379 0.0234684
0.560052 0.330419 0.0221561
0.601267 0.328756 0.0218204
0.646372 0.328283 0.021973
0.694057 0.327367 0.0223239
0.745327 0.324178 0.0227054
0.0565652 0.416007 0.171481
0.0581826 0.414649 0.168856
0.0599832 0.41326 0.165972
0.06215 0.411688 0.16318
0.0646067 0.410544 0.160189
0.0676432 0.409216 0.157214
0.0715953 0.40795 0.154131
0.0786603 0.40705 0.151125
0.0958572 0.40766 0.147402
0.127916 0.410376 0.144503
0.13933 0.410864 0.142107
0.151141 0.411582 0.139559
0.164721 0.41297 0.136934
0.179294 0.41416 0.134539
0.195224 0.415839 0.132174
0.212192 0.41709 0.129519
0.230259 0.418631 0.126711
0.246494 0.41886 0.123217
0.262364 0.419059 0.119326
0.278248 0.417807 0.114534
0.295888 0.415259 0.107973
0.31635 0.41088 0.0984054
0.342306 0.403464 0.0840314
0.37322 0.395087 0.0674754
0.408652 0.385809 0.0525521
0.445228 0.376822 0.0448005
0.481682 0.369329 0.0394141
0.518029 0.363729 0.0359503
0.556588 0.35906 0.0330205
0.596872 0.356268 0.0319677
0.641962 0.355322 0.0317845
0.691478 0.354147 0.0322423
0.744381 0.351125 0.0330053
0.0700236 0.441398 0.194781
0.0716564 0.440131 0.19234
0.0737621 0.438651 0.189578
0.0760967 0.437415 0.187015
0.0790723 0.436194 0.184344
0.0826123 0.434958 0.181399
0.086717 0.433753 0.178485
0.0931563 0.432746 0.17499
0.105455 0.432395 0.171038
