luts/東雲.cube
TITLE "Generated by Resolve"
LUT_3D_SIZE 9
0 0 0
0 0 1.5259e-05
0.0110933 0 9.15541e-05
0.0798047 0 0.000183108
0.170779 0 0.000259403
0.247883 0 0.000366217
0.317632 0 0.000503548
0.394095 0 0.000579843
0.533883 0 0.000503548
0 0.000137331 0.000183108
0 0 1.5259e-05
0.0169375 0 0
0.0872358 0 4.57771e-05
0.171298 0 0.000122072
0.253056 0 0.000122072
0.338552 0 9.15541e-05
0.4365 0 4.57771e-05
0.576684 0 3.0518e-05
0 0.0295262 0.00393683
0 0.018204 0.00062562
0.00433356 0.00271611 6.10361e-05
0.0703746 0.00125124 1.5259e-05
0.193774 0.00109865 0
0.307179 0.00143435 0
0.418555 0.00210575 0
0.52961 0.00309758 0
0.667231 0.00486763 0
0 0.100359 0.00433356
0 0.0740673 0.00172427
0.00358587 0.0564126 0.00047303
0.048249 0.0306859 9.15541e-05
0.171771 0.0224918 3.0518e-05
0.302556 0.0211643 0
0.431357 0.0213474 0
0.547372 0.0243992 0
0.685725 0.0305943 0
0.000381476 0.157656 0.00689708
0.000762951 0.150179 0.00553903
0.00953689 0.152224 0.00306706
0.0399786 0.133989 0.00102235
0.15877 0.0987411 0.000244144
0.288457 0.085481 0.00015259
0.422614 0.0841077 6.10361e-05
0.567926 0.0852979 1.5259e-05
0.713222 0.0959487 4.57771e-05
0.00703441 0.253819 0.0368505
0.00915541 0.247959 0.031281
0.0361639 0.256352 0.0241245
0.074876 0.258701 0.0172732
0.154757 0.239704 0.00733959
0.287785 0.205478 0.00209049
0.420935 0.190768 0.00125124
0.569619 0.190219 0.00112917
0.73814 0.19115 0.00125124
0.0339055 0.364034 0.12311
0.0406958 0.357855 0.111864
0.0850538 0.359243 0.10013
0.138369 0.364126 0.0898909
0.20174 0.368078 0.0766461
0.281163 0.35285 0.0491646
0.41735 0.317464 0.0201877
0.56321 0.302266 0.0141756
0.746136 0.296971 0.0145113
0.0839094 0.467689 0.219257
0.0931411 0.461784 0.208148
0.116167 0.45713 0.19501
0.187472 0.460853 0.183017
0.250126 0.46656 0.173526
0.319554 0.469673 0.161334
0.397513 0.454749 0.125292
0.547204 0.420691 0.0648356
0.740337 0.40621 0.0603647
0.139544 0.593988 0.328496
0.14612 0.584482 0.318013
0.158648 0.575662 0.304616
0.215244 0.572152 0.28275
0.274403 0.572305 0.270237
0.35227 0.577569 0.261601
0.430716 0.582467 0.251423
0.50454 0.57702 0.221393
0.72105 0.532357 0.13489
0 3.0518e-05 6.10361e-05
0 0 0.000122072
0.00311284 0 6.10361e-05
0.0478676 0 4.57771e-05
0.142412 0 3.0518e-05
0.230686 0 4.57771e-05
0.312352 0 0.00015259
0.399145 0 0.00030518
0.557656 0 0.000518807
0 0.00062562 0.00343328
0 0.000213626 0.000946059
0.0158846 3.0518e-05 0.00015259
0.0818036 0 1.5259e-05
0.175067 0 4.57771e-05
0.260456 0 4.57771e-05
0.349416 0 3.0518e-05
0.452613 0 1.5259e-05
0.597101 0 3.0518e-05
0 0.019852 0.0108797
0 0.0260014 0.00201419
0.00543221 0.00479133 0.000122072
0.0773022 0.00216678 1.5259e-05
0.205127 0.0018616 0
0.320073 0.0024567 0
0.435309 0.00347906 0
0.551034 0.00512703 0
0.690806 0.00781262 1.5259e-05
0 0.113497 0.0180209
3.0518e-05 0.0899214 0.00523384
0.00560006 0.0711223 0.0016022
0.057023 0.0404822 0.000289921
0.186313 0.029221 9.15541e-05
0.323629 0.0280156 1.5259e-05
0.453712 0.0296025 0
0.572641 0.03505 1.5259e-05
0.70985 0.0426947 6.10361e-05
0.000579843 0.195819 0.0340581
0.00161746 0.176913 0.0209354
0.0184176 0.176287 0.0128786
0.0563211 0.164431 0.00595102
0.178042 0.125628 0.0012665
0.309682 0.108095 0.000595102
0.44741 0.10695 0.000381476
0.592081 0.108644 0.00030518
0.730709 0.121157 0.000640879
0.00772107 0.28603 0.089601
0.0119783 0.276265 0.071931
0.0492714 0.277546 0.0569619
0.102617 0.281895 0.0465553
0.177569 0.269886 0.0290684
0.301915 0.233204 0.00978103
0.43595 0.214496 0.00549325
0.585641 0.211917 0.00474556
0.745129 0.212482 0.00511177
0.0345617 0.381018 0.167498
0.0422522 0.374823 0.15407
0.0941329 0.37377 0.13547
0.149966 0.376196 0.124666
0.218784 0.380682 0.112352
0.293355 0.367864 0.0826123
0.424521 0.332113 0.0379492
0.569848 0.316075 0.0276646
0.749371 0.308736 0.0269474
0.0822919 0.477791 0.249561
0.0922408 0.471763 0.238361
0.116014 0.466636 0.223743
0.192767 0.468376 0.207431
0.255848 0.472511 0.197726
0.330434 0.47538 0.186297
0.40444 0.462287 0.152819
0.550362 0.428916 0.0876783
0.740612 0.413367 0.0796826
0.135592 0.599329 0.345144
0.143191 0.590097 0.335256
0.156161 0.58085 0.322499
0.214786 0.576623 0.300435
0.275883 0.575814 0.285786
0.355062 0.579812 0.276585
0.435904 0.584649 0.266987
0.507897 0.579583 0.238254
0.71928 0.536141 0.150469
0 0.000595102 0.00077821
0 0 0.000823987
0.000457771 9.15541e-05 0.000961318
0.0243839 9.15541e-05 0.000595102
0.117189 1.5259e-05 0.000503548
0.228321 1.5259e-05 0.000640879
0.338811 4.57771e-05 0.00105287
0.464149 0.000427253 0.00241093
0.651102 0.00453193 0.00802625
0 0.00563058 0.0274052
0 0.00502022 0.0211948
0.00477607 0.0043183 0.0193027
0.0511788 0.000808728 0.00468452
0.160433 0.000610361 0.0028687
0.28159 0.000869764 0.00259403
0.394644 0.00184634 0.00332647
0.508431 0.00491341 0.00538643
0.658106 0.0156252 0.0118563
0 0.0365301 0.0763714
0 0.0360418 0.0649119
0.0251469 0.0542458 0.0642557
0.128252 0.0491188 0.0458381
0.252964 0.0480049 0.0302739
0.380468 0.051133 0.0234226
0.497276 0.0560464 0.020798
0.606455 0.0644236 0.0216068
0.732387 0.0840009 0.0297246
0 0.114076 0.137362
1.5259e-05 0.11606 0.126925
0.0231327 0.150362 0.112032
0.124498 0.139223 0.086305
0.263218 0.116854 0.0494087
0.395727 0.115175 0.0362097
0.519554 0.117739 0.0303349
0.635111 0.118456 0.0271305
0.758587 0.115068 0.0265812
6.10361e-05 0.205173 0.187076
0.000442512 0.209232 0.177203
0.0377203 0.250751 0.163424
0.128252 0.246677 0.142245
0.235325 0.221912 0.0970016
0.3682 0.195865 0.0611276
0.506386 0.191485 0.0481117
0.630793 0.1953 0.0434119
0.760922 0.195544 0.0431067
0.00198367 0.316518 0.228901
0.00477607 0.323354 0.221256
0.0637217 0.342351 0.211139
0.147845 0.339803 0.18912
0.236667 0.333913 0.168261
0.342809 0.299748 0.113024
0.475029 0.275288 0.0792096
0.620706 0.268238 0.0647746
0.758984 0.267185 0.0594034
0.0224002 0.418952 0.280003
0.0326848 0.417258 0.274266
0.099443 0.420081 0.258824
0.173053 0.416754 0.235599
0.255634 0.414923 0.218357
0.329015 0.401724 0.18265
0.440375 0.358816 0.0950332
0.5823 0.339132 0.0674144
0.755718 0.329244 0.061265
0.0733501 0.505516 0.332723
0.0864118 0.500313 0.323262
0.114153 0.48806 0.287907
0.198413 0.484855 0.256977
0.267201 0.48452 0.24152
0.34757 0.485512 0.229374
0.417411 0.474495 0.198566
0.555932 0.441779 0.12665
0.74313 0.424872 0.114763
0.127703 0.6112 0.374792
0.136812 0.601678 0.365499
0.151873 0.591592 0.352941
0.213596 0.585779 0.330159
0.276295 0.583719 0.311574
0.358938 0.585733 0.299641
0.443153 0.589242 0.290349
0.513817 0.585351 0.263966
0.718791 0.542992 0.174304
0 0.00215152 0.00816358
0 6.10361e-05 0.00794995
0.000183108 0.000610361 0.0150759
0.0194095 0.00183108 0.0174411
0.131167 0.00329595 0.0154116
0.282277 0.00317388 0.0172732
0.410941 0.0061799 0.0235599
0.535027 0.013962 0.0334936
0.706905 0.0352026 0.0552071
0 0.0227665 0.0726482
0 0.0302434 0.0870985
0.0010071 0.00939956 0.0632639
0.0403906 0.0169528 0.0617838
0.175189 0.0185702 0.0500496
0.315526 0.0177768 0.0443885
0.436439 0.022385 0.0437018
0.548775 0.0323949 0.0489967
0.694041 0.0548714 0.0643778
0 0.062623 0.131151
0 0.0706798 0.136828
0.0229801 0.103761 0.159487
0.105379 0.110796 0.161105
0.242679 0.11519 0.146914
0.368551 0.118593 0.131167
0.48484 0.126574 0.121813
0.594232 0.137972 0.1196
0.722057 0.159289 0.130648
4.57771e-05 0.142473 0.196017
0.000946059 0.149874 0.197055
0.0499275 0.183597 0.208164
0.147601 0.189944 0.204013
0.266194 0.179812 0.179934
0.389288 0.17763 0.156237
0.507027 0.180682 0.143069
0.619257 0.185428 0.135744
0.740414 0.195834 0.140124
0.00221256 0.240024 0.261845
0.00544747 0.242466 0.257252
0.0568246 0.27042 0.254719
0.14197 0.283009 0.242725
0.265629 0.266514 0.216922
0.398047 0.243275 0.17908
0.521584 0.241505 0.16051
0.642481 0.241794 0.147982
0.768719 0.23418 0.137835
0.0081178 0.32607 0.302205
0.0133974 0.327413 0.296605
0.0590829 0.35906 0.284062
0.149447 0.370596 0.27895
0.262257 0.361852 0.262913
0.368856 0.337301 0.220005
0.498207 0.313893 0.18407
0.633906 0.310765 0.169833
0.767315 0.308705 0.165011
0.0249943 0.415229 0.335683
0.0301823 0.419181 0.326726
0.0892042 0.437842 0.323476
0.174609 0.442435 0.317205
0.27451 0.438682 0.300587
0.364736 0.43032 0.283009
0.468299 0.404334 0.227268
0.607462 0.385992 0.197925
0.766003 0.378622 0.190936
0.0623178 0.515999 0.374731
0.0743267 0.514061 0.370916
0.104753 0.512428 0.367636
0.200961 0.516625 0.358572
0.284779 0.51429 0.339513
0.378332 0.511208 0.324117
0.452323 0.505013 0.306004
0.57377 0.479362 0.238621
0.75935 0.458503 0.224216
0.115908 0.63505 0.429038
0.12491 0.626657 0.424002
0.139864 0.618555 0.417258
0.207065 0.614771 0.407034
0.276967 0.611292 0.391165
0.372656 0.60882 0.370443
0.465095 0.608759 0.359335
0.539483 0.607569 0.342031
0.728618 0.568566 0.254475
0 0.0187533 0.0633249
0 0.0171054 0.0751812
0.000274662 0.0089723 0.0939193
0.0225681 0.0235447 0.123919
0.146548 0.0438544 0.149065
0.310277 0.0637522 0.156451
0.457359 0.0632029 0.159106
0.578805 0.0771344 0.167651
0.748714 0.106752 0.184756
0 0.0656443 0.149355
0.000183108 0.0894484 0.17557
0.00256352 0.0476997 0.147997
0.0278172 0.0488136 0.158968
0.15761 0.0766308 0.177493
0.31783 0.0950027 0.178698
0.46038 0.0915389 0.17734
0.575769 0.101289 0.178561
0.721325 0.123796 0.188083
0 0.118517 0.20296
0.000137331 0.132357 0.213962
0.0277256 0.163058 0.236713
0.0819409 0.153719 0.241337
0.209567 0.176028 0.249989
0.362692 0.186526 0.249271
0.49012 0.188296 0.242893
0.603983 0.194003 0.237964
0.735409 0.209644 0.242313
0.000518807 0.187457 0.259922
0.00276188 0.19411 0.262776
0.0586862 0.224308 0.279393
0.145159 0.235111 0.281987
0.243717 0.234028 0.282414
0.377066 0.237766 0.277516
0.494759 0.241367 0.26717
0.606592 0.246403 0.261021
0.73077 0.258488 0.264103
0.0155642 0.274037 0.319524
0.026688 0.276661 0.317418
0.115297 0.29929 0.323064
0.188846 0.306264 0.321263
0.28423 0.30428 0.318715
0.396567 0.296727 0.30248
0.513069 0.29485 0.284138
0.62652 0.297185 0.276219
0.746868 0.302266 0.276616
0.0467231 0.359548 0.37261
0.0584268 0.359487 0.368383
0.130129 0.375204 0.366796
0.188907 0.381949 0.361501
0.276417 0.38735 0.351659
0.392493 0.374655 0.331304
0.51783 0.354803 0.30045
0.642557 0.353338 0.28574
0.775036 0.34464 0.273655
0.0612039 0.432303 0.405921
0.070161 0.430762 0.400565
0.123705 0.440726 0.397116
0.179339 0.455604 0.386816
0.276692 0.462547 0.38233
0.387396 0.456489 0.36669
0.486397 0.437644 0.325322
0.625666 0.417487 0.296498
0.772641 0.411414 0.289235
0.0812848 0.514397 0.440055
0.0883497 0.513237 0.432776
0.102922 0.518303 0.420722
0.193149 0.534218 0.418494
0.282811 0.537881 0.413443
0.389334 0.534401 0.392645
0.474128 0.527276 0.375433
0.587182 0.504662 0.319432
0.771893 0.480964 0.302693
0.10219 0.655299 0.460807
0.110658 0.645914 0.456321
0.126986 0.637079 0.452537
0.1944 0.637171 0.450523
0.266331 0.63331 0.444312
0.373556 0.630304 0.427512
0.477012 0.626001 0.406592
0.560586 0.623911 0.394446
0.735378 0.589349 0.313512
0 0.0897688 0.185245
0.000488289 0.105943 0.210132
0.00354009 0.0846876 0.209186
0.0195926 0.0708171 0.232471
0.124514 0.109453 0.268177
0.287083 0.148257 0.292317
0.455909 0.176684 0.295079
0.603037 0.167636 0.299825
0.787198 0.185351 0.310796
0 0.147539 0.24622
0.00154116 0.166201 0.264073
0.010132 0.138994 0.24152
0.0257725 0.104601 0.251194
0.125414 0.131167 0.275166
0.285695 0.168307 0.296086
0.451011 0.192401 0.29662
0.59321 0.181918 0.300679
0.748119 0.193393 0.305486
0.000183108 0.192294 0.285435
0.00177005 0.203052 0.29395
0.0381018 0.227802 0.312795
0.0974899 0.223728 0.311711
0.167666 0.210849 0.324987
0.319417 0.244831 0.338186
0.479744 0.25803 0.339223
0.609995 0.252232 0.340963
0.750011 0.259312 0.339193
0.00344854 0.247211 0.32781
0.00885023 0.251957 0.33022
0.0685893 0.276127 0.346609
0.144289 0.284184 0.350576
0.213153 0.270634 0.356985
0.339376 0.290013 0.361578
0.491234 0.29633 0.362112
0.611063 0.295216 0.358312
0.741329 0.29987 0.353826
0.027451 0.315267 0.376257
0.0401617 0.315984 0.375143
0.124712 0.332494 0.383993
0.191318 0.340322 0.38674
0.275013 0.345922 0.388724
0.371008 0.344793 0.390509
0.501396 0.346914 0.38529
0.615473 0.347372 0.378531
0.740078 0.351171 0.374395
0.105516 0.391913 0.425376
0.122957 0.390555 0.422415
0.189944 0.400732 0.425284
0.241749 0.405264 0.42414
0.313771 0.409766 0.424018
0.406378 0.409476 0.422705
0.513115 0.402426 0.405692
0.629313 0.399344 0.392081
0.75584 0.398535 0.387121
0.144137 0.46836 0.471748
0.153262 0.465476 0.467735
0.196887 0.469947 0.465415
0.244022 0.47454 0.460655
0.304265 0.479362 0.455512
0.39382 0.483543 0.444694
0.507607 0.471336 0.421241
0.641459 0.451423 0.39707
0.781506 0.444587 0.386816
0.130968 0.53991 0.494499
0.138521 0.535683 0.490959
0.155673 0.533639 0.487129
0.222431 0.542489 0.485237
0.27715 0.555077 0.471931
0.384558 0.56173 0.465354
0.494728 0.555093 0.447166
0.6047 0.532891 0.406317
0.783764 0.509194 0.390112
0.0931868 0.675914 0.502922
0.104707 0.663539 0.500145
0.117311 0.655329 0.493111
0.180957 0.66006 0.489143
0.253697 0.65977 0.489662
0.361624 0.659434 0.48687
0.483009 0.652674 0.466819
0.585977 0.646632 0.451225
0.745098 0.616587 0.381613
4.57771e-05 0.20679 0.319265
0.0040589 0.220295 0.338048
0.0146029 0.210086 0.334524
0.0303502 0.181674 0.343755
0.0800336 0.167742 0.370871
0.226566 0.21059 0.396506
0.409064 0.250324 0.419318
0.595041 0.281895 0.430991
0.828672 0.264012 0.438041
0.000640879 0.246006 0.350942
0.00335698 0.241398 0.34902
0.0224002 0.238621 0.350286
0.0445106 0.21323 0.346441
0.0874495 0.185214 0.369024
0.225437 0.221317 0.390005
0.403265 0.258976 0.409415
0.582773 0.285039 0.420813
0.772671 0.265309 0.424018
0.0028687 0.277836 0.373968
0.00807202 0.283482 0.378454
0.049897 0.300191 0.392264
0.105531 0.298741 0.392569
0.153338 0.27277 0.401801
0.254963 0.279561 0.41651
0.426947 0.314046 0.43151
0.596948 0.329137 0.44126
0.764813 0.314595 0.441062
0.0122988 0.318929 0.402457
0.0208591 0.320485 0.403052
0.0799725 0.337499 0.415656
0.1449 0.343313 0.419272
0.210559 0.334997 0.417838
0.281376 0.320165 0.431235
0.438468 0.348455 0.442725
0.604196 0.354055 0.452598
0.751766 0.346319 0.44715
0.0445411 0.369665 0.436088
0.0572518 0.369238 0.434836
0.130739 0.382254 0.442985
0.188907 0.388464 0.446342
0.264637 0.393622 0.448722
0.333593 0.381186 0.45359
0.459815 0.393454 0.459648
0.610544 0.395453 0.468101
0.749722 0.3897 0.459434
0.11516 0.428901 0.472709
0.127428 0.426368 0.469734
0.190875 0.433356 0.473289
0.242023 0.437446 0.473793
0.312123 0.444724 0.476326
0.397482 0.449866 0.478111
0.491646 0.445289 0.480705
0.620203 0.444617 0.485039
0.753307 0.440726 0.475135
0.216297 0.499397 0.514244
0.227115 0.496101 0.510475
0.253986 0.496651 0.508888
0.303914 0.500084 0.507774
0.359838 0.503639 0.506065
0.436667 0.507927 0.504463
0.527367 0.502663 0.501793
0.636851 0.49279 0.491981
0.770275 0.487007 0.483284
0.22237 0.576577 0.55082
0.228077 0.571069 0.546105
0.242496 0.566674 0.541894
0.291478 0.569467 0.538186
0.335988 0.571939 0.533379
0.405829 0.576211 0.528954
0.503059 0.579065 0.519997
0.623926 0.563668 0.493477
0.793835 0.542611 0.477577
0.123964 0.715389 0.572747
0.128099 0.69276 0.563638
0.147524 0.675212 0.557931
0.210437 0.675242 0.556497
0.257771 0.679454 0.545953
0.339834 0.688014 0.536553
0.471397 0.688075 0.53463
0.607431 0.679026 0.511864
0.757763 0.651881 0.455329
0.00280766 0.391974 0.48333
0.0103151 0.401831 0.499077
0.0206912 0.391836 0.498192
0.0358282 0.357137 0.484306
0.055848 0.322393 0.484871
0.0980087 0.283772 0.517617
0.219944 0.295903 0.555169
0.45417 0.350011 0.593317
0.85391 0.362219 0.601129
0.00543221 0.398566 0.485267
0.00872816 0.374731 0.470588
0.0273747 0.369192 0.472969
0.048188 0.347539 0.467033
0.075349 0.315679 0.468528
0.120455 0.277806 0.500114
0.257527 0.302327 0.532647
0.472297 0.348623 0.568887
0.796826 0.357275 0.564553
0.0109102 0.397299 0.483268
0.0179446 0.39321 0.481224
0.0527962 0.398947 0.489097
0.096849 0.396353 0.491341
0.143435 0.377859 0.485924
0.18294 0.342931 0.50724
0.298085 0.345724 0.536187
0.501442 0.387091 0.564675
0.777554 0.388403 0.560967
0.0245823 0.415183 0.493614
0.0334783 0.411627 0.491264
0.0813306 0.419486 0.499107
0.131716 0.420386 0.501442
0.193378 0.41651 0.501961
0.241047 0.390188 0.508858
0.327535 0.375296 0.53402
0.517647 0.412024 0.555657
0.757534 0.408408 0.55465
0.0578622 0.447517 0.513451
0.0689555 0.443839 0.510536
0.125994 0.450553 0.51635
0.174701 0.453269 0.517906
0.241306 0.456748 0.521065
0.309056 0.449088 0.519432
0.369009 0.42031 0.542275
0.537835 0.448234 0.556405
0.753445 0.44007 0.557488
0.120363 0.488258 0.537392
0.130526 0.483894 0.533135
0.180957 0.488243 0.535607
0.225208 0.490837 0.536706
0.289631 0.49604 0.54023
0.367071 0.500542 0.543313
0.433524 0.481209 0.553674
0.565591 0.490959 0.564218
0.75903 0.480842 0.565408
0.20119 0.53817 0.565072
0.209293 0.532937 0.560494
0.234821 0.531197 0.558404
0.289296 0.534966 0.560189
0.344015 0.538964 0.561044
0.415839 0.544549 0.565194
0.503731 0.54815 0.568994
0.6009 0.539864 0.57528
0.770855 0.530282 0.575067
0.309621 0.614923 0.606149
0.314626 0.607965 0.600519
0.321324 0.602274 0.595712
0.370672 0.602594 0.593759
0.409186 0.602945 0.592676
0.468925 0.605676 0.592523
0.544244 0.606943 0.590951
0.635782 0.601099 0.587381
0.793164 0.584329 0.575555
0.178454 0.743404 0.612711
0.171664 0.741329 0.607691
0.16878 0.739742 0.602823
0.201511 0.740612 0.601312
0.263325 0.727291 0.601129
0.339117 0.721538 0.601648
0.446723 0.722927 0.600565
0.596704 0.728466 0.590051
0.777722 0.700999 0.53782
0.0126345 0.442557 0.5234
0.0270542 0.449119 0.534035
0.0423743 0.451499 0.540902
0.0628214 0.444816 0.545968
0.0842908 0.425635 0.546883
0.112398 0.405081 0.571008
0.157763 0.367849 0.620935
0.339788 0.396582 0.672572
0.804028 0.479133 0.695964
0.0187076 0.464378 0.538125
0.0226749 0.457496 0.536736
0.0437171 0.462715 0.546532
0.0657816 0.459617 0.552438
0.0873121 0.441489 0.553017
0.112612 0.418738 0.566003
0.153017 0.388174 0.612421
0.292195 0.390417 0.666194
0.804898 0.4822 0.697261
0.0280461 0.488075 0.553811
0.0342412 0.488289 0.556115
0.0623636 0.496071 0.567803
0.091783 0.498375 0.575631
0.124651 0.494392 0.581537
0.15256 0.473289 0.582528
0.187289 0.445945 0.618021
0.284733 0.417823 0.673396
0.731716 0.490593 0.715023
0.0428626 0.514153 0.572061
0.0485542 0.514015 0.573434
0.0800488 0.520775 0.583062
0.109957 0.523873 0.590051
0.148913 0.525765 0.597925
0.181552 0.512871 0.600702
0.214313 0.485969 0.618952
0.277531 0.441077 0.675486
0.641428 0.494499 0.727535
0.0715343 0.546929 0.594797
0.0772106 0.546502 0.595453
0.11191 0.552468 0.603052
0.139879 0.555764 0.608545
0.180255 0.559625 0.616403
0.226658 0.55903 0.624231
0.261189 0.537591 0.627222
0.309102 0.493202 0.676692
0.605692 0.518196 0.735882
0.11751 0.582818 0.619135
0.121752 0.581903 0.619181
0.152316 0.587396 0.625391
0.179278 0.591028 0.630365
0.218509 0.595758 0.637446
0.273487 0.601205 0.646677
0.328817 0.594965 0.653513
0.371633 0.55906 0.680247
0.605264 0.553567 0.742657
0.175219 0.623133 0.645365
0.176837 0.621424 0.644709
0.189883 0.622309 0.646357
0.227588 0.628656 0.652811
0.266499 0.633753 0.659373
0.321584 0.639994 0.668025
0.39089 0.645502 0.678233
0.452308 0.629038 0.68452
0.633341 0.599207 0.74995
0.266026 0.681132 0.676356
0.263203 0.677043 0.674586
0.266514 0.674083 0.673625
0.298756 0.677211 0.678386
0.330236 0.680278 0.682933
0.378485 0.68603 0.689647
0.44477 0.693187 0.698146
0.537514 0.698253 0.71075
0.695613 0.657755 0.752651
0.432395 0.783413 0.714336
0.43389 0.783658 0.714488
0.438407 0.78436 0.714977
0.463233 0.788022 0.717403
0.485985 0.791272 0.719509
0.52018 0.795254 0.722103
0.564157 0.800351 0.725338
0.632731 0.806821 0.730373
0.807126 0.802335 0.718975
