luts/残炎.cube
TITLE "Generated by Resolve"
LUT_3D_SIZE 9
0 0 0
0.000686656 1.5259e-05 0
0.0539254 0.000381476 0
0.189807 0.000656138 0
0.267948 0.0012665 0
0.330007 0.00288396 0
0.330007 0.00288396 0
0.330007 0.00288396 0
0.330007 0.00288396 0
0.000106813 0 0.00248722
1.5259e-05 0 0.000717174
0.0187076 0 0.000320439
0.155444 0.000518807 1.5259e-05
0.251347 0.00103761 0
0.31046 0.00218204 0
0.330007 0.00288396 0
0.330007 0.00288396 0
0.330007 0.00288396 0
0.00239567 0.00549325 0.0401465
0.00141909 0.0018616 0.0135042
0.00349432 0.000106813 0.00360113
0.12285 0.000396735 0.000732433
0.233555 0.000869764 0
0.295613 0.00175479 0
0.330007 0.00288396 0
0.330007 0.00288396 0
0.330007 0.00288396 0
0.00936904 0.0548257 0.152346
0.00857557 0.0468299 0.138338
0.00497444 0.0406195 0.0394293
0.0878767 0.0149386 0.00665293
0.317052 0.0198367 0.00102235
0.289815 0.00192264 0
0.330007 0.00288396 0
0.330007 0.00288396 0
0.330007 0.00288396 0
0.0059205 0.137346 0.285725
0.00549325 0.12079 0.268162
0.00588998 0.106691 0.252247
0.0621653 0.16437 0.0571145
0.301885 0.12134 0.0053254
0.499962 0.123995 0.0015259
0.376181 0.00732433 0
0.330007 0.00288396 0
0.330007 0.00288396 0
0.0130312 0.2692 0.457084
0.0123903 0.259403 0.443778
0.0116274 0.249805 0.429847
0.0106661 0.239857 0.415244
0.24686 0.349752 0.23386
0.52314 0.338231 0.0749981
0.677195 0.3514 0.0189975
0.484108 0.0555734 3.0518e-05
0.330007 0.00288396 0
0.0146639 0.340078 0.560433
0.0158236 0.336172 0.552285
0.0163424 0.331548 0.544137
0.0164492 0.326085 0.536263
0.0164187 0.320333 0.528374
0.436851 0.48484 0.425925
0.664607 0.501289 0.277165
0.733776 0.528084 0.209384
0.57702 0.163531 0.000381476
0.0156863 0.38056 0.587137
0.0146181 0.375814 0.586816
0.0137484 0.371389 0.586053
0.0129397 0.367224 0.585107
0.0122683 0.363424 0.584024
0.0116274 0.359457 0.582773
0.597772 0.529778 0.578973
0.7449 0.589075 0.499031
0.745937 0.581552 0.403296
0.0642557 0.435767 0.556924
0.0518959 0.428092 0.562325
0.0426947 0.421302 0.567239
0.0354314 0.415167 0.571664
0.0297093 0.409766 0.575692
0.0254368 0.404837 0.578973
0.0225681 0.40061 0.582132
0.75201 0.624628 0.629587
0.75259 0.634348 0.588327
0 0 0
0 0.000167849 0
0.0232853 0.000885023 0
0.16202 0.00199893 0
0.266423 0.00172427 0
0.328298 0.00283818 0
0.330007 0.00288396 0
0.330007 0.00288396 0
0.330007 0.00288396 0
7.62951e-05 1.5259e-05 0.00140383
1.5259e-05 1.5259e-05 0.000122072
0.03093 0.000198367 0
0.160418 0.000839246 0
0.248096 0.00137331 0
0.308934 0.00210575 0
0.330007 0.00288396 0
0.330007 0.00288396 0
0.330007 0.00288396 0
0.000717174 0.00619516 0.0364385
0 0.00205997 0.0062562
0.00572213 0.00132753 0.000823987
0.160113 0.00190738 1.5259e-05
0.257527 0.000869764 0
0.294148 0.00172427 0
0.330007 0.00288396 0
0.330007 0.00288396 0
0.330007 0.00288396 0
0.00241093 0.0610666 0.15758
0.002121 0.0494545 0.138476
0.00172427 0.0761273 0.0356451
0.109422 0.0323033 0.00283818
0.345647 0.0325933 0.000106813
0.313268 0.00242618 0
0.330007 0.00288396 0
0.330007 0.00288396 0
0.330007 0.00288396 0
0.00645457 0.17116 0.316152
0.00582895 0.158038 0.299016
0.0052491 0.144564 0.280262
0.0695811 0.206561 0.109117
0.322423 0.174029 0.0146639
0.528588 0.165042 0.00154116
0.392416 0.00991836 0
0.330007 0.00288396 0
0.330007 0.00288396 0
0.0136721 0.273289 0.459541
0.0129397 0.263996 0.446952
0.0122072 0.254337 0.433585
0.0112917 0.244739 0.419486
0.235569 0.358175 0.254688
0.521096 0.345403 0.0914321
0.676509 0.357839 0.0247501
0.482689 0.0544594 1.5259e-05
0.330007 0.00288396 0
0.0153964 0.340475 0.558709
0.0163272 0.33608 0.550622
0.0166629 0.330907 0.542214
0.0166476 0.324865 0.534142
0.0163577 0.317815 0.525322
0.431189 0.481682 0.420264
0.660624 0.496651 0.270283
0.732952 0.524758 0.202609
0.57467 0.160632 0.000366217
0.0153658 0.379202 0.58703
0.014313 0.374441 0.586572
0.0134432 0.370016 0.585809
0.012726 0.365942 0.584833
0.0120546 0.362066 0.583627
0.0114137 0.358129 0.582284
0.593835 0.527214 0.57792
0.744778 0.587823 0.49546
0.746166 0.581109 0.394064
0.0599832 0.433295 0.55877
0.0485847 0.425864 0.564019
0.0401007 0.419211 0.568719
0.0334173 0.413413 0.573083
0.0281376 0.408072 0.576776
0.0243381 0.403433 0.580102
0.0218204 0.399252 0.583032
0.748287 0.621057 0.62771
0.752255 0.632486 0.584482
0 0.00111391 0.00390631
0 0.000427253 0.00123598
0.0220035 0.00418097 7.62951e-05
0.134691 0.00537118 0
0.248981 0.00733959 0
0.330785 0.00929274 0
0.330007 0.00288396 0
0.330007 0.00288396 0
0.330007 0.00288396 0
0 0.00125124 0.00872816
0 0.00172427 0.00553903
0.0157321 0.00500496 0.00157168
0.172839 0.0041352 0
0.229786 0.00529488 0
0.308156 0.0059968 0
0.330007 0.00288396 0
0.330007 0.00288396 0
0.330007 0.00288396 0
0.000839246 0.0138705 0.0617533
0 0.0068513 0.0245975
0.00772107 0.0135653 0.0121004
0.202914 0.0117647 0.000503548
0.276951 0.0037995 0
0.2916 0.00416571 0
0.330007 0.00288396 0
0.330007 0.00288396 0
0.330007 0.00288396 0
0.00292973 0.0866255 0.203647
0.00170901 0.0716716 0.178866
0 0.0570993 0.0639658
0.125154 0.0664988 0.0154574
0.385916 0.0685893 0.00120546
0.342687 0.00444038 0
0.330007 0.00288396 0
0.330007 0.00288396 0
0.330007 0.00288396 0
0.00708019 0.183856 0.332769
0.00631724 0.171862 0.316701
0.00561532 0.160189 0.30042
0.03299 0.238712 0.163088
0.326513 0.201129 0.0335241
0.545892 0.202594 0.0056611
0.428855 0.0206149 0
0.330007 0.00288396 0
0.330007 0.00288396 0
0.0142519 0.275166 0.460594
0.0134432 0.266804 0.4486
0.0127413 0.258045 0.436423
0.0119478 0.249149 0.423728
0.217685 0.371359 0.284718
0.521355 0.36025 0.124269
0.679896 0.381415 0.0469215
0.498268 0.0697948 4.57771e-05
0.330007 0.00288396 0
0.016144 0.340764 0.557137
0.0169375 0.3364 0.549142
0.0171969 0.331472 0.54107
0.0172732 0.325948 0.53341
0.0171817 0.319432 0.524895
0.420081 0.486748 0.431998
0.658213 0.501427 0.285405
0.733654 0.533776 0.221653
0.57641 0.162829 0.000381476
0.015198 0.378576 0.58706
0.0142367 0.373983 0.58648
0.0133822 0.36968 0.585779
0.0126802 0.365667 0.58468
0.0120241 0.361898 0.583535
0.0113832 0.358022 0.582284
0.58793 0.526589 0.579904
0.744793 0.587884 0.495567
0.746609 0.583169 0.392203
0.0566415 0.431281 0.560281
0.046128 0.423972 0.565164
0.0381781 0.417609 0.570062
0.0318761 0.411872 0.57409
0.0270085 0.40679 0.577676
0.0236057 0.40235 0.580911
0.0212863 0.398306 0.583795
0.74522 0.61799 0.626169
0.75201 0.631113 0.581765
1.5259e-05 0.0955978 0.1308
0.000793469 0.099733 0.130968
0.0137026 0.0707866 0.0951553
0.301534 0.140429 0.0781109
0.231662 0.0193637 0
0.328496 0.0276188 0
0.337743 0.0209049 0
0.330007 0.00288396 0
0.330007 0.00288396 0
0 0.0496834 0.0912947
3.0518e-05 0.0601511 0.0984512
0.00466926 0.0489204 0.0765087
0.234989 0.108446 0.056672
0.315038 0.0258488 0
0.300893 0.0200961 0
0.337423 0.0174563 0
0.330007 0.00288396 0
0.330007 0.00288396 0
0.000213626 0.048188 0.116609
0 0.0489967 0.0970779
0.00270085 0.0698253 0.105119
0.185321 0.105241 0.0665293
0.395926 0.0658122 0.00415045
0.279759 0.0144198 0
0.336996 0.0146487 0
0.330007 0.00288396 0
0.330007 0.00288396 0
0.00326543 0.113954 0.22536
0.000183108 0.093019 0.18677
0.000457771 0.109178 0.163149
0.15407 0.169009 0.144503
0.43122 0.154452 0.0413062
0.440864 0.0455482 0.000167849
0.336736 0.0128023 0
0.330007 0.00288396 0
0.330007 0.00288396 0
0.00953689 0.20737 0.361151
0.00849927 0.195895 0.347036
0.00753796 0.184482 0.332692
0.00268559 0.229969 0.21915
0.345525 0.262501 0.129503
0.570626 0.264912 0.0416724
0.499672 0.0664836 0.000106813
0.330007 0.00288396 0
0.330007 0.00288396 0
0.0166781 0.284123 0.46949
0.0157168 0.275883 0.458152
0.014725 0.267369 0.446204
0.0136721 0.258747 0.434058
0.179156 0.394491 0.332174
0.524392 0.381506 0.170642
0.682933 0.404623 0.0844434
0.551629 0.134554 0.000686656
0.330007 0.00288396 0
0.0171817 0.342687 0.55671
0.0178531 0.338308 0.548455
0.0180209 0.333181 0.540627
0.0180209 0.327718 0.533165
0.0178683 0.320378 0.524178
0.408637 0.490578 0.441306
0.656077 0.503929 0.295369
0.734066 0.539345 0.233265
0.577462 0.164111 0.000396735
0.0150759 0.377935 0.586862
0.0141299 0.373373 0.586343
0.0132753 0.369146 0.585657
0.012604 0.365316 0.584527
0.0119631 0.361486 0.583429
0.0113222 0.357656 0.582055
0.582483 0.525811 0.581338
0.744808 0.587747 0.494118
0.746975 0.584619 0.390661
0.0534676 0.429191 0.561715
0.0437324 0.422202 0.566644
0.0362554 0.41593 0.571206
0.0304112 0.410468 0.575128
0.0259098 0.405478 0.578485
0.0229648 0.401312 0.581704
0.0207675 0.397253 0.584405
0.74168 0.614939 0.624537
0.751812 0.629938 0.579446
0.0628367 0.36582 0.337179
0.0697948 0.357076 0.332418
0.121889 0.363073 0.334188
0.226658 0.341222 0.304006
0.567712 0.41503 0.30898
0.337743 0.0576028 0.000106813
0.344839 0.0533913 1.5259e-05
0.342367 0.0413062 0
0.330007 0.00288396 0
0.0188907 0.297978 0.297108
0.0279545 0.293751 0.293233
0.064622 0.301137 0.295399
0.164828 0.279332 0.261799
0.521263 0.356603 0.26656
0.425162 0.113359 0.00888075
0.343816 0.0464485 0
0.340185 0.0349432 0
0.330007 0.00288396 0
0.00123598 0.228199 0.252888
0.00595102 0.235248 0.255146
0.0230869 0.244892 0.257511
0.115953 0.234424 0.232227
0.468833 0.309224 0.228611
0.488777 0.170825 0.0390021
0.341741 0.0398718 0
0.339132 0.0292973 0
0.330007 0.00288396 0
9.15541e-05 0.178546 0.245014
0.000427253 0.202609 0.247364
0.00459297 0.216342 0.253758
0.116289 0.267567 0.272267
0.422156 0.309041 0.239872
0.567575 0.268696 0.12108
0.340078 0.0337835 0
0.338369 0.0248264 0
0.330007 0.00288396 0
0.011429 0.238682 0.364004
0.010071 0.226612 0.35198
0.000411994 0.227207 0.320699
0.0532998 0.296223 0.335332
0.374563 0.371572 0.329686
0.604913 0.367468 0.221622
0.603555 0.266819 0.046479
0.338003 0.0218662 0
0.330007 0.00288396 0
0.020676 0.305501 0.475868
0.0196231 0.296925 0.466407
0.0185855 0.287922 0.457053
0.0175631 0.278874 0.447105
0.0875715 0.404044 0.385855
0.540841 0.4477 0.312917
0.697459 0.471794 0.21677
0.616037 0.25864 0.0257877
0.330007 0.00288396 0
0.0202335 0.353353 0.561318
0.0208591 0.34873 0.553658
0.0210422 0.343801 0.546593
0.0210117 0.338018 0.538628
0.020798 0.330663 0.529793
0.37145 0.510994 0.481224
0.65861 0.52369 0.343725
0.736431 0.563546 0.282414
0.642451 0.297642 0.01944
0.0156558 0.380484 0.587076
0.0146181 0.375845 0.586786
0.0137789 0.371511 0.586038
0.0129702 0.367437 0.58526
0.0123293 0.363592 0.584039
0.0116884 0.359869 0.582773
0.573022 0.528893 0.588602
0.746258 0.592126 0.485191
0.747707 0.590219 0.400839
0.0521553 0.428321 0.562234
0.0426795 0.421317 0.567132
0.0354314 0.415167 0.571664
0.0297551 0.409781 0.575555
0.0254978 0.404944 0.579019
0.0226596 0.400671 0.58201
0.0205386 0.396826 0.584772
0.73843 0.612543 0.62385
0.751705 0.629343 0.57818
0.317159 0.590936 0.429496
0.295766 0.582238 0.418235
0.288106 0.578302 0.410498
0.323201 0.585 0.410407
0.390799 0.55639 0.413016
0.700328 0.643824 0.451072
0.469215 0.240238 0.0937209
0.334615 0.0912642 0.00292973
0.341299 0.0695048 0.000595102
0.229557 0.550729 0.393179
0.223133 0.53669 0.399741
0.22826 0.527886 0.403845
0.284947 0.534829 0.416373
0.373358 0.513817 0.406989
0.677684 0.589593 0.425483
0.52192 0.289967 0.130373
0.339117 0.0773632 0.00123598
0.343694 0.0610208 0.000167849
0.172885 0.491615 0.393332
0.172107 0.480888 0.392187
0.17612 0.472267 0.390692
0.23508 0.482963 0.400183
0.332937 0.463081 0.382223
0.643717 0.534997 0.394675
0.5561 0.321889 0.148333
0.341878 0.0671855 0.000442512
0.344945 0.0540475 1.5259e-05
0.105699 0.434546 0.379217
0.116182 0.429191 0.37908
0.120836 0.421149 0.376196
0.179675 0.43447 0.383597
0.306874 0.433371 0.370871
0.615061 0.494926 0.374395
0.617517 0.404471 0.201938
0.344121 0.059205 0.000106813
0.344045 0.0472419 0
0.0317082 0.387366 0.381476
0.0465248 0.38793 0.381598
0.0577096 0.384558 0.378958
0.121599 0.401892 0.388373
0.317098 0.458564 0.405936
0.592584 0.493614 0.392309
0.679088 0.482155 0.28275
0.344991 0.0526741 0
0.342153 0.0410315 0
0.0211643 0.338109 0.450721
0.0201724 0.329549 0.443122
0.0129549 0.326955 0.437049
0.0149081 0.371832 0.434211
0.241245 0.467033 0.472267
0.561273 0.540047 0.473442
0.717662 0.54902 0.394003
0.675669 0.454444 0.226688
0.340459 0.0364385 0
0.0243381 0.377905 0.553872
0.0247654 0.371984 0.546426
0.0248569 0.36611 0.539605
0.0249027 0.359457 0.53312
0.0249638 0.352514 0.526329
0.250599 0.533578 0.513008
0.672618 0.577218 0.467338
0.746075 0.62034 0.416953
0.681514 0.431724 0.182681
0.0193484 0.393652 0.586175
0.0179141 0.389456 0.587427
0.0166934 0.384665 0.587442
0.0155795 0.380087 0.587076
0.0145724 0.375769 0.586816
0.0137331 0.371298 0.585946
0.541955 0.547784 0.614038
0.749004 0.607553 0.505943
0.749981 0.611933 0.453452
0.0586557 0.432563 0.559472
0.0475929 0.425071 0.564385
0.0393683 0.418601 0.569253
0.0328527 0.412741 0.573404
0.0278019 0.407584 0.577127
0.024094 0.403021 0.580377
0.0216983 0.398962 0.583124
0.736095 0.614878 0.630014
0.7523 0.632731 0.585046
0.672847 0.674846 0.627314
0.658503 0.669322 0.624979
0.646281 0.665049 0.615167
0.638865 0.668559 0.591791
0.677012 0.696269 0.583841
0.754849 0.73434 0.590249
0.742077 0.72697 0.55877
0.59086 0.485634 0.276631
0.310887 0.113512 0.0115663
0.602457 0.658122 0.58053
0.574853 0.658137 0.561227
0.550881 0.65716 0.544915
0.543465 0.660075 0.532876
0.589456 0.681285 0.532692
0.680735 0.695033 0.530892
0.728985 0.712581 0.525673
0.583688 0.473152 0.266972
0.310887 0.113512 0.0115663
0.50518 0.64741 0.523323
0.481346 0.643366 0.509834
0.458366 0.639216 0.4972
0.45153 0.639246 0.487755
0.497948 0.654734 0.489632
0.566354 0.649454 0.48011
0.716274 0.695491 0.495705
0.577646 0.462028 0.259068
0.310887 0.113512 0.0115663
0.41445 0.625528 0.479576
0.395239 0.619348 0.467643
0.373419 0.612009 0.456214
0.365835 0.609155 0.447974
0.404395 0.621027 0.448692
0.457343 0.60238 0.438025
0.70457 0.679225 0.469871
0.596338 0.48777 0.280797
0.327855 0.105852 0.00630198
0.325963 0.594934 0.446693
0.305699 0.58732 0.434836
0.285512 0.579263 0.423285
0.279393 0.576242 0.415457
0.330617 0.58822 0.429129
0.434073 0.584237 0.444999
0.706798 0.651179 0.468238
0.654276 0.542855 0.336324
0.335683 0.0889143 0.00256352
0.224826 0.557946 0.434958
0.214176 0.546151 0.437964
0.210513 0.535286 0.444114
0.219074 0.530663 0.449027
0.294835 0.551369 0.465599
0.481743 0.603662 0.49427
0.703502 0.640848 0.498161
0.714778 0.620615 0.420172
0.339376 0.0759747 0.00111391
0.0555428 0.428916 0.50927
0.0465553 0.417075 0.502861
0.039704 0.406653 0.497169
0.0365148 0.405905 0.495659
0.169116 0.498451 0.526619
0.437415 0.587655 0.563516
0.696971 0.652354 0.576562
0.759579 0.676127 0.535256
0.712215 0.580591 0.379522
0.0618906 0.434409 0.557992
0.0501717 0.426993 0.563241
0.0414282 0.42031 0.567941
0.0345312 0.414405 0.572396
0.0290379 0.408988 0.576135
0.0249943 0.404257 0.57937
0.385016 0.58201 0.610803
0.755886 0.647074 0.588815
0.758068 0.662394 0.554452
0.109514 0.457862 0.536843
0.0890516 0.448127 0.546975
0.071107 0.439475 0.554192
0.0576791 0.431937 0.559823
0.0472419 0.424903 0.56463
0.0391546 0.418402 0.569314
0.0327306 0.412741 0.573556
0.720348 0.635721 0.657511
0.756603 0.649317 0.619333
0.77557 0.716106 0.647517
0.77557 0.716106 0.647517
0.77557 0.716106 0.647517
0.77557 0.716106 0.647517
0.77557 0.716106 0.647517
0.77557 0.716106 0.647517
0.77557 0.716106 0.647517
0.77557 0.716106 0.647517
0.673579 0.628351 0.40737
0.77557 0.716106 0.647517
0.77557 0.716106 0.647517
0.77557 0.716106 0.647517
0.773648 0.715084 0.646525
0.774075 0.715038 0.646555
0.77557 0.716106 0.647517
0.77557 0.716106 0.647517
0.77557 0.716106 0.647517
0.659968 0.605066 0.38294
0.766796 0.715023 0.645258
0.757626 0.712413 0.643839
0.747219 0.707042 0.642069
0.737835 0.702434 0.64036
0.739071 0.702998 0.64065
0.768597 0.71519 0.645594
0.77557 0.716106 0.647517
0.772915 0.720378 0.640726
0.647379 0.583078 0.360784
0.726406 0.697643 0.638315
0.712383 0.691524 0.635325
0.699245 0.685847 0.632517
0.688533 0.681132 0.630121
0.689448 0.681559 0.630335
0.729213 0.698817 0.638849
0.7691 0.726894 0.630808
0.755642 0.734493 0.592203
0.640101 0.57113 0.349111
0.676265 0.676234 0.627955
0.662135 0.670665 0.625528
0.646189 0.664958 0.623194
0.632883 0.661158 0.608896
0.623453 0.664134 0.586267
0.662852 0.691814 0.578882
0.751812 0.730861 0.58471
0.742153 0.72697 0.558953
0.648875 0.585733 0.36347
0.61384 0.653437 0.618219
0.597787 0.648539 0.604532
0.571038 0.645151 0.578515
0.543511 0.645014 0.558083
0.534112 0.649805 0.543816
0.578729 0.672602 0.541314
0.669566 0.695216 0.5411
0.735653 0.720592 0.542153
0.680247 0.639704 0.420264
0.518914 0.62034 0.601282
0.501198 0.614389 0.598138
0.491585 0.61207 0.590707
0.4692 0.610727 0.56437
0.457542 0.613687 0.544945
0.504555 0.6383 0.540276
0.652445 0.700999 0.557366
0.743282 0.727932 0.561822
0.7196 0.700023 0.503441
0.123262 0.466484 0.522713
0.123262 0.466484 0.522713
0.123262 0.466484 0.522713
0.123262 0.466484 0.522713
0.142824 0.474983 0.525429
0.338796 0.565377 0.570153
0.590387 0.644938 0.614069
0.77557 0.716106 0.647517
0.766506 0.731884 0.618524
0.123262 0.466484 0.522713
0.123262 0.466484 0.522713
0.123262 0.466484 0.522713
0.123262 0.466484 0.522713
0.123262 0.466484 0.522713
0.123262 0.466484 0.522713
0.123262 0.466484 0.522713
0.697337 0.688411 0.641978
0.772702 0.701808 0.665553
0.77557 0.716106 0.647517
0.77557 0.716106 0.647517
0.77557 0.716106 0.647517
0.77557 0.716106 0.647517
0.77557 0.716106 0.647517
0.77557 0.716106 0.647517
0.77557 0.716106 0.647517
0.77557 0.716106 0.647517
0.77557 0.716106 0.647517
0.77557 0.716106 0.647517
0.77557 0.716106 0.647517
0.77557 0.716106 0.647517
0.77557 0.716106 0.647517
0.77557 0.716106 0.647517
0.77557 0.716106 0.647517
0.77557 0.716106 0.647517
0.77557 0.716106 0.647517
0.77557 0.716106 0.647517
0.77557 0.716106 0.647517
0.77557 0.716106 0.647517
0.77557 0.716106 0.647517
0.77557 0.716106 0.647517
0.77557 0.716106 0.647517
0.77557 0.716106 0.647517
0.77557 0.716106 0.647517
0.77557 0.716106 0.647517
0.77557 0.716106 0.647517
0.77557 0.716106 0.647517
0.77557 0.716106 0.647517
0.77557 0.716106 0.647517
0.77557 0.716106 0.647517
0.77557 0.716106 0.647517
0.77557 0.716106 0.647517
0.77557 0.716106 0.647517
0.77557 0.716106 0.647517
0.77557 0.716106 0.647517
0.77557 0.716106 0.647517
0.77557 0.716106 0.647517
0.77557 0.716106 0.647517
0.77557 0.716106 0.647517
0.77557 0.716106 0.647517
0.77557 0.716106 0.647517
0.77557 0.716106 0.647517
0.77557 0.716106 0.647517
0.77557 0.716106 0.647517
0.77557 0.716106 0.647517
0.77557 0.716106 0.647517
0.77557 0.716106 0.647517
0.773922 0.715084 0.646571
0.766812 0.715007 0.645243
0.767529 0.715114 0.64538
0.77557 0.716106 0.647517
0.77557 0.716106 0.647517
0.77557 0.716106 0.647517
0.766033 0.714885 0.645106
0.756008 0.711635 0.643626
0.745418 0.706188 0.64184
0.732464 0.700084 0.639323
0.720943 0.695323 0.637232
0.722515 0.695888 0.637461
0.759182 0.713161 0.644053
0.77557 0.716106 0.647517
0.77557 0.716106 0.647517
0.695064 0.683925 0.631464
0.679728 0.677531 0.628473
0.66601 0.67216 0.626184
0.650507 0.666453 0.623804
0.638575 0.662287 0.622095
0.644648 0.664378 0.622965
0.698222 0.685374 0.632258
0.77557 0.716106 0.647517
0.77557 0.716106 0.647517
0.123262 0.466484 0.522713
0.123262 0.466484 0.522713
0.123262 0.466484 0.522713
0.123262 0.466484 0.522713
0.123262 0.466484 0.522713
0.177386 0.494484 0.533791
0.499413 0.61384 0.597894
0.737255 0.702144 0.640208
0.77557 0.716106 0.647517
