luts/残炎.cube
TITLE "Generated by Resolve"
LUT_3D_SIZE 5
0 0 0
0.0539254 0.000381476 0
0.267948 0.0012665 0
0.330007 0.00288396 0
0.330007 0.00288396 0
0.00239567 0.00549325 0.0401465
0.00349432 0.000106813 0.00360113
0.233555 0.000869764 0
0.330007 0.00288396 0
0.330007 0.00288396 0
0.0059205 0.137346 0.285725
0.00588998 0.106691 0.252247
0.301885 0.12134 0.0053254
0.376181 0.00732433 0
0.330007 0.00288396 0
0.0146639 0.340078 0.560433
0.0163424 0.331548 0.544137
0.0164187 0.320333 0.528374
0.664607 0.501289 0.277165
0.57702 0.163531 0.000381476
0.0642557 0.435767 0.556924
0.0426947 0.421302 0.567239
0.0297093 0.409766 0.575692
0.0225681 0.40061 0.582132
0.75259 0.634348 0.588327
0 0.00111391 0.00390631
0.0220035 0.00418097 7.62951e-05
0.248981 0.00733959 0
0.330007 0.00288396 0
0.330007 0.00288396 0
0.000839246 0.0138705 0.0617533
0.00772107 0.0135653 0.0121004
0.276951 0.0037995 0
0.330007 0.00288396 0
0.330007 0.00288396 0
0.00708019 0.183856 0.332769
0.00561532 0.160189 0.30042
0.326513 0.201129 0.0335241
0.428855 0.0206149 0
0.330007 0.00288396 0
0.016144 0.340764 0.557137
0.0171969 0.331472 0.54107
0.0171817 0.319432 0.524895
0.658213 0.501427 0.285405
0.57641 0.162829 0.000381476
0.0566415 0.431281 0.560281
0.0381781 0.417609 0.570062
0.0270085 0.40679 0.577676
0.0212863 0.398306 0.583795
0.75201 0.631113 0.581765
0.0628367 0.36582 0.337179
0.121889 0.363073 0.334188
0.567712 0.41503 0.30898
0.344839 0.0533913 1.5259e-05
0.330007 0.00288396 0
0.00123598 0.228199 0.252888
0.0230869 0.244892 0.257511
0.468833 0.309224 0.228611
0.341741 0.0398718 0
0.330007 0.00288396 0
0.011429 0.238682 0.364004
0.000411994 0.227207 0.320699
0.374563 0.371572 0.329686
0.603555 0.266819 0.046479
0.330007 0.00288396 0
0.0202335 0.353353 0.561318
0.0210422 0.343801 0.546593
0.020798 0.330663 0.529793
0.65861 0.52369 0.343725
0.642451 0.297642 0.01944
0.0521553 0.428321 0.562234
0.0354314 0.415167 0.571664
0.0254978 0.404944 0.579019
0.0205386 0.396826 0.584772
0.751705 0.629343 0.57818
0.672847 0.674846 0.627314
0.646281 0.665049 0.615167
0.677012 0.696269 0.583841
0.742077 0.72697 0.55877
0.310887 0.113512 0.0115663
0.50518 0.64741 0.523323
0.458366 0.639216 0.4972
0.497948 0.654734 0.489632
0.716274 0.695491 0.495705
0.310887 0.113512 0.0115663
0.325963 0.594934 0.446693
0.285512 0.579263 0.423285
0.330617 0.58822 0.429129
0.706798 0.651179 0.468238
0.335683 0.0889143 0.00256352
0.0555428 0.428916 0.50927
0.039704 0.406653 0.497169
0.169116 0.498451 0.526619
0.696971 0.652354 0.576562
0.712215 0.580591 0.379522
0.109514 0.457862 0.536843
0.071107 0.439475 0.554192
0.0472419 0.424903 0.56463
0.0327306 0.412741 0.573556
0.756603 0.649317 0.619333
0.77557 0.716106 0.647517
0.77557 0.716106 0.647517
0.77557 0.716106 0.647517
0.77557 0.716106 0.647517
0.77557 0.716106 0.647517
0.77557 0.716106 0.647517
0.77557 0.716106 0.647517
0.77557 0.716106 0.647517
0.77557 0.716106 0.647517
0.77557 0.716106 0.647517
0.77557 0.716106 0.647517
0.77557 0.716106 0.647517
0.77557 0.716106 0.647517
0.77557 0.716106 0.647517
0.77557 0.716106 0.647517
0.766033 0.714885 0.645106
0.745418 0.706188 0.64184
0.720943 0.695323 0.637232
0.759182 0.713161 0.644053
0.77557 0.716106 0.647517
0.123262 0.466484 0.522713
0.123262 0.466484 0.522713
0.123262 0.466484 0.522713
0.499413 0.61384 0.597894
0.77557 0.716106 0.647517
