luts/残炎.cube
TITLE "Generated by Resolve"
LUT_3D_SIZE 33
0 0 0
0 0 0
0 0 0
7.62951e-05 0 0
0.000686656 1.5259e-05 0
0.00332647 6.10361e-05 0
0.0115663 0.000122072 0
0.027924 0.000213626 0
0.0539254 0.000381476 0
0.0914321 0.000457771 0
0.128252 0.000503548 0
0.161181 0.000549325 0
0.189807 0.000656138 0
0.213397 0.00077821 0
0.234226 0.000885023 0
0.251743 0.00103761 0
0.267948 0.0012665 0
0.282826 0.00146487 0
0.296544 0.00177005 0
0.311025 0.0021973 0
0.330007 0.00288396 0
0.330007 0.00288396 0
0.330007 0.00288396 0
0.330007 0.00288396 0
0.330007 0.00288396 0
0.330007 0.00288396 0
0.330007 0.00288396 0
0.330007 0.00288396 0
0.330007 0.00288396 0
0.330007 0.00288396 0
0.330007 0.00288396 0
0.330007 0.00288396 0
0.330007 0.00288396 0
0 0 4.57771e-05
0 0 1.5259e-05
0 0 1.5259e-05
3.0518e-05 0 1.5259e-05
0.000381476 0 1.5259e-05
0.00209049 1.5259e-05 0
0.00805676 4.57771e-05 0
0.0227207 0.000106813 0
0.0472267 0.000183108 0
0.0835737 0.000274662 0
0.120317 0.000457771 0
0.152667 0.000549325 0
0.18117 0.000671397 0
0.207446 0.000747692 0
0.229282 0.000854505 0
0.247608 0.000991836 0
0.26389 0.00122072 0
0.279347 0.00141909 0
0.292821 0.00169375 0
0.306966 0.00202945 0
0.324529 0.00273136 0
0.330007 0.00288396 0
0.330007 0.00288396 0
0.330007 0.00288396 0
0.330007 0.00288396 0
0.330007 0.00288396 0
0.330007 0.00288396 0
0.330007 0.00288396 0
0.330007 0.00288396 0
0.330007 0.00288396 0
0.330007 0.00288396 0
0.330007 0.00288396 0
0.330007 0.00288396 0
0 0 0.000213626
0 0 0.000137331
0 0 0.000106813
1.5259e-05 0 9.15541e-05
0.00015259 0 7.62951e-05
0.00103761 0 6.10361e-05
0.00463874 0 4.57771e-05
0.015198 4.57771e-05 4.57771e-05
0.0349889 0.000106813 3.0518e-05
0.0653849 0.000228885 1.5259e-05
0.105196 0.000350958 1.5259e-05
0.143633 0.000549325 0
0.173541 0.000656138 0
0.201404 0.000732433 0
0.223728 0.000823987 0
0.243336 0.0009308 0
0.259602 0.00115969 0
0.275731 0.00137331 0
0.289479 0.0016022 0
0.303181 0.0019379 0
0.319051 0.00254826 0
0.330007 0.00288396 0
0.330007 0.00288396 0
0.330007 0.00288396 0
0.330007 0.00288396 0
0.330007 0.00288396 0
0.330007 0.00288396 0
0.330007 0.00288396 0
0.330007 0.00288396 0
0.330007 0.00288396 0
0.330007 0.00288396 0
0.330007 0.00288396 0
0.330007 0.00288396 0
0 0 0.000747692
0 0 0.000442512
0 0 0.000381476
0 0 0.00030518
6.10361e-05 0 0.000228885
0.000534066 0 0.000213626
0.00257877 0 0.000183108
0.00959792 0 0.000167849
0.0255436 4.57771e-05 0.000137331
0.051194 0.000122072 9.15541e-05
0.0891432 0.000274662 4.57771e-05
0.130083 0.000442512 1.5259e-05
0.165942 0.00062562 0
0.194324 0.000717174 0
0.218448 0.000793469 0
0.238544 0.000900282 0
0.255375 0.00109865 0
0.271519 0.00132753 0
0.285847 0.0015259 0
0.29958 0.00184634 0
0.314611 0.00234989 0
0.330007 0.00288396 0
0.330007 0.00288396 0
0.330007 0.00288396 0
0.330007 0.00288396 0
0.330007 0.00288396 0
0.330007 0.00288396 0
0.330007 0.00288396 0
0.330007 0.00288396 0
0.330007 0.00288396 0
0.330007 0.00288396 0
0.330007 0.00288396 0
0.330007 0.00288396 0
0.000106813 0 0.00248722
3.0518e-05 0 0.00151064
3.0518e-05 0 0.00109865
0 0 0.0010071
1.5259e-05 0 0.000717174
0.000259403 0 0.000549325
0.00140383 0 0.000518807
0.00578317 0 0.000457771
0.0187076 0 0.000320439
0.0412299 4.57771e-05 0.000198367
0.075227 0.00015259 0.000106813
0.117342 0.000335698 4.57771e-05
0.155444 0.000518807 1.5259e-05
0.187366 0.000686656 0
0.212467 0.00077821 0
0.233585 0.000869764 0
0.251347 0.00103761 0
0.267399 0.0012665 0
0.282383 0.00146487 0
0.29601 0.00177005 0
0.31046 0.00218204 0
0.330007 0.00288396 0
0.330007 0.00288396 0
0.330007 0.00288396 0
0.330007 0.00288396 0
0.330007 0.00288396 0
0.330007 0.00288396 0
0.330007 0.00288396 0
0.330007 0.00288396 0
0.330007 0.00288396 0
0.330007 0.00288396 0
0.330007 0.00288396 0
0.330007 0.00288396 0
0.000381476 4.57771e-05 0.00588998
0.000183108 9.15541e-05 0.00434882
0.00015259 1.5259e-05 0.00280766
3.0518e-05 0 0.00254826
1.5259e-05 0 0.00218204
0.000106813 0 0.00149538
0.000808728 0 0.00105287
0.00358587 0 0.000839246
0.013138 0 0.000610361
0.0334936 1.5259e-05 0.000381476
0.0633249 6.10361e-05 0.000228885
0.104189 0.000198367 0.000106813
0.145174 0.000411994 4.57771e-05
0.179232 0.00062562 0
0.206455 0.000747692 0
0.228458 0.000839246 0
0.246921 0.000976577 0
0.263203 0.00120546 0
0.279011 0.00141909 0
0.292348 0.00167849 0
0.306584 0.00201419 0
0.323842 0.00271611 0
0.330007 0.00288396 0
0.330007 0.00288396 0
0.330007 0.00288396 0
0.330007 0.00288396 0
0.330007 0.00288396 0
0.330007 0.00288396 0
0.330007 0.00288396 0
0.330007 0.00288396 0
0.330007 0.00288396 0
0.330007 0.00288396 0
0.330007 0.00288396 0
0.000808728 0.000427253 0.0128328
0.000579843 0.000503548 0.0113832
0.000534066 0.000259403 0.00660716
0.000244144 0.000122072 0.00544747
6.10361e-05 0.000106813 0.00454719
6.10361e-05 1.5259e-05 0.00318914
0.000427253 0 0.00199893
0.00224308 0 0.00143435
0.00854505 0 0.00111391
0.0262455 0 0.000762951
0.0547799 4.57771e-05 0.000488289
0.0933547 0.000122072 0.000274662
0.135348 0.000259403 0.000122072
0.172427 0.000488289 3.0518e-05
0.200977 0.000717174 0
0.222873 0.000823987 0
0.242527 0.0009308 0
0.259007 0.00114443 0
0.275181 0.00137331 0
0.288899 0.00158694 0
0.302693 0.00192264 0
0.318456 0.002533 0
0.330007 0.00288396 0
0.330007 0.00288396 0
0.330007 0.00288396 0
0.330007 0.00288396 0
0.330007 0.00288396 0
0.330007 0.00288396 0
0.330007 0.00288396 0
0.330007 0.00288396 0
0.330007 0.00288396 0
0.330007 0.00288396 0
0.330007 0.00288396 0
0.00140383 0.00184634 0.0238956
0.00146487 0.00177005 0.0236057
0.000976577 0.00167849 0.0149996
0.000976577 0.00062562 0.00926223
0.000366217 0.000518807 0.00772107
0.000106813 0.000549325 0.00619516
0.000198367 0.000167849 0.00425727
0.00125124 0 0.00276188
0.00567636 0 0.0019379
0.019913 1.5259e-05 0.00140383
0.0466926 4.57771e-05 0.000946059
0.0849928 0.000137331 0.000610361
0.12871 0.000259403 0.000350958
0.168673 0.000396735 0.000137331
0.199527 0.000595102 3.0518e-05
0.218708 0.000793469 0
0.23769 0.000900282 0
0.254765 0.00108339 0
0.270893 0.00131228 0
0.285313 0.00151064 0
0.299168 0.00184634 0
0.314092 0.00233463 0
0.330007 0.00288396 0
0.330007 0.00288396 0
0.330007 0.00288396 0
0.330007 0.00288396 0
0.330007 0.00288396 0
0.330007 0.00288396 0
0.330007 0.00288396 0
0.330007 0.00288396 0
0.330007 0.00288396 0
0.330007 0.00288396 0
0.330007 0.00288396 0
0.00239567 0.00549325 0.0401465
0.00231937 0.00497444 0.0383459
0.00157168 0.00502022 0.0315862
0.00172427 0.00332647 0.0184329
0.00141909 0.0018616 0.0135042
0.000549325 0.00177005 0.0109407
0.000228885 0.00183108 0.00825513
0.000701915 0.000701915 0.00552377
0.00349432 0.000106813 0.00360113
0.0144808 6.10361e-05 0.00241093
0.0392157 0.000106813 0.00161746
0.0773022 0.000228885 0.00111391
0.12285 0.000396735 0.000732433
0.166735 0.000564584 0.000396735
0.20415 0.000686656 0.000137331
0.225589 0.000732433 3.0518e-05
0.233555 0.000869764 0
0.25066 0.00102235 0
0.26688 0.00125124 0
0.281971 0.00146487 0
0.295613 0.00175479 0
0.309941 0.00215152 0
0.329274 0.00285344 0
0.330007 0.00288396 0
0.330007 0.00288396 0
0.330007 0.00288396 0
0.330007 0.00288396 0
0.330007 0.00288396 0
0.330007 0.00288396 0
0.330007 0.00288396 0
0.330007 0.00288396 0
0.330007 0.00288396 0
0.330007 0.00288396 0
0.0037995 0.0124514 0.0612039
0.00358587 0.0114443 0.0583963
0.00341802 0.0104067 0.0557412
0.00221256 0.01149 0.0382696
0.00296025 0.00668345 0.0235294
0.00187686 0.00480659 0.0184482
0.000747692 0.00497444 0.0145571
0.000564584 0.00485237 0.0107271
0.00192264 0.00228885 0.00700389
0.0090486 0.000579843 0.00436408
0.0311742 0.000381476 0.00259403
0.0692302 0.000488289 0.00163272
0.11783 0.000793469 0.00115969
0.166049 0.00117494 0.000793469
0.211124 0.00143435 0.000457771
0.244144 0.00137331 0.000167849
0.258366 0.00109865 3.0518e-05
0.247745 0.00102235 0
0.262592 0.00120546 0
0.278492 0.00141909 0
0.292012 0.00166323 0
0.305959 0.00199893 0
0.323095 0.00268559 0
0.330007 0.00288396 0
0.330007 0.00288396 0
0.330007 0.00288396 0
0.330007 0.00288396 0
0.330007 0.00288396 0
0.330007 0.00288396 0
0.330007 0.00288396 0
0.330007 0.00288396 0
0.330007 0.00288396 0
0.330007 0.00288396 0
0.00564584 0.0226902 0.0889906
0.00540169 0.0213169 0.0855116
0.00517281 0.0200504 0.0821698
0.00419623 0.0199893 0.0741588
0.00357061 0.021149 0.0478828
0.00448615 0.0136721 0.0307317
0.00239567 0.0110933 0.023743
0.00120546 0.0119326 0.0189822
0.00132753 0.0116884 0.0138094
0.00492866 0.00601205 0.00889601
0.0226749 0.00216678 0.00523384
0.0603494 0.00163272 0.0028687
0.112779 0.00181582 0.00175479
0.163867 0.00262455 0.00122072
0.214221 0.00355535 0.000839246
0.258869 0.00399786 0.000503548
0.289616 0.00343328 0.000213626
0.295827 0.00207523 3.0518e-05
0.261204 0.00125124 0
0.274464 0.00135805 0
0.288472 0.00158694 0
0.302312 0.00190738 0
0.317784 0.00250248 0
0.330007 0.00288396 0
0.330007 0.00288396 0
0.330007 0.00288396 0
0.330007 0.00288396 0
0.330007 0.00288396 0
0.330007 0.00288396 0
0.330007 0.00288396 0
0.330007 0.00288396 0
0.330007 0.00288396 0
0.330007 0.00288396 0
0.00749218 0.0368048 0.119905
0.00729381 0.0349126 0.116228
0.00708019 0.0331731 0.112718
0.00686656 0.0313115 0.108888
0.00550851 0.0321355 0.0968795
0.00529488 0.0345922 0.0641489
0.00694286 0.0228733 0.0384527
0.00318914 0.0225986 0.030869
0.00227359 0.0250248 0.0244297
0.00341802 0.0243992 0.0180667
0.0132448 0.0142214 0.0117189
0.046952 0.00624094 0.00605783
0.104875 0.00503548 0.00321965
0.160586 0.00547799 0.00199893
0.213657 0.00714122 0.00135805
0.265675 0.00903334 0.000900282
0.308537 0.010132 0.000534066
0.336278 0.00891127 0.000244144
0.337499 0.00440986 4.57771e-05
0.275639 0.00149538 0
0.284794 0.00149538 0
0.298695 0.00183108 0
0.313512 0.00230411 0
0.330007 0.00288396 0
0.330007 0.00288396 0
0.330007 0.00288396 0
0.330007 0.00288396 0
0.330007 0.00288396 0
0.330007 0.00288396 0
0.330007 0.00288396 0
0.330007 0.00288396 0
0.330007 0.00288396 0
0.330007 0.00288396 0
0.00936904 0.0548257 0.152346
0.00915541 0.0526741 0.148577
0.00895705 0.0507057 0.145129
0.00877394 0.0487831 0.141665
0.00857557 0.0468299 0.138338
0.00695811 0.0487068 0.124819
0.00769055 0.0526436 0.0806592
0.0101778 0.0368353 0.0472572
0.00497444 0.0406195 0.0394293
0.00486763 0.0442054 0.0298466
0.0087892 0.0424048 0.0223697
0.0302739 0.0267491 0.0138705
0.0878767 0.0149386 0.00665293
0.153262 0.0130465 0.00366217
0.210788 0.01355 0.00227359
0.266621 0.0162203 0.00154116
0.317052 0.0198367 0.00102235
0.35787 0.0218051 0.000610361
0.38349 0.0201572 0.000289921
0.378958 0.0108034 6.10361e-05
0.289815 0.00192264 0
0.295048 0.00175479 0
0.309453 0.002121 0
0.328328 0.00283818 0
0.330007 0.00288396 0
0.330007 0.00288396 0
0.330007 0.00288396 0
0.330007 0.00288396 0
0.330007 0.00288396 0
0.330007 0.00288396 0
0.330007 0.00288396 0
0.330007 0.00288396 0
0.330007 0.00288396 0
0.0121309 0.0762188 0.186603
0.0117952 0.0739605 0.183017
0.01149 0.0716716 0.179583
0.0112001 0.0695048 0.176226
0.0108949 0.0673533 0.172839
0.0105135 0.0652323 0.169497
0.00885023 0.0675517 0.156329
0.0113527 0.0733806 0.0967269
0.0143893 0.0565347 0.0595865
0.009308 0.0644694 0.0476997
0.0107576 0.0707713 0.0358129
0.0211795 0.0658122 0.0261692
0.058381 0.0454871 0.0155947
0.136706 0.0293736 0.00729381
0.20499 0.0268254 0.00408942
0.264149 0.0277256 0.002533
0.319463 0.0314794 0.00169375
0.367514 0.0366217 0.00114443
0.405432 0.0397345 0.000686656
0.427008 0.0375067 0.000350958
0.421973 0.0239567 9.15541e-05
0.304707 0.00241093 0
0.305364 0.00198367 0
0.322316 0.00267033 0
0.330007 0.00288396 0
0.330007 0.00288396 0
0.330007 0.00288396 0
0.330007 0.00288396 0
0.330007 0.00288396 0
0.330007 0.00288396 0
0.330007 0.00288396 0
0.330007 0.00288396 0
0.330007 0.00288396 0
0.0108034 0.0908675 0.210697
0.0111696 0.0896162 0.209049
0.0114443 0.0883345 0.207172
0.0116884 0.0871901 0.205356
0.0118868 0.0860304 0.203403
0.0120851 0.0849012 0.201236
0.0122988 0.0838941 0.19913
0.0110018 0.0867933 0.188693
0.0180819 0.0923323 0.109651
0.020325 0.0818952 0.0741588
0.0175937 0.0929274 0.0556497
0.0213474 0.103044 0.0432746
0.0411078 0.0948653 0.0307469
0.100633 0.0691234 0.0175021
0.185245 0.0507515 0.00834669
0.255406 0.0476234 0.00462348
0.3178 0.0485542 0.00274662
0.37145 0.0533913 0.00183108
0.415442 0.0603037 0.00123598
0.447532 0.0648203 0.00077821
0.467857 0.0625315 0.000396735
0.463722 0.0450446 0.000122072
0.321965 0.00317388 0
0.317159 0.00247196 0
0.330007 0.00288396 0
0.330007 0.00288396 0
0.330007 0.00288396 0
0.330007 0.00288396 0
0.330007 0.00288396 0
0.330007 0.00288396 0
0.330007 0.00288396 0
0.330007 0.00288396 0
0.330007 0.00288396 0
0.00679026 0.103349 0.242267
0.00724804 0.102403 0.237675
0.00775158 0.101442 0.2327
0.00819409 0.100328 0.229526
0.00863661 0.0992447 0.225956
0.00900282 0.098024 0.223026
0.00939956 0.0966812 0.219745
0.00976577 0.0952468 0.217365
0.00900282 0.0961166 0.210315
0.0103456 0.135546 0.137316
0.0336156 0.11252 0.0727855
0.0340429 0.12546 0.0524147
0.0445258 0.137728 0.0415045
0.0770123 0.128878 0.0300755
0.15108 0.10251 0.0167849
0.239536 0.0786908 0.00825513
0.311894 0.0745251 0.00497444
0.370809 0.0768444 0.00296025
0.420676 0.0832532 0.00195315
0.459144 0.0911421 0.00135805
0.487541 0.0962692 0.000869764
0.506218 0.0954299 0.00047303
0.504219 0.0770123 0.00015259
0.343709 0.00430304 0
0.330007 0.00288396 0
0.330007 0.00288396 0
0.330007 0.00288396 0
0.330007 0.00288396 0
0.330007 0.00288396 0
0.330007 0.00288396 0
0.330007 0.00288396 0
0.330007 0.00288396 0
0.330007 0.00288396 0
0.0059205 0.137346 0.285725
0.00579843 0.133227 0.281376
0.00567636 0.128969 0.276753
0.0055848 0.124956 0.272496
0.00549325 0.12079 0.268162
0.00544747 0.116655 0.264012
0.00549325 0.112657 0.260166
0.00560006 0.109102 0.25626
0.00588998 0.106691 0.252247
0.00601205 0.105653 0.24625
0.00375372 0.161822 0.168399
0.0519265 0.150271 0.0807813
0.0621653 0.16437 0.0571145
0.0904402 0.178714 0.0436866
0.129213 0.175677 0.0314641
0.208133 0.147051 0.0146029
0.301885 0.12134 0.0053254
0.371038 0.115114 0.00283818
0.426871 0.114641 0.00199893
0.468727 0.118257 0.00181582
0.499962 0.123995 0.0015259
0.525429 0.130236 0.0010071
0.544335 0.132036 0.000610361
0.542168 0.118853 0.000259403
0.376181 0.00732433 0
0.330007 0.00288396 0
0.330007 0.00288396 0
0.330007 0.00288396 0
0.330007 0.00288396 0
0.330007 0.00288396 0
0.330007 0.00288396 0
0.330007 0.00288396 0
0.330007 0.00288396 0
0.00769055 0.17818 0.335103
0.00753796 0.174563 0.330465
0.00738537 0.170809 0.325536
0.00723278 0.166995 0.32108
0.00706493 0.163287 0.316609
0.00691234 0.159274 0.312093
0.00672923 0.155322 0.3075
0.00656138 0.151354 0.302632
0.00636301 0.14725 0.29778
0.0061799 0.143297 0.293034
0.00598154 0.139116 0.287953
0.00222782 0.186481 0.190845
0.0677195 0.205859 0.123247
0.111055 0.211093 0.0880446
0.152773 0.226139 0.0695354
0.195117 0.231876 0.0543679
0.274266 0.203433 0.025742
0.363241 0.175113 0.00823987
0.431907 0.16495 0.00354009
0.482383 0.1617 0.00213626
0.51873 0.16321 0.00169375
0.543282 0.165423 0.00148013
0.562142 0.166735 0.00131228
0.581064 0.172824 0.000915541
0.582528 0.168978 0.000488289
0.398566 0.011429 0
0.330007 0.00288396 0
0.330007 0.00288396 0
0.330007 0.00288396 0
0.330007 0.00288396 0
0.330007 0.00288396 0
0.330007 0.00288396 0
0.330007 0.00288396 0
0.00924697 0.214588 0.380072
0.00909438 0.211322 0.375937
0.00894179 0.208072 0.371664
0.00880446 0.204654 0.367529
0.00866712 0.201083 0.363363
0.00851453 0.197635 0.359152
0.0083772 0.194202 0.355093
0.00822461 0.19057 0.350729
0.00805676 0.187137 0.346487
0.00788891 0.183703 0.342016
0.00775158 0.179934 0.337484
0.00759899 0.176181 0.332601
0.00170901 0.215335 0.229328
0.077348 0.260166 0.185473
0.156786 0.260487 0.133562
0.21001 0.276692 0.11545
0.262318 0.287007 0.0965286
0.335119 0.262623 0.052018
0.424857 0.233661 0.0187991
0.48806 0.222507 0.00798047
0.53286 0.219272 0.00451667
0.566476 0.219806 0.00302129
0.591455 0.218418 0.00215152
0.607614 0.215473 0.00169375
0.619883 0.219654 0.00135805
0.613031 0.212757 0.0009308
0.423697 0.019089 0
0.330007 0.00288396 0
0.330007 0.00288396 0
0.330007 0.00288396 0
0.330007 0.00288396 0
0.330007 0.00288396 0
0.330007 0.00288396 0
0.0110475 0.243595 0.420676
0.0107424 0.241108 0.416892
0.0105745 0.238483 0.413291
0.0103914 0.235859 0.4094
0.0102235 0.233127 0.405493
0.0100557 0.230533 0.401724
0.00988785 0.227878 0.398062
0.00973526 0.225193 0.394171
0.00958267 0.222675 0.390433
0.00944533 0.219593 0.386358
0.00932326 0.216297 0.382193
0.00917067 0.213031 0.378027
0.00901808 0.209659 0.3738
0.0016022 0.248432 0.269245
0.0932021 0.308095 0.243
0.199954 0.307179 0.182757
0.267643 0.324331 0.163836
0.324605 0.335775 0.146075
0.39324 0.314794 0.0960555
0.477211 0.288518 0.0404974
0.532387 0.277043 0.0198367
0.575814 0.27744 0.0132906
0.610224 0.282811 0.00959792
0.637263 0.285115 0.00622568
0.654643 0.28014 0.00320439
0.654261 0.276341 0.00218204
0.628168 0.234104 0.00131228
0.454063 0.0338903 0
0.330007 0.00288396 0
0.330007 0.00288396 0
0.330007 0.00288396 0
0.330007 0.00288396 0
0.330007 0.00288396 0
0.0130312 0.2692 0.457084
0.0128786 0.266804 0.453864
0.0127108 0.264363 0.450538
0.0125429 0.262028 0.447181
0.0123903 0.259403 0.443778
0.0122072 0.256886 0.440238
0.0120241 0.254536 0.436957
0.0118257 0.252171 0.433478
0.0116274 0.249805 0.429847
0.0114137 0.24741 0.426413
0.0111849 0.244984 0.422614
0.0109255 0.242603 0.418952
0.0106661 0.239857 0.415244
0.0104982 0.237263 0.411414
0.00151064 0.279866 0.306859
0.116625 0.34815 0.296254
0.24686 0.349752 0.23386
0.325383 0.367575 0.215183
0.382101 0.379538 0.199542
0.447745 0.364279 0.149172
0.52314 0.338231 0.0749981
0.574456 0.32874 0.0413977
0.614221 0.331823 0.030869
0.648066 0.34165 0.02533
0.677195 0.3514 0.0189975
0.687205 0.364309 0.0140993
0.671656 0.312917 0.0037232
0.641901 0.255467 0.00175479
0.484108 0.0555734 3.0518e-05
0.330007 0.00288396 0
0.330007 0.00288396 0
0.330007 0.00288396 0
0.330007 0.00288396 0
0.0148013 0.291844 0.489189
0.0146639 0.289723 0.486259
0.0144961 0.287709 0.483299
0.0143282 0.285832 0.48043
0.0141451 0.283848 0.477455
0.013962 0.281666 0.474388
0.0137942 0.279606 0.471305
0.013611 0.277623 0.468269
0.0133974 0.27538 0.465126
0.0132296 0.273045 0.461891
0.0131075 0.270558 0.458717
0.0129702 0.268254 0.455604
0.0128176 0.265797 0.452338
0.0126345 0.263416 0.449241
0.0124666 0.260868 0.445731
0.00230411 0.308644 0.344137
0.144381 0.38407 0.346395
0.295583 0.390188 0.287526
0.378149 0.405631 0.266178
0.436927 0.419074 0.252781
0.496651 0.40766 0.205859
0.564492 0.384726 0.125414
0.612558 0.376822 0.0797589
0.650294 0.384009 0.064744
0.685405 0.398367 0.0553597
0.703319 0.418647 0.0497139
0.703059 0.415457 0.036347
0.687358 0.356832 0.00956741
0.65481 0.276402 0.0021973
0.511345 0.0845197 6.10361e-05
0.330007 0.00288396 0
0.330007 0.00288396 0
0.330007 0.00288396 0
0.016144 0.311391 0.516564
0.0160372 0.309728 0.514244
0.0159152 0.308034 0.511803
0.0158083 0.306416 0.509529
0.0156558 0.30457 0.507012
0.0155337 0.302785 0.504585
0.0154269 0.300862 0.501976
0.0153048 0.298878 0.499382
0.0151675 0.297002 0.496605
0.0150301 0.295079 0.493812
0.0148928 0.293019 0.490974
0.0147402 0.290959 0.488136
0.0146029 0.288869 0.48513
0.014435 0.286992 0.482231
0.0142519 0.284916 0.479149
0.0140688 0.28278 0.476005
0.00430304 0.339574 0.381079
0.181079 0.418311 0.392691
0.348638 0.427573 0.337484
0.427131 0.441337 0.313481
0.482429 0.454261 0.302129
0.538857 0.446281 0.257145
0.602914 0.427039 0.176394
0.646754 0.423133 0.131563
0.684703 0.43418 0.11693
0.713008 0.455726 0.11075
0.720241 0.476738 0.10901
0.714061 0.452308 0.0707866
0.700954 0.400336 0.0252384
0.666987 0.297078 0.00285344
0.537194 0.112917 0.000137331
0.330007 0.00288396 0
0.330007 0.00288396 0
0.0164187 0.327962 0.53901
0.0164492 0.326604 0.537072
0.0164492 0.325017 0.535119
0.0164797 0.32369 0.53312
0.0164645 0.322255 0.531106
0.0164492 0.320806 0.529183
0.0164034 0.319158 0.526986
0.0163729 0.317388 0.524804
0.0163424 0.315724 0.522576
0.0162661 0.313985 0.520333
0.0162051 0.312337 0.518059
0.0160983 0.310704 0.515709
0.0160067 0.309133 0.513405
0.0158846 0.307485 0.510903
0.0157473 0.305806 0.508629
0.01561 0.303868 0.506188
0.0154726 0.301854 0.503609
0.00900282 0.371038 0.415991
0.217288 0.449226 0.432425
0.3935 0.458656 0.381949
0.470558 0.472938 0.357885
0.527733 0.487434 0.350195
0.576547 0.483925 0.312734
0.637415 0.465492 0.226993
0.677852 0.464515 0.18265
0.714534 0.481559 0.172045
0.730526 0.51667 0.185534
0.727504 0.504021 0.159411
0.722698 0.482918 0.118318
0.712139 0.437964 0.0525978
0.678462 0.31693 0.00375372
0.557458 0.138796 0.000244144
0.330007 0.00288396 0
0.0146639 0.340078 0.560433
0.0150301 0.339239 0.558373
0.0153353 0.338369 0.556252
0.01561 0.33727 0.554253
0.0158236 0.336172 0.552285
0.0159915 0.335058 0.550332
0.0161593 0.333928 0.548348
0.0162661 0.332662 0.546258
0.0163424 0.331548 0.544137
0.0163882 0.330144 0.542123
0.0164034 0.328664 0.5402
0.0164187 0.327291 0.538262
0.0164492 0.326085 0.536263
0.0164645 0.324559 0.534386
0.0164797 0.32311 0.532326
0.0164645 0.321752 0.530327
0.0164187 0.320333 0.528374
0.0163729 0.318486 0.526146
0.0197604 0.400504 0.4477
0.262943 0.477729 0.472847
0.436851 0.48484 0.425925
0.515969 0.499275 0.401205
0.56759 0.514946 0.395285
0.609461 0.516609 0.364874
0.664607 0.501289 0.277165
0.709224 0.504479 0.23386
0.734081 0.531929 0.239002
0.736004 0.539498 0.235691
0.733776 0.528084 0.209384
0.729564 0.508965 0.169207
0.721157 0.470542 0.0967422
0.688975 0.33579 0.00503548
0.57702 0.163531 0.000381476
0.00970474 0.348516 0.579095
0.00956741 0.347646 0.578637
0.00985733 0.346792 0.577508
0.0106508 0.346075 0.575631
0.0114443 0.34548 0.573632
0.0121004 0.344686 0.571496
0.012665 0.343862 0.569512
0.013138 0.342947 0.567559
0.013611 0.342077 0.565637
0.0140688 0.341329 0.563592
0.0144808 0.340566 0.561563
0.0148165 0.339818 0.559609
0.0151522 0.338994 0.557534
0.0154421 0.337881 0.555489
0.0157015 0.336828 0.553536
0.0158999 0.335836 0.55169
0.0160372 0.334691 0.549676
0.0161898 0.33341 0.547433
0.0162966 0.332128 0.545281
0.0417182 0.421515 0.481605
0.312627 0.493843 0.508583
0.479271 0.502937 0.466712
0.556329 0.517845 0.442832
0.603891 0.535546 0.438041
0.638407 0.542657 0.413275
0.693034 0.531106 0.323629
0.731563 0.542565 0.289525
0.741131 0.563729 0.296544
0.740139 0.55787 0.280751
0.738384 0.548333 0.257847
0.735302 0.532021 0.219135
0.728206 0.497704 0.145953
0.701045 0.36582 0.00891127
0.011429 0.358312 0.582376
0.0112764 0.35729 0.581964
0.0111086 0.356435 0.581704
0.0109407 0.355459 0.581323
0.0106966 0.354498 0.58114
0.010544 0.353536 0.580743
0.0103914 0.352605 0.580499
0.0102388 0.35169 0.580224
0.0100862 0.350774 0.579934
0.00993362 0.349859 0.579614
0.00978103 0.348974 0.579278
0.0096437 0.348119 0.578805
0.00952163 0.347295 0.57847
0.0101472 0.346441 0.576944
0.0110018 0.345739 0.574914
0.0116884 0.34522 0.572961
0.0122988 0.344396 0.570779
0.0128481 0.343465 0.568872
0.0133059 0.342565 0.566827
0.0137942 0.341695 0.564691
0.08159 0.440986 0.519051
0.366018 0.507057 0.548684
0.521233 0.51574 0.509499
0.592477 0.531151 0.484947
0.64097 0.554284 0.479957
0.663752 0.566873 0.463493
0.720729 0.556405 0.370398
0.74548 0.5785 0.356222
0.744717 0.575814 0.343801
0.743511 0.571328 0.326741
0.741665 0.564233 0.302251
0.739498 0.550958 0.266667
0.734264 0.521477 0.196735
0.0131991 0.368841 0.585534
0.0130007 0.367697 0.585382
0.0128328 0.366705 0.584924
0.0126802 0.365637 0.584741
0.0125124 0.364691 0.584344
0.0123293 0.363638 0.58407
0.0121614 0.362753 0.583749
0.0119936 0.36173 0.583383
0.011841 0.360723 0.583154
