luts/爽籟.cube
TITLE "Generated by Resolve"
LUT_3D_SIZE 33
0 0 1.5259e-05
0 0 1.5259e-05
0 0 1.5259e-05
0 1.5259e-05 0
4.57771e-05 1.5259e-05 0
0.000366217 1.5259e-05 0
0.0021973 3.0518e-05 0
0.00849927 4.57771e-05 0
0.0240635 6.10361e-05 0
0.0479286 9.15541e-05 0
0.0782177 0.000122072 0
0.112078 0.000167849 0
0.142077 0.000213626 0
0.169039 0.000274662 0
0.192248 0.000381476 0
0.213199 0.00047303 0
0.234165 0.000610361 0
0.255711 0.000747692 0
0.255711 0.000747692 0
0.255711 0.000747692 0
0.255711 0.000747692 0
0.255711 0.000747692 0
0.255711 0.000747692 0
0.255711 0.000747692 0
0.255711 0.000747692 0
0.255711 0.000747692 0
0.255711 0.000747692 0
0.255711 0.000747692 0
0.255711 0.000747692 0
0.255711 0.000747692 0
0.255711 0.000747692 0
0.255711 0.000747692 0
0.255711 0.000747692 0
0 0 1.5259e-05
0 0 1.5259e-05
0 0 1.5259e-05
0 1.5259e-05 1.5259e-05
1.5259e-05 1.5259e-05 0
0.000228885 1.5259e-05 0
0.00143435 3.0518e-05 0
0.0061799 4.57771e-05 0
0.0191806 6.10361e-05 0
0.0408484 7.62951e-05 0
0.0695811 0.000106813 0
0.103441 0.00015259 0
0.134859 0.000198367 0
0.162325 0.000259403 0
0.186221 0.000350958 0
0.208118 0.000442512 0
0.228626 0.000579843 0
0.250904 0.000747692 0
0.255711 0.000747692 0
0.255711 0.000747692 0
0.255711 0.000747692 0
0.255711 0.000747692 0
0.255711 0.000747692 0
0.255711 0.000747692 0
0.255711 0.000747692 0
0.255711 0.000747692 0
0.255711 0.000747692 0
0.255711 0.000747692 0
0.255711 0.000747692 0
0.255711 0.000747692 0
0.255711 0.000747692 0
0.255711 0.000747692 0
0.255711 0.000747692 0
0 0 1.5259e-05
0 0 1.5259e-05
0 0 1.5259e-05
0 0 1.5259e-05
0 1.5259e-05 0
9.15541e-05 1.5259e-05 0
0.000732433 1.5259e-05 0
0.00408942 3.0518e-05 0
0.014374 6.10361e-05 0
0.0339361 7.62951e-05 0
0.0613565 0.000106813 0
0.0946975 0.000137331 0
0.127169 0.000183108 0
0.155489 0.000244144 0
0.180117 0.000335698 0
0.203006 0.000427253 0
0.223178 0.000549325 0
0.24448 0.000701915 0
0.255711 0.000747692 0
0.255711 0.000747692 0
0.255711 0.000747692 0
0.255711 0.000747692 0
0.255711 0.000747692 0
0.255711 0.000747692 0
0.255711 0.000747692 0
0.255711 0.000747692 0
0.255711 0.000747692 0
0.255711 0.000747692 0
0.255711 0.000747692 0
0.255711 0.000747692 0
0.255711 0.000747692 0
0.255711 0.000747692 0
0.255711 0.000747692 0
1.5259e-05 0 3.0518e-05
1.5259e-05 0 3.0518e-05
0 0 1.5259e-05
0 0 1.5259e-05
0 1.5259e-05 0
3.0518e-05 1.5259e-05 0
0.000381476 1.5259e-05 0
0.00259403 3.0518e-05 0
0.0102388 4.57771e-05 0
0.0277104 6.10361e-05 0
0.0535286 9.15541e-05 0
0.085481 0.000122072 0
0.119112 0.000183108 0
0.148089 0.000228885 0
0.174212 0.00030518 0
0.197208 0.000396735 0
0.217777 0.000503548 0
0.239002 0.000640879 0
0.255711 0.000747692 0
0.255711 0.000747692 0
0.255711 0.000747692 0
0.255711 0.000747692 0
0.255711 0.000747692 0
0.255711 0.000747692 0
0.255711 0.000747692 0
0.255711 0.000747692 0
0.255711 0.000747692 0
0.255711 0.000747692 0
0.255711 0.000747692 0
0.255711 0.000747692 0
0.255711 0.000747692 0
0.255711 0.000747692 0
0.255711 0.000747692 0
1.5259e-05 0 7.62951e-05
1.5259e-05 0 7.62951e-05
1.5259e-05 0 6.10361e-05
1.5259e-05 0 4.57771e-05
0 0 3.0518e-05
1.5259e-05 0 1.5259e-05
0.000198367 0 0
0.0015259 1.5259e-05 0
0.00721752 4.57771e-05 0
0.0221561 6.10361e-05 0
0.0458076 9.15541e-05 0
0.0761273 0.000122072 0
0.110369 0.000167849 0
0.14081 0.000213626 0
0.167895 0.000274662 0
0.191302 0.000381476 0
0.212467 0.00047303 0
0.233265 0.000595102 0
0.255711 0.000747692 0
0.255711 0.000747692 0
0.255711 0.000747692 0
0.255711 0.000747692 0
0.255711 0.000747692 0
0.255711 0.000747692 0
0.255711 0.000747692 0
0.255711 0.000747692 0
0.255711 0.000747692 0
0.255711 0.000747692 0
0.255711 0.000747692 0
0.255711 0.000747692 0
0.255711 0.000747692 0
0.255711 0.000747692 0
0.255711 0.000747692 0
1.5259e-05 0 0.000137331
1.5259e-05 0 0.000122072
1.5259e-05 0 0.000122072
1.5259e-05 0 0.000106813
0 0 7.62951e-05
0 0 4.57771e-05
7.62951e-05 0 1.5259e-05
0.000701915 0 1.5259e-05
0.00410468 1.5259e-05 0
0.0153658 3.0518e-05 0
0.037644 7.62951e-05 0
0.0674296 0.000106813 0
0.101488 0.00015259 0
0.133501 0.000198367 0
0.161166 0.000259403 0
0.185229 0.000350958 0
0.207446 0.000442512 0
0.227893 0.000579843 0
0.249912 0.000732433 0
0.255711 0.000747692 0
0.255711 0.000747692 0
0.255711 0.000747692 0
0.255711 0.000747692 0
0.255711 0.000747692 0
0.255711 0.000747692 0
0.255711 0.000747692 0
0.255711 0.000747692 0
0.255711 0.000747692 0
0.255711 0.000747692 0
0.255711 0.000747692 0
0.255711 0.000747692 0
0.255711 0.000747692 0
0.255711 0.000747692 0
3.0518e-05 0 0.000320439
3.0518e-05 0 0.000289921
3.0518e-05 0 0.000259403
1.5259e-05 0 0.000213626
1.5259e-05 0 0.00015259
0 0 0.000106813
3.0518e-05 0 6.10361e-05
0.000366217 0 4.57771e-05
0.00236515 0 1.5259e-05
0.0103609 0 1.5259e-05
0.0283055 3.0518e-05 0
0.0562295 7.62951e-05 0
0.0928054 0.000137331 0
0.125612 0.000183108 0
0.154131 0.000244144 0
0.179141 0.000320439 0
0.201999 0.000411994 0
0.222324 0.000534066 0
0.243717 0.000686656 0
0.255711 0.000747692 0
0.255711 0.000747692 0
0.255711 0.000747692 0
0.255711 0.000747692 0
0.255711 0.000747692 0
0.255711 0.000747692 0
0.255711 0.000747692 0
0.255711 0.000747692 0
0.255711 0.000747692 0
0.255711 0.000747692 0
0.255711 0.000747692 0
0.255711 0.000747692 0
0.255711 0.000747692 0
0.255711 0.000747692 0
0.000122072 0.000106813 0.000900282
0.000122072 9.15541e-05 0.000823987
0.000106813 7.62951e-05 0.000747692
9.15541e-05 4.57771e-05 0.000640879
7.62951e-05 3.0518e-05 0.000534066
6.10361e-05 0 0.000244144
1.5259e-05 0 0.000228885
0.000213626 0 0.000137331
0.00144961 0 9.15541e-05
0.00720226 0 4.57771e-05
0.0230259 1.5259e-05 1.5259e-05
0.047303 3.0518e-05 0
0.0806134 9.15541e-05 0
0.117464 0.000167849 0
0.146777 0.000228885 0
0.173159 0.000289921 0
0.196307 0.000396735 0
0.216983 0.000503548 0
0.238239 0.000640879 0
0.255711 0.000747692 0
0.255711 0.000747692 0
0.255711 0.000747692 0
0.255711 0.000747692 0
0.255711 0.000747692 0
0.255711 0.000747692 0
0.255711 0.000747692 0
0.255711 0.000747692 0
0.255711 0.000747692 0
0.255711 0.000747692 0
0.255711 0.000747692 0
0.255711 0.000747692 0
0.255711 0.000747692 0
0.255711 0.000747692 0
0.000381476 0.000747692 0.00241093
0.000350958 0.000640879 0.00221256
0.000320439 0.000549325 0.00201419
0.000274662 0.000442512 0.00180056
0.000228885 0.000335698 0.00155642
0.000167849 0.000289921 0.000869764
0.000137331 0.000106813 0.000503548
9.15541e-05 0.00015259 0.000518807
0.000885023 1.5259e-05 0.000335698
0.00531014 0 0.000213626
0.0205234 1.5259e-05 0.000137331
0.0454414 3.0518e-05 6.10361e-05
0.075639 4.57771e-05 1.5259e-05
0.108614 0.000106813 0
0.139483 0.000213626 0
0.166796 0.000274662 0
0.190265 0.000366217 0
0.211734 0.000457771 0
0.232471 0.000595102 0
0.255711 0.000747692 0
0.255711 0.000747692 0
0.255711 0.000747692 0
0.255711 0.000747692 0
0.255711 0.000747692 0
0.255711 0.000747692 0
0.255711 0.000747692 0
0.255711 0.000747692 0
0.255711 0.000747692 0
0.255711 0.000747692 0
0.255711 0.000747692 0
0.255711 0.000747692 0
0.255711 0.000747692 0
0.255711 0.000747692 0
0.0010071 0.00283818 0.00587472
0.0009308 0.00256352 0.00544747
0.000869764 0.00230411 0.00505074
0.000793469 0.00205997 0.00466926
0.000701915 0.00172427 0.0041352
0.000579843 0.00157168 0.0034638
0.000579843 0.000808728 0.00129702
0.000320439 0.00077821 0.00106813
0.000381476 0.00112917 0.00105287
0.00341802 0.000228885 0.000656138
0.0176852 0.000137331 0.000411994
0.0472114 0.00015259 0.000259403
0.0841688 0.000183108 0.000137331
0.120394 0.000167849 3.0518e-05
0.137652 0.000137331 0
0.159899 0.000259403 0
0.184115 0.000350958 0
0.206622 0.000442512 0
0.226963 0.000564584 0
0.24889 0.000732433 0
0.255711 0.000747692 0
0.255711 0.000747692 0
0.255711 0.000747692 0
0.255711 0.000747692 0
0.255711 0.000747692 0
0.255711 0.000747692 0
0.255711 0.000747692 0
0.255711 0.000747692 0
0.255711 0.000747692 0
0.255711 0.000747692 0
0.255711 0.000747692 0
0.255711 0.000747692 0
0.255711 0.000747692 0
0.00215152 0.00799573 0.0131533
0.00201419 0.00732433 0.0122988
0.00189212 0.00669871 0.0114748
0.00175479 0.00613413 0.010605
0.00161746 0.00546273 0.0096437
0.00148013 0.00486763 0.00881971
0.00106813 0.00520333 0.00508125
0.00143435 0.00262455 0.00230411
0.00077821 0.00402838 0.00216678
0.00169375 0.00477607 0.00183108
0.0125734 0.00178531 0.00108339
0.0459144 0.00109865 0.00062562
0.0937209 0.0010071 0.000396735
0.138689 0.000900282 0.000213626
0.171191 0.00062562 7.62951e-05
0.174655 0.000244144 0
0.178027 0.000320439 0
0.200992 0.000411994 0
0.221393 0.000534066 0
0.242741 0.000686656 0
0.255711 0.000747692 0
0.255711 0.000747692 0
0.255711 0.000747692 0
0.255711 0.000747692 0
0.255711 0.000747692 0
0.255711 0.000747692 0
0.255711 0.000747692 0
0.255711 0.000747692 0
0.255711 0.000747692 0
0.255711 0.000747692 0
0.255711 0.000747692 0
0.255711 0.000747692 0
0.255711 0.000747692 0
0.00395209 0.0180819 0.0251621
0.00375372 0.0169833 0.0238651
0.00357061 0.0158694 0.0225834
0.0033875 0.014847 0.0213474
0.00318914 0.0136416 0.019913
0.00299077 0.0125429 0.0185702
0.00280766 0.0115053 0.0173495
0.00234989 0.0126497 0.00790417
0.00247196 0.00843824 0.00418097
0.00189212 0.0149081 0.00381476
0.00578317 0.0167697 0.00285344
0.0358434 0.00773632 0.00157168
0.0973983 0.0052491 0.000854505
0.153506 0.00451667 0.000534066
0.200824 0.00410468 0.00030518
0.230488 0.00274662 0.000122072
0.22298 0.000808728 1.5259e-05
0.195102 0.000396735 0
0.215976 0.000488289 0
0.237247 0.00062562 0
0.255711 0.000747692 0
0.255711 0.000747692 0
0.255711 0.000747692 0
0.255711 0.000747692 0
0.255711 0.000747692 0
0.255711 0.000747692 0
0.255711 0.000747692 0
0.255711 0.000747692 0
0.255711 0.000747692 0
0.255711 0.000747692 0
0.255711 0.000747692 0
0.255711 0.000747692 0
0.255711 0.000747692 0
0.00646983 0.0325017 0.0415808
0.00619516 0.0310521 0.0399176
0.00595102 0.029633 0.0382696
0.00569161 0.0282139 0.0366064
0.00543221 0.0266575 0.0348516
0.00514229 0.0250706 0.0331121
0.00488289 0.0235904 0.0314641
0.00436408 0.02327 0.0281224
0.00488289 0.0241703 0.0123903
0.00410468 0.0229648 0.00738537
0.00494392 0.0370794 0.00622568
0.0180209 0.0401617 0.00422675
0.0818647 0.0242618 0.002121
0.162448 0.0181125 0.00114443
0.22153 0.0157015 0.000686656
0.267155 0.0141299 0.000396735
0.294087 0.0101472 0.000183108
0.278721 0.00309758 3.0518e-05
0.210712 0.000457771 0
0.231418 0.000595102 0
0.25481 0.000747692 0
0.255711 0.000747692 0
0.255711 0.000747692 0
0.255711 0.000747692 0
0.255711 0.000747692 0
0.255711 0.000747692 0
0.255711 0.000747692 0
0.255711 0.000747692 0
0.255711 0.000747692 0
0.255711 0.000747692 0
0.255711 0.000747692 0
0.255711 0.000747692 0
0.255711 0.000747692 0
0.0078584 0.0472114 0.0594034
0.00816358 0.0461585 0.0584726
0.00849927 0.0451514 0.057557
0.00881971 0.0442817 0.0565194
0.00852979 0.0426184 0.0544137
0.00816358 0.0408331 0.0521401
0.00782788 0.0391546 0.0500343
0.00749218 0.0376287 0.0480049
0.00703441 0.0366064 0.0452277
0.00999466 0.0368963 0.017319
0.00825513 0.0463874 0.0118715
0.0127413 0.0733806 0.00958267
0.044892 0.0759594 0.00593576
0.147921 0.0517433 0.00273136
0.230182 0.0432593 0.00146487
0.289708 0.0380102 0.000839246
0.333593 0.0348363 0.000488289
0.356664 0.0277867 0.000228885
0.339971 0.0114748 4.57771e-05
0.225803 0.000564584 0
0.247532 0.000717174 0
0.255711 0.000747692 0
0.255711 0.000747692 0
0.255711 0.000747692 0
0.255711 0.000747692 0
0.255711 0.000747692 0
0.255711 0.000747692 0
0.255711 0.000747692 0
0.255711 0.000747692 0
0.255711 0.000747692 0
0.255711 0.000747692 0
0.255711 0.000747692 0
0.255711 0.000747692 0
0.0037995 0.0628519 0.0723278
0.0043183 0.0607004 0.0694591
0.00486763 0.0585794 0.0670024
0.00544747 0.0566567 0.0654459
0.00588998 0.0552682 0.0641947
0.00624094 0.0537728 0.0630655
0.00654612 0.0523537 0.0623941
0.00686656 0.051133 0.0617075
0.00715648 0.049897 0.0610819
0.00747692 0.0487526 0.0604562
0.0163119 0.0565957 0.0208286
0.0175784 0.0787366 0.0155032
0.0296178 0.119631 0.0132753
0.0958572 0.118349 0.00805676
0.21268 0.0946517 0.00361639
0.298924 0.0833906 0.00187686
0.356466 0.0741741 0.00105287
0.39559 0.0675975 0.000610361
0.414939 0.0565957 0.000289921
0.400854 0.0315251 6.10361e-05
0.241535 0.000671397 0
0.255711 0.000747692 0
0.255711 0.000747692 0
0.255711 0.000747692 0
0.255711 0.000747692 0
0.255711 0.000747692 0
0.255711 0.000747692 0
0.255711 0.000747692 0
0.255711 0.000747692 0
0.255711 0.000747692 0
0.255711 0.000747692 0
0.255711 0.000747692 0
0.255711 0.000747692 0
0.00268559 0.121324 0.111696
0.00260929 0.116213 0.106279
0.00254826 0.110552 0.101671
0.00251774 0.104112 0.0979477
0.002533 0.0972 0.094377
0.00256352 0.0902724 0.0910201
0.00260929 0.0834821 0.087602
0.00268559 0.0767834 0.0840314
0.00282292 0.0708171 0.0800641
0.00315862 0.0669108 0.0768902
0.00361639 0.0638132 0.0736095
0.00875868 0.109621 0.0283665
0.0357366 0.116503 0.0103456
0.0721904 0.164508 0.00999466
0.161334 0.172488 0.00694286
0.287541 0.148028 0.00271611
0.37293 0.133425 0.00148013
0.423255 0.121202 0.00109865
0.453285 0.111955 0.000793469
0.469276 0.0987106 0.000381476
0.45623 0.066331 7.62951e-05
0.255711 0.000747692 0
0.255711 0.000747692 0
0.255711 0.000747692 0
0.255711 0.000747692 0
0.255711 0.000747692 0
0.255711 0.000747692 0
0.255711 0.000747692 0
0.255711 0.000747692 0
0.255711 0.000747692 0
0.255711 0.000747692 0
0.255711 0.000747692 0
0.255711 0.000747692 0
0.00325017 0.174273 0.170291
0.00325017 0.169512 0.165103
0.00323491 0.164675 0.160052
0.00321965 0.159884 0.154726
0.00317388 0.154391 0.148821
0.00311284 0.149355 0.143069
0.00303655 0.144167 0.137087
0.00296025 0.139055 0.131243
0.0028687 0.134035 0.12546
0.00280766 0.129 0.119844
0.00273136 0.12372 0.114061
0.00263981 0.118166 0.108324
0.00167849 0.144808 0.039826
0.0686351 0.164202 0.0145876
0.139544 0.212329 0.0155947
0.234165 0.238651 0.0130312
0.367849 0.212604 0.00337224
0.450217 0.191501 0.00125124
0.490455 0.174533 0.000869764
0.512551 0.161593 0.000747692
0.522271 0.146822 0.000534066
0.508904 0.123461 0.000167849
0.255711 0.000747692 0
0.255711 0.000747692 0
0.255711 0.000747692 0
0.255711 0.000747692 0
0.255711 0.000747692 0
0.255711 0.000747692 0
0.255711 0.000747692 0
0.255711 0.000747692 0
0.255711 0.000747692 0
0.255711 0.000747692 0
0.255711 0.000747692 0
0.00311284 0.222675 0.223819
0.00306706 0.218921 0.219394
0.00300603 0.215106 0.214786
0.00296025 0.211063 0.210254
0.00303655 0.205798 0.204974
0.00309758 0.200687 0.199527
0.00314336 0.195819 0.193957
0.00318914 0.191028 0.18854
0.00321965 0.186374 0.183124
0.00323491 0.181399 0.177905
0.00325017 0.176455 0.172534
0.00325017 0.171481 0.167208
0.00325017 0.166552 0.161959
0.0012665 0.187472 0.0710155
0.110536 0.218204 0.038117
0.207446 0.267887 0.0382239
0.308492 0.302022 0.0369421
0.441825 0.27985 0.0115969
0.514916 0.255543 0.00410468
0.551385 0.238453 0.00254826
0.571191 0.222156 0.00163272
0.574228 0.204395 0.000976577
0.540703 0.161151 0.000381476
0.255711 0.000747692 0
0.255711 0.000747692 0
0.255711 0.000747692 0
0.255711 0.000747692 0
0.255711 0.000747692 0
0.255711 0.000747692 0
0.255711 0.000747692 0
0.255711 0.000747692 0
0.255711 0.000747692 0
0.255711 0.000747692 0
0.00367742 0.262318 0.276036
0.00358587 0.258839 0.271122
0.00352483 0.255512 0.266163
0.0034638 0.252232 0.261234
0.00337224 0.248447 0.25568
0.00334173 0.244373 0.250446
0.00331121 0.240436 0.245289
0.00325017 0.236561 0.240208
0.00321965 0.232486 0.235431
0.00318914 0.228336 0.230579
0.00314336 0.224445 0.225834
0.00308232 0.220417 0.221149
0.00302129 0.21651 0.21651
0.00296025 0.212497 0.211643
0.00210575 0.235752 0.114519
0.147845 0.271626 0.0878157
0.277592 0.318624 0.0856336
0.382498 0.359228 0.0908522
0.503197 0.341756 0.038941
0.566506 0.316442 0.0169375
0.600549 0.300298 0.0117342
0.616037 0.287053 0.00776684
0.60621 0.266117 0.00363165
0.566781 0.1944 0.000747692
0.255711 0.000747692 0
0.255711 0.000747692 0
0.255711 0.000747692 0
0.255711 0.000747692 0
0.255711 0.000747692 0
0.255711 0.000747692 0
0.255711 0.000747692 0
0.255711 0.000747692 0
0.255711 0.000747692 0
0.00450141 0.294011 0.33312
0.00444038 0.291554 0.327565
0.00436408 0.288808 0.321889
0.00428778 0.286091 0.316457
0.00419623 0.282948 0.310292
0.00411994 0.279744 0.304524
0.00404364 0.276829 0.299123
0.00396735 0.273762 0.293721
0.00387579 0.270375 0.288334
0.0037995 0.267063 0.283223
0.00370794 0.263615 0.278111
0.00361639 0.260197 0.27306
0.00355535 0.256764 0.267994
0.00347906 0.253285 0.262821
0.00340276 0.249744 0.257511
0.00553903 0.273655 0.160479
0.196689 0.317388 0.14995
0.344793 0.362905 0.14789
0.449729 0.408621 0.160433
0.55787 0.397864 0.101289
0.612406 0.376593 0.057969
0.642802 0.361364 0.0442664
0.641749 0.354101 0.0413672
0.62739 0.313466 0.0142824
0.590341 0.22916 0.00146487
0.255711 0.000747692 0
0.255711 0.000747692 0
0.255711 0.000747692 0
0.255711 0.000747692 0
0.255711 0.000747692 0
0.255711 0.000747692 0
0.255711 0.000747692 0
0.255711 0.000747692 0
0.00588998 0.324758 0.370489
0.00575265 0.321981 0.367422
0.00561532 0.319432 0.364218
0.00547799 0.316899 0.361318
0.00527962 0.313542 0.358114
0.00511177 0.310353 0.354772
0.00497444 0.307103 0.351766
0.00483711 0.303807 0.34873
0.00471504 0.30074 0.345785
0.00459297 0.297536 0.341405
0.00453193 0.294942 0.33547
0.00445563 0.292393 0.329534
0.00437934 0.289754 0.323705
0.0043183 0.286915 0.318135
0.00422675 0.284092 0.312322
0.00415045 0.281056 0.306813
0.0146181 0.311162 0.20557
0.251301 0.357488 0.208057
0.399435 0.404059 0.20766
0.506325 0.452491 0.232822
0.602136 0.446983 0.176089
0.652094 0.430777 0.129625
0.668376 0.419974 0.116777
0.660792 0.402792 0.0933852
0.64715 0.363256 0.0436866
0.613672 0.264775 0.00280766
0.255711 0.000747692 0
0.255711 0.000747692 0
0.255711 0.000747692 0
0.255711 0.000747692 0
0.255711 0.000747692 0
0.255711 0.000747692 0
0.255711 0.000747692 0
0.00740063 0.347524 0.407965
0.00724804 0.346105 0.404639
0.0071107 0.343816 0.401465
0.00695811 0.341878 0.398032
0.00679026 0.339513 0.393881
0.00663767 0.337224 0.390082
0.00650034 0.334981 0.386313
0.00634775 0.332921 0.382574
0.00621042 0.3308 0.378668
0.00607309 0.328222 0.375006
0.00595102 0.325612 0.371618
0.00579843 0.32282 0.368399
0.0056611 0.320226 0.365133
0.00550851 0.317556 0.361975
0.00534066 0.314702 0.359213
0.00517281 0.311696 0.356161
0.00503548 0.308629 0.353079
0.0340276 0.34464 0.246143
0.308614 0.388785 0.262699
0.462547 0.435035 0.267094
0.558511 0.487816 0.302983
0.637476 0.49163 0.253727
0.683696 0.479591 0.210727
0.684169 0.470893 0.198917
0.677699 0.450217 0.161898
0.665949 0.411536 0.0984665
0.635386 0.305669 0.00582895
0.255711 0.000747692 0
0.255711 0.000747692 0
0.255711 0.000747692 0
0.255711 0.000747692 0
0.255711 0.000747692 0
0.255711 0.000747692 0
0.00952163 0.364141 0.437446
0.00927749 0.362509 0.435172
0.00906386 0.360952 0.43267
0.00885023 0.359335 0.43032
0.00860609 0.357427 0.427573
0.0083772 0.355734 0.424933
0.00816358 0.354055 0.421744
0.00798047 0.352483 0.418494
0.00779736 0.350912 0.415122
0.00762951 0.349416 0.412024
0.0074464 0.347936 0.408881
0.00729381 0.346487 0.405539
0.00714122 0.344442 0.402243
0.00700389 0.34229 0.39881
0.00683604 0.340307 0.395178
0.00671397 0.338186 0.391699
0.00656138 0.336004 0.388037
0.00643931 0.333928 0.384405
0.0758221 0.364065 0.287037
0.368261 0.408606 0.315114
0.522332 0.457755 0.327993
0.605661 0.517418 0.370062
0.676051 0.5299 0.334417
0.702312 0.528466 0.305531
0.69868 0.51635 0.280049
0.692973 0.496559 0.240146
0.682383 0.458793 0.169131
0.654261 0.353201 0.0171054
0.255711 0.000747692 0
0.255711 0.000747692 0
0.255711 0.000747692 0
0.255711 0.000747692 0
0.255711 0.000747692 0
0.0127718 0.382345 0.461738
0.0124056 0.380606 0.459831
0.0120394 0.378958 0.457725
0.0117189 0.377203 0.455558
0.0113527 0.375113 0.452934
0.0109865 0.373144 0.450401
0.0105745 0.371191 0.447974
0.0102998 0.369451 0.445533
0.0100557 0.367773 0.44303
0.00979629 0.36611 0.440436
0.00956741 0.364538 0.438071
0.00932326 0.36286 0.43563
0.00910964 0.361273 0.433127
0.00889601 0.359609 0.430777
0.00866712 0.357931 0.428244
0.0084535 0.35642 0.425849
0.00823987 0.354803 0.423316
0.00807202 0.353246 0.420035
0.00788891 0.351705 0.416846
0.136187 0.377615 0.325795
0.432059 0.418509 0.366918
0.575982 0.465232 0.381109
0.656931 0.532067 0.42945
0.709438 0.568704 0.424765
0.713878 0.564477 0.395148
0.711635 0.555138 0.366293
0.707103 0.538781 0.325933
0.697246 0.504891 0.248798
0.672328 0.402762 0.0527352
0.255711 0.000747692 0
0.255711 0.000747692 0
0.255711 0.000747692 0
0.255711 0.000747692 0
0.0180362 0.400732 0.482704
0.0174258 0.39913 0.481102
0.0168307 0.397604 0.479622
0.0162814 0.396109 0.478096
0.0156558 0.394156 0.475959
0.0150912 0.39205 0.473396
0.0146029 0.390112 0.471015
0.0141299 0.388266 0.468666
0.0136873 0.386374 0.466499
0.0132448 0.384573 0.464347
0.0128634 0.382727 0.462226
0.0124514 0.38088 0.460075
0.0120699 0.37908 0.457984
0.0117494 0.377401 0.455833
0.011429 0.375616 0.453605
0.0111238 0.37377 0.451331
0.0107271 0.372045 0.449027
0.0104219 0.370352 0.446738
0.0101778 0.368704 0.444282
0.00993362 0.367041 0.441718
0.162234 0.406729 0.354452
0.491508 0.460212 0.41413
0.644434 0.512505 0.441718
0.684001 0.580087 0.501839
0.716625 0.586099 0.481788
0.716213 0.583627 0.473899
0.715602 0.580011 0.462394
0.714672 0.57261 0.437293
0.710582 0.545342 0.338476
0.689616 0.450233 0.122713
0.255711 0.000747692 0
0.255711 0.000747692 0
0.255711 0.000747692 0
0.030518 0.418509 0.49395
0.0288243 0.416388 0.493462
0.0272221 0.414313 0.492851
0.0257267 0.412634 0.49189
0.0240482 0.410758 0.490547
0.0226596 0.408927 0.489296
0.0215 0.407248 0.488121
0.0205234 0.405646 0.486854
0.0196689 0.404028 0.485618
0.0188449 0.402564 0.484337
0.0181277 0.400977 0.482948
0.0174868 0.399313 0.481315
0.0168765 0.397726 0.479728
0.0163119 0.39617 0.47808
0.0157626 0.394614 0.476539
0.0152743 0.392782 0.474174
0.0148165 0.390906 0.471946
0.0143587 0.389166 0.469856
0.0139162 0.38735 0.467781
0.0135042 0.38558 0.465553
0.0130617 0.383688 0.463416
0.192233 0.440528 0.390753
0.566033 0.505501 0.468559
0.695125 0.56437 0.509194
0.720073 0.601099 0.521492
0.719402 0.598672 0.515618
0.718608 0.595636 0.508431
0.717525 0.591333 0.497902
0.716442 0.585214 0.479179
0.714321 0.573083 0.442832
0.703288 0.496803 0.207019
0.255711 0.000747692 0
0.255711 0.000747692 0
0.0604868 0.444022 0.496025
0.0563668 0.441413 0.496208
0.0527352 0.439002 0.496513
0.0493782 0.436515 0.496666
0.0455787 0.433524 0.496513
0.0422675 0.430716 0.496468
0.0393988 0.428077 0.496117
0.0368811 0.425544 0.495644
0.0346227 0.423178 0.495262
0.032517 0.420874 0.494652
0.0306249 0.418677 0.494011
0.0288853 0.416464 0.493446
0.0272068 0.414313 0.492821
0.0256962 0.412695 0.491783
0.0242466 0.410941 0.4907
0.0230106 0.4094 0.489632
0.0218967 0.407919 0.488609
0.0209506 0.406424 0.487404
0.0200809 0.404852 0.486137
0.0192569 0.403326 0.484993
0.0185092 0.401923 0.483848
0.0178378 0.400244 0.482261
0.233265 0.480018 0.431205
0.650233 0.551614 0.523476
0.710948 0.613443 0.574166
0.72372 0.614939 0.555367
0.723079 0.612299 0.549538
0.722194 0.609155 0.541939
0.72105 0.604852 0.530953
0.719173 0.597711 0.513344
0.716426 0.584848 0.477806
0.713314 0.539452 0.321248
0.255711 0.000747692 0
0.105455 0.465995 0.48368
0.105455 0.465995 0.48368
0.105455 0.465995 0.48368
0.102174 0.464515 0.486763
0.0961929 0.461997 0.490135
0.0889906 0.458869 0.492317
0.0821698 0.45568 0.493492
0.0758831 0.452689 0.494591
0.0700999 0.449638 0.495155
