luts/爽籟.cube
TITLE "Generated by Resolve"
LUT_3D_SIZE 9
0 0 1.5259e-05
4.57771e-05 1.5259e-05 0
0.0240635 6.10361e-05 0
0.142077 0.000213626 0
0.234165 0.000610361 0
0.255711 0.000747692 0
0.255711 0.000747692 0
0.255711 0.000747692 0
0.255711 0.000747692 0
1.5259e-05 0 7.62951e-05
0 0 3.0518e-05
0.00721752 4.57771e-05 0
0.110369 0.000167849 0
0.212467 0.00047303 0
0.255711 0.000747692 0
0.255711 0.000747692 0
0.255711 0.000747692 0
0.255711 0.000747692 0
0.000381476 0.000747692 0.00241093
0.000228885 0.000335698 0.00155642
0.000885023 1.5259e-05 0.000335698
0.075639 4.57771e-05 1.5259e-05
0.190265 0.000366217 0
0.255711 0.000747692 0
0.255711 0.000747692 0
0.255711 0.000747692 0
0.255711 0.000747692 0
0.00646983 0.0325017 0.0415808
0.00543221 0.0266575 0.0348516
0.00488289 0.0241703 0.0123903
0.0818647 0.0242618 0.002121
0.294087 0.0101472 0.000183108
0.25481 0.000747692 0
0.255711 0.000747692 0
0.255711 0.000747692 0
0.255711 0.000747692 0
0.00325017 0.174273 0.170291
0.00317388 0.154391 0.148821
0.0028687 0.134035 0.12546
0.00167849 0.144808 0.039826
0.367849 0.212604 0.00337224
0.522271 0.146822 0.000534066
0.255711 0.000747692 0
0.255711 0.000747692 0
0.255711 0.000747692 0
0.00588998 0.324758 0.370489
0.00527962 0.313542 0.358114
0.00471504 0.30074 0.345785
0.00437934 0.289754 0.323705
0.0146181 0.311162 0.20557
0.602136 0.446983 0.176089
0.64715 0.363256 0.0436866
0.255711 0.000747692 0
0.255711 0.000747692 0
0.0180362 0.400732 0.482704
0.0156558 0.394156 0.475959
0.0136873 0.386374 0.466499
0.0120699 0.37908 0.457984
0.0107271 0.372045 0.449027
0.162234 0.406729 0.354452
0.716625 0.586099 0.481788
0.710582 0.545342 0.338476
0.255711 0.000747692 0
0.105455 0.465995 0.48368
0.105455 0.465995 0.48368
0.105455 0.465995 0.48368
0.105455 0.465995 0.48368
0.0843061 0.456657 0.493187
0.0630198 0.445563 0.495735
0.431479 0.573983 0.533501
0.735012 0.645365 0.610025
0.722637 0.61088 0.546288
0.105455 0.465995 0.48368
0.105455 0.465995 0.48368
0.105455 0.465995 0.48368
0.105455 0.465995 0.48368
0.105455 0.465995 0.48368
0.105455 0.465995 0.48368
0.105455 0.465995 0.48368
0.751751 0.69247 0.622827
0.751751 0.69247 0.622827
0 0 0
0 7.62951e-05 0
0.0146944 0.000137331 0
0.14345 0.000198367 0
0.231968 0.000595102 0
0.255711 0.000747692 0
0.255711 0.000747692 0
0.255711 0.000747692 0
0.255711 0.000747692 0
0 0 1.5259e-05
0 0 0
0.00675975 1.5259e-05 0
0.109636 0.000137331 0
0.210468 0.000457771 0
0.255711 0.000747692 0
0.255711 0.000747692 0
0.255711 0.000747692 0
0.255711 0.000747692 0
0.000122072 0.000396735 0.00192264
0.00015259 0.000320439 0.00148013
0.000854505 3.0518e-05 0.000411994
0.0753643 4.57771e-05 3.0518e-05
0.187884 0.000366217 0
0.255711 0.000747692 0
0.255711 0.000747692 0
0.255711 0.000747692 0
0.255711 0.000747692 0
0.0030518 0.0266423 0.0329442
0.00517281 0.0252079 0.0332189
0.0043946 0.0223239 0.0118257
0.0731365 0.0213474 0.00204471
0.284855 0.00863661 0.000167849
0.25182 0.000747692 0
0.255711 0.000747692 0
0.255711 0.000747692 0
0.255711 0.000747692 0
0.00325017 0.167803 0.163317
0.00309758 0.147906 0.141421
0.00277714 0.127367 0.118059
0.00195315 0.140215 0.0381628
0.356237 0.20267 0.00300603
0.514916 0.139849 0.000518807
0.255711 0.000747692 0
0.255711 0.000747692 0
0.255711 0.000747692 0
0.00570687 0.321004 0.366155
0.00508125 0.309651 0.35404
0.00457771 0.296773 0.339391
0.00428778 0.286046 0.316258
0.0132753 0.305959 0.199603
0.596307 0.440604 0.165499
0.644434 0.356374 0.0380865
0.255711 0.000747692 0
0.255711 0.000747692 0
0.0172122 0.398611 0.480598
0.0150149 0.391791 0.472953
0.0131228 0.383963 0.463615
0.0116426 0.376745 0.454994
0.0103304 0.369772 0.44593
0.15758 0.402167 0.350011
0.716396 0.584573 0.476814
0.709407 0.540139 0.325856
0.255711 0.000747692 0
0.105455 0.465995 0.48368
0.105455 0.465995 0.48368
0.105455 0.465995 0.48368
0.100298 0.463783 0.488518
0.0764477 0.452979 0.494469
0.0573587 0.442084 0.496147
0.408988 0.566308 0.524926
0.734157 0.642817 0.60705
0.722164 0.609049 0.541634
0.105455 0.465995 0.48368
0.105455 0.465995 0.48368
0.105455 0.465995 0.48368
0.105455 0.465995 0.48368
0.105455 0.465995 0.48368
0.105455 0.465995 0.48368
0.105455 0.465995 0.48368
0.751507 0.691691 0.621836
0.751751 0.69247 0.622827
0 0 0
0 9.15541e-05 0
0.0012665 0.00134279 0
0.124529 0.0024567 0
0.252003 0.00227359 0
0.255711 0.000747692 0
0.255711 0.000747692 0
0.255711 0.000747692 0
0.255711 0.000747692 0
0 0.000106813 0.000411994
0 3.0518e-05 0.000106813
0.00102235 0.000335698 0
0.0821393 0.00135805 0
0.22298 0.0012665 0
0.255711 0.000747692 0
0.255711 0.000747692 0
0.255711 0.000747692 0
0.255711 0.000747692 0
0.00015259 0.00354009 0.0093843
9.15541e-05 0.00184634 0.00540169
0.000289921 0.00143435 0.00109865
0.129931 0.000335698 0
0.19411 0.000747692 0
0.255711 0.000747692 0
0.255711 0.000747692 0
0.255711 0.000747692 0
0.255711 0.000747692 0
0.000946059 0.0603494 0.0669718
0.000762951 0.0478065 0.0528267
0 0.0293889 0.0177615
0.0806897 0.0370642 0.000976577
0.326192 0.0151369 0
0.248997 0.000732433 0
0.255711 0.000747692 0
0.255711 0.000747692 0
0.255711 0.000747692 0
0.00285344 0.19205 0.19791
0.00280766 0.175204 0.180301
0.00267033 0.158602 0.161196
0 0.13846 0.0664988
0.359228 0.230167 0.0118257
0.5308 0.158175 0.000549325
0.255711 0.000747692 0
0.255711 0.000747692 0
0.255711 0.000747692 0
0.00581369 0.32108 0.368582
0.00520333 0.309529 0.356802
0.00474556 0.297017 0.342214
0.00445563 0.286534 0.320104
0.00796521 0.303166 0.204211
0.591012 0.439979 0.174365
0.642496 0.35845 0.0478065
0.255711 0.000747692 0
0.255711 0.000747692 0
0.0166171 0.397024 0.479026
0.0145571 0.389944 0.470848
0.0127413 0.382177 0.461631
0.0113222 0.37496 0.452766
0.0100862 0.368063 0.443366
0.153231 0.398077 0.346273
0.71606 0.582956 0.471809
0.707347 0.534798 0.312947
0.255711 0.000747692 0
0.105455 0.465995 0.48368
0.105455 0.465995 0.48368
0.105455 0.465995 0.48368
0.0923171 0.460304 0.491295
0.0692607 0.449149 0.495201
0.0523079 0.438621 0.496574
0.387732 0.558618 0.516228
0.733211 0.640177 0.603387
0.721706 0.607233 0.536904
0.105455 0.465995 0.48368
0.105455 0.465995 0.48368
0.105455 0.465995 0.48368
0.105455 0.465995 0.48368
0.105455 0.465995 0.48368
0.105455 0.465995 0.48368
0.105455 0.465995 0.48368
0.749538 0.689265 0.617594
0.751751 0.69247 0.622827
0 0.0746166 0.129473
3.0518e-05 0.0819715 0.145876
0.00184634 0.0481575 0.118975
0.309972 0.0926833 0.127062
0.26923 0.0169375 3.0518e-05
0.304662 0.012253 0
0.255711 0.000747692 0
0.255711 0.000747692 0
0.255711 0.000747692 0
0 0.0305791 0.061677
0 0.0397955 0.0879377
0.000183108 0.0332799 0.0868238
0.221927 0.0544594 0.0743572
0.229648 0.0110018 0
0.298878 0.00849927 0
0.255711 0.000747692 0
0.255711 0.000747692 0
0.255711 0.000747692 0
0.00015259 0.0241398 0.05243
0 0.0184176 0.0425269
0 0.0283207 0.0675669
0.14284 0.0426795 0.0495155
0.191623 0.00689708 0
0.294209 0.00598154 0
0.255711 0.000747692 0
0.255711 0.000747692 0
0.255711 0.000747692 0
0.00125124 0.0974289 0.147982
0.00112917 0.0819409 0.130648
0 0.0770428 0.111879
0.0789502 0.121874 0.095079
0.400885 0.0488289 0.00476081
0.277897 0.00424201 0
0.255711 0.000747692 0
0.255711 0.000747692 0
0.255711 0.000747692 0
0.00363165 0.217487 0.252491
0.00329595 0.203082 0.23473
0.00296025 0.186923 0.216419
0 0.180026 0.13724
0.358587 0.260151 0.0604715
0.547539 0.187259 0.00590524
0.255711 0.000747692 0
0.255711 0.000747692 0
0.255711 0.000747692 0
0.00611887 0.323201 0.37496
0.00549325 0.31191 0.362921
0.00508125 0.299657 0.347356
0.00477607 0.288746 0.328725
0.00352483 0.300572 0.214343
0.58616 0.442283 0.193851
0.641398 0.364782 0.0687724
0.255711 0.000747692 0
0.255711 0.000747692 0
0.0161593 0.395804 0.477714
0.0142214 0.388525 0.469154
0.0124514 0.380911 0.460197
0.0111238 0.3738 0.451286
0.0099794 0.367239 0.442283
0.144839 0.395392 0.344335
0.716182 0.583185 0.472236
0.705653 0.534249 0.314656
0.255711 0.000747692 0
0.105455 0.465995 0.48368
0.105455 0.465995 0.48368
0.105455 0.465995 0.48368
0.0853895 0.457221 0.493004
0.0638132 0.446006 0.495689
0.0484169 0.435752 0.496605
0.369131 0.551934 0.508797
0.732464 0.638148 0.600626
0.721325 0.606012 0.533959
0.105455 0.465995 0.48368
0.105455 0.465995 0.48368
0.105455 0.465995 0.48368
0.105455 0.465995 0.48368
0.105455 0.465995 0.48368
0.105455 0.465995 0.48368
0.105455 0.465995 0.48368
0.744717 0.687297 0.613306
0.751751 0.69247 0.622827
0.104051 0.391913 0.345006
0.105974 0.382208 0.355001
0.11632 0.374731 0.361929
0.232181 0.380667 0.377722
0.609186 0.440696 0.426596
0.329107 0.047715 0.0170596
0.328023 0.0365759 0.00553903
0.255711 0.000747692 0
0.255711 0.000747692 0
0.0514076 0.339025 0.347753
0.0498817 0.326299 0.344869
0.0559396 0.31487 0.342718
0.170947 0.318486 0.350256
0.562844 0.366644 0.381872
0.328359 0.0374762 0.00633249
0.324147 0.0293889 0.00151064
0.255711 0.000747692 0
0.255711 0.000747692 0
0.010544 0.27277 0.31368
0.0096437 0.25742 0.304417
0.0157626 0.247959 0.29955
0.097734 0.253773 0.30425
0.504036 0.29659 0.3308
0.324681 0.0302434 0.00180056
0.316747 0.0224613 0.000244144
0.255711 0.000747692 0
0.255711 0.000747692 0
0.000381476 0.22739 0.279423
6.10361e-05 0.200366 0.255467
0.00149538 0.209644 0.26772
0.0432136 0.231113 0.282094
0.435569 0.2692 0.28806
0.299825 0.0226749 0.000381476
0.310002 0.016556 1.5259e-05
0.255711 0.000747692 0
0.255711 0.000747692 0
0.00456245 0.267079 0.328161
0.00416571 0.251453 0.312993
0.00251774 0.238544 0.299214
0.00234989 0.292668 0.330358
0.368475 0.376455 0.344411
0.59379 0.275914 0.164645
0.305165 0.012665 0
0.255711 0.000747692 0
0.255711 0.000747692 0
0.00929274 0.349905 0.422583
0.00831617 0.338842 0.408209
0.0074464 0.327153 0.393683
0.00695811 0.316197 0.378729
0.00349432 0.342672 0.300786
0.588418 0.475532 0.313176
0.644541 0.401282 0.169024
0.255711 0.000747692 0
0.255711 0.000747692 0
0.01738 0.399023 0.48098
0.0151675 0.39237 0.473716
0.0132906 0.384756 0.464469
0.01178 0.377554 0.456184
0.0104829 0.370779 0.447349
0.127031 0.395209 0.347326
0.716487 0.585641 0.480644
0.704387 0.538613 0.33164
0.255711 0.000747692 0
0.105455 0.465995 0.48368
0.105455 0.465995 0.48368
0.103044 0.464958 0.486076
0.0797894 0.454643 0.493828
0.0599069 0.443656 0.496086
0.045655 0.43357 0.496483
0.352743 0.546197 0.502678
0.731868 0.63653 0.598093
0.721187 0.605432 0.532448
0.105455 0.465995 0.48368
0.105455 0.465995 0.48368
0.105455 0.465995 0.48368
0.105455 0.465995 0.48368
0.105455 0.465995 0.48368
0.105455 0.465995 0.48368
0.105455 0.465995 0.48368
0.739406 0.684642 0.609232
0.751751 0.69247 0.622827
0.671504 0.644892 0.574655
0.651225 0.63624 0.568582
0.632105 0.628641 0.563821
0.624826 0.623011 0.545022
0.689433 0.671458 0.55845
0.688869 0.659419 0.540917
0.294896 0.0742657 0.0681163
0.294896 0.0742657 0.0681163
0.255711 0.000747692 0
0.569375 0.604044 0.528466
0.512673 0.589639 0.502815
0.459541 0.57348 0.480156
0.438117 0.564385 0.463996
0.541085 0.597009 0.476799
0.664088 0.615244 0.50338
0.294896 0.0742657 0.0681163
0.302083 0.0745403 0.0640116
0.255711 0.000747692 0
0.375311 0.543877 0.452003
0.325078 0.522072 0.432303
0.284398 0.501457 0.414374
0.269825 0.488945 0.402213
0.372992 0.504433 0.414603
0.64828 0.57052 0.47744
0.294896 0.0742657 0.0681163
0.326726 0.0576944 0.0299382
0.255711 0.000747692 0
0.218051 0.472709 0.393301
0.177768 0.44979 0.374777
0.152682 0.43093 0.359442
0.143618 0.417456 0.348623
0.273381 0.440711 0.387213
0.638788 0.514794 0.453758
0.325963 0.0594492 0.0325017
0.329168 0.0445411 0.0132448
0.255711 0.000747692 0
0.116426 0.430838 0.369192
0.102983 0.421195 0.382208
0.101472 0.413077 0.390295
0.112306 0.407034 0.395514
0.269337 0.441657 0.417807
0.614511 0.495094 0.459464
0.329015 0.0457465 0.0146944
0.327657 0.0356298 0.00479133
0.255711 0.000747692 0
0.0245823 0.413397 0.45658
0.0173342 0.398093 0.445716
0.0127413 0.383902 0.434592
0.00999466 0.374517 0.427466
0.159869 0.478843 0.488045
0.61323 0.574411 0.525963
0.671595 0.493309 0.391348
0.32462 0.0299992 0.00172427
0.255711 0.000747692 0
0.0435645 0.431785 0.496483
0.0339208 0.42237 0.495155
0.0263523 0.413336 0.492348
0.0213321 0.407034 0.487892
0.018143 0.401038 0.482994
0.0978714 0.4318 0.405646
0.722393 0.609949 0.543908
0.706783 0.581979 0.451484
0.255711 0.000747692 0
0.105455 0.465995 0.48368
0.105455 0.465995 0.48368
0.105455 0.465995 0.48368
0.0927749 0.460487 0.491142
0.0697185 0.449485 0.495094
0.0527199 0.438972 0.496452
0.361151 0.551949 0.513344
0.733486 0.64094 0.60441
0.723156 0.61265 0.550362
0.105455 0.465995 0.48368
0.105455 0.465995 0.48368
0.105455 0.465995 0.48368
0.105455 0.465995 0.48368
0.105455 0.465995 0.48368
0.105455 0.465995 0.48368
0.105455 0.465995 0.48368
0.734371 0.681804 0.605615
0.751751 0.69247 0.622827
0.751751 0.69247 0.622827
0.751751 0.69247 0.622827
0.751751 0.69247 0.622827
0.751751 0.69247 0.622827
0.751751 0.69247 0.622827
0.751751 0.69247 0.622827
0.751751 0.69247 0.622827
0.294896 0.0742657 0.0681163
0.294896 0.0742657 0.0681163
0.751751 0.69247 0.622827
0.751751 0.69247 0.622827
0.751751 0.69247 0.622827
0.751751 0.69247 0.622827
0.751751 0.69247 0.622827
0.751751 0.69247 0.622827
0.751751 0.69247 0.622827
0.294896 0.0742657 0.0681163
0.294896 0.0742657 0.0681163
0.751751 0.69247 0.622827
0.751751 0.69247 0.622827
0.751751 0.69247 0.622827
0.749157 0.688899 0.6168
0.749828 0.689448 0.617975
0.751751 0.69247 0.622827
0.751751 0.69247 0.622827
0.294896 0.0742657 0.0681163
0.294896 0.0742657 0.0681163
0.740795 0.685435 0.610361
0.724437 0.674678 0.599054
0.707897 0.663294 0.589593
0.690242 0.653635 0.581903
0.691981 0.654444 0.582574
0.751751 0.69247 0.622827
0.725155 0.690654 0.58761
0.294896 0.0742657 0.0681163
0.294896 0.0742657 0.0681163
0.67837 0.647944 0.577188
0.655924 0.638132 0.569833
0.634501 0.629526 0.564294
0.613474 0.62208 0.560479
0.597345 0.613397 0.535073
0.673548 0.662699 0.547082
0.688411 0.658976 0.540307
0.294896 0.0742657 0.0681163
0.294896 0.0742657 0.0681163
0.579934 0.611246 0.55491
0.552651 0.603296 0.550805
0.525872 0.595666 0.547005
0.487037 0.582391 0.522255
0.453346 0.571466 0.497093
0.567773 0.613626 0.502419
0.684703 0.653956 0.535195
0.294896 0.0742657 0.0681163
0.30959 0.0735943 0.0587167
0.105455 0.465995 0.48368
0.105455 0.465995 0.48368
0.105455 0.465995 0.48368
0.105455 0.465995 0.48368
0.105455 0.465995 0.48368
0.454215 0.577508 0.538567
0.751751 0.69247 0.622827
0.718044 0.686488 0.578958
0.326101 0.0590524 0.0319371
0.105455 0.465995 0.48368
0.105455 0.465995 0.48368
0.105455 0.465995 0.48368
0.105455 0.465995 0.48368
0.105455 0.465995 0.48368
0.105455 0.465995 0.48368
0.551369 0.602975 0.550652
0.752621 0.687907 0.629084
0.740856 0.661082 0.626322
0.105455 0.465995 0.48368
0.105455 0.465995 0.48368
0.105455 0.465995 0.48368
0.105455 0.465995 0.48368
0.105455 0.465995 0.48368
0.105455 0.465995 0.48368
0.105455 0.465995 0.48368
0.731411 0.679667 0.60354
0.751751 0.69247 0.622827
0.751751 0.69247 0.622827
0.751751 0.69247 0.622827
0.751751 0.69247 0.622827
0.751751 0.69247 0.622827
0.751751 0.69247 0.622827
0.751751 0.69247 0.622827
0.751751 0.69247 0.622827
0.751751 0.69247 0.622827
0.294896 0.0742657 0.0681163
0.751751 0.69247 0.622827
0.751751 0.69247 0.622827
0.751751 0.69247 0.622827
0.751751 0.69247 0.622827
0.751751 0.69247 0.622827
0.751751 0.69247 0.622827
0.751751 0.69247 0.622827
0.751751 0.69247 0.622827
0.294896 0.0742657 0.0681163
0.751751 0.69247 0.622827
0.751751 0.69247 0.622827
0.751751 0.69247 0.622827
0.751751 0.69247 0.622827
0.751751 0.69247 0.622827
0.751751 0.69247 0.622827
0.751751 0.69247 0.622827
0.751751 0.69247 0.622827
0.294896 0.0742657 0.0681163
0.751751 0.69247 0.622827
0.751751 0.69247 0.622827
0.751751 0.69247 0.622827
0.751751 0.69247 0.622827
0.751751 0.69247 0.622827
0.751751 0.69247 0.622827
0.751751 0.69247 0.622827
0.751751 0.69247 0.622827
0.294896 0.0742657 0.0681163
0.751751 0.69247 0.622827
0.751751 0.69247 0.622827
0.751751 0.69247 0.622827
0.751751 0.69247 0.622827
0.751751 0.69247 0.622827
0.751751 0.69247 0.622827
0.751751 0.69247 0.622827
0.751751 0.69247 0.622827
0.294896 0.0742657 0.0681163
0.751751 0.69247 0.622827
0.751751 0.69247 0.622827
0.751751 0.69247 0.622827
0.751751 0.69247 0.622827
0.751751 0.69247 0.622827
0.751751 0.69247 0.622827
0.751751 0.69247 0.622827
0.751751 0.69247 0.622827
0.294896 0.0742657 0.0681163
0.751751 0.69247 0.622827
0.751751 0.69247 0.622827
0.750652 0.690364 0.619791
0.737316 0.683482 0.607721
0.723171 0.673716 0.598245
0.726085 0.675837 0.600031
0.751751 0.69247 0.622827
0.751751 0.69247 0.622827
0.294896 0.0742657 0.0681163
0.105455 0.465995 0.48368
0.105455 0.465995 0.48368
0.105455 0.465995 0.48368
0.105455 0.465995 0.48368
0.105455 0.465995 0.48368
0.105455 0.465995 0.48368
0.685237 0.651118 0.579797
0.751751 0.69247 0.622827
0.751751 0.69247 0.622827
0.105455 0.465995 0.48368
0.105455 0.465995 0.48368
0.105455 0.465995 0.48368
0.105455 0.465995 0.48368
0.105455 0.465995 0.48368
0.105455 0.465995 0.48368
0.105455 0.465995 0.48368
0.746761 0.687984 0.614816
0.751751 0.69247 0.622827
0.751751 0.69247 0.622827
0.751751 0.69247 0.622827
0.751751 0.69247 0.622827
0.751751 0.69247 0.622827
0.751751 0.69247 0.622827
0.751751 0.69247 0.622827
0.751751 0.69247 0.622827
0.751751 0.69247 0.622827
0.751751 0.69247 0.622827
0.751751 0.69247 0.622827
0.751751 0.69247 0.622827
0.751751 0.69247 0.622827
0.751751 0.69247 0.622827
0.751751 0.69247 0.622827
0.751751 0.69247 0.622827
0.751751 0.69247 0.622827
0.751751 0.69247 0.622827
0.751751 0.69247 0.622827
0.751751 0.69247 0.622827
0.751751 0.69247 0.622827
0.751751 0.69247 0.622827
0.751751 0.69247 0.622827
0.751751 0.69247 0.622827
0.751751 0.69247 0.622827
0.751751 0.69247 0.622827
0.751751 0.69247 0.622827
0.751751 0.69247 0.622827
0.751751 0.69247 0.622827
0.751751 0.69247 0.622827
0.751751 0.69247 0.622827
0.751751 0.69247 0.622827
0.751751 0.69247 0.622827
0.751751 0.69247 0.622827
0.751751 0.69247 0.622827
0.751751 0.69247 0.622827
0.751751 0.69247 0.622827
0.751751 0.69247 0.622827
0.751751 0.69247 0.622827
0.751751 0.69247 0.622827
0.751751 0.69247 0.622827
0.751751 0.69247 0.622827
0.751751 0.69247 0.622827
0.751751 0.69247 0.622827
0.751751 0.69247 0.622827
0.751751 0.69247 0.622827
0.751751 0.69247 0.622827
0.751751 0.69247 0.622827
0.751751 0.69247 0.622827
0.751751 0.69247 0.622827
0.751751 0.69247 0.622827
0.751751 0.69247 0.622827
0.751751 0.69247 0.622827
0.751751 0.69247 0.622827
0.751751 0.69247 0.622827
0.751751 0.69247 0.622827
0.751751 0.69247 0.622827
0.751751 0.69247 0.622827
0.751751 0.69247 0.622827
0.751751 0.69247 0.622827
0.751751 0.69247 0.622827
0.751751 0.69247 0.622827
0.751751 0.69247 0.622827
0.751751 0.69247 0.622827
0.751751 0.69247 0.622827
0.751751 0.69247 0.622827
0.751751 0.69247 0.622827
0.751751 0.69247 0.622827
0.751751 0.69247 0.622827
0.751751 0.69247 0.622827
0.751751 0.69247 0.622827
0.751751 0.69247 0.622827
0.751751 0.69247 0.622827
0.105455 0.465995 0.48368
0.105455 0.465995 0.48368
0.105455 0.465995 0.48368
0.105455 0.465995 0.48368
0.105455 0.465995 0.48368
0.105455 0.465995 0.48368
0.105455 0.465995 0.48368
0.751751 0.69247 0.622827
0.751751 0.69247 0.622827
