luts/爽籟.cube
TITLE "Generated by Resolve"
LUT_3D_SIZE 5
0 0 1.5259e-05
0.0240635 6.10361e-05 0
0.234165 0.000610361 0
0.255711 0.000747692 0
0.255711 0.000747692 0
0.000381476 0.000747692 0.00241093
0.000885023 1.5259e-05 0.000335698
0.190265 0.000366217 0
0.255711 0.000747692 0
0.255711 0.000747692 0
0.00325017 0.174273 0.170291
0.0028687 0.134035 0.12546
0.367849 0.212604 0.00337224
0.255711 0.000747692 0
0.255711 0.000747692 0
0.0180362 0.400732 0.482704
0.0136873 0.386374 0.466499
0.0107271 0.372045 0.449027
0.716625 0.586099 0.481788
0.255711 0.000747692 0
0.105455 0.465995 0.48368
0.105455 0.465995 0.48368
0.105455 0.465995 0.48368
0.105455 0.465995 0.48368
0.751751 0.69247 0.622827
0 0 0
0.0012665 0.00134279 0
0.252003 0.00227359 0
0.255711 0.000747692 0
0.255711 0.000747692 0
0.00015259 0.00354009 0.0093843
0.000289921 0.00143435 0.00109865
0.19411 0.000747692 0
0.255711 0.000747692 0
0.255711 0.000747692 0
0.00285344 0.19205 0.19791
0.00267033 0.158602 0.161196
0.359228 0.230167 0.0118257
0.255711 0.000747692 0
0.255711 0.000747692 0
0.0166171 0.397024 0.479026
0.0127413 0.382177 0.461631
0.0100862 0.368063 0.443366
0.71606 0.582956 0.471809
0.255711 0.000747692 0
0.105455 0.465995 0.48368
0.105455 0.465995 0.48368
0.105455 0.465995 0.48368
0.105455 0.465995 0.48368
0.751751 0.69247 0.622827
0.104051 0.391913 0.345006
0.11632 0.374731 0.361929
0.609186 0.440696 0.426596
0.328023 0.0365759 0.00553903
0.255711 0.000747692 0
0.010544 0.27277 0.31368
0.0157626 0.247959 0.29955
0.504036 0.29659 0.3308
0.316747 0.0224613 0.000244144
0.255711 0.000747692 0
0.00456245 0.267079 0.328161
0.00251774 0.238544 0.299214
0.368475 0.376455 0.344411
0.305165 0.012665 0
0.255711 0.000747692 0
0.01738 0.399023 0.48098
0.0132906 0.384756 0.464469
0.0104829 0.370779 0.447349
0.716487 0.585641 0.480644
0.255711 0.000747692 0
0.105455 0.465995 0.48368
0.105455 0.465995 0.48368
0.105455 0.465995 0.48368
0.105455 0.465995 0.48368
0.751751 0.69247 0.622827
0.751751 0.69247 0.622827
0.751751 0.69247 0.622827
0.751751 0.69247 0.622827
0.751751 0.69247 0.622827
0.294896 0.0742657 0.0681163
0.751751 0.69247 0.622827
0.751751 0.69247 0.622827
0.749828 0.689448 0.617975
0.751751 0.69247 0.622827
0.294896 0.0742657 0.0681163
0.67837 0.647944 0.577188
0.634501 0.629526 0.564294
0.597345 0.613397 0.535073
0.688411 0.658976 0.540307
0.294896 0.0742657 0.0681163
0.105455 0.465995 0.48368
0.105455 0.465995 0.48368
0.105455 0.465995 0.48368
0.751751 0.69247 0.622827
0.326101 0.0590524 0.0319371
0.105455 0.465995 0.48368
0.105455 0.465995 0.48368
0.105455 0.465995 0.48368
0.105455 0.465995 0.48368
0.751751 0.69247 0.622827
0.751751 0.69247 0.622827
0.751751 0.69247 0.622827
0.751751 0.69247 0.622827
0.751751 0.69247 0.622827
0.751751 0.69247 0.622827
0.751751 0.69247 0.622827
0.751751 0.69247 0.622827
0.751751 0.69247 0.622827
0.751751 0.69247 0.622827
0.751751 0.69247 0.622827
0.751751 0.69247 0.622827
0.751751 0.69247 0.622827
0.751751 0.69247 0.622827
0.751751 0.69247 0.622827
0.751751 0.69247 0.622827
0.751751 0.69247 0.622827
0.751751 0.69247 0.622827
0.751751 0.69247 0.622827
0.751751 0.69247 0.622827
0.751751 0.69247 0.622827
0.105455 0.465995 0.48368
0.105455 0.465995 0.48368
0.105455 0.465995 0.48368
0.105455 0.465995 0.48368
0.751751 0.69247 0.622827
