luts/白夏.cube
TITLE "Generated by Resolve"
LUT_3D_SIZE 9
0 0 0
1.5259e-05 0 0
0.0241093 0 0
0.128725 0 0
0.21355 0 0
0.282338 0 0
0.282338 0 0
0.282338 0 0
0.282338 0 0
0 1.5259e-05 0.000442512
0 0 0.000106813
0.00607309 0 6.10361e-05
0.0937209 0 0
0.190906 0 0
0.272236 0 0
0.282338 0 0
0.282338 0 0
0.282338 0 0
0.00169375 0.00798047 0.00523384
0.000122072 0.00387579 0.00541695
0.0041352 0.000946059 0.00202945
0.0989242 0.000320439 0.000335698
0.168261 0 0
0.249561 0 0
0.282338 0 0
0.282338 0 0
0.282338 0 0
0.00717174 0.0673838 0.0299535
0.00704967 0.0563363 0.0252537
0.0037232 0.0428931 0.0129854
0.109529 0.0369268 0.00233463
0.331594 0.0277867 0.000717174
0.243992 0 0
0.282338 0 0
0.282338 0 0
0.282338 0 0
0.00547799 0.233341 0.129702
0.00555428 0.215228 0.108431
0.00584421 0.195193 0.0916457
0.0501869 0.219821 0.0329747
0.357977 0.209903 0.00683604
0.575509 0.173617 0.00205997
0.420783 0.000915541 9.15541e-05
0.282338 0 0
0.282338 0 0
0.00817884 0.400168 0.3299
0.00740063 0.385245 0.308232
0.00672923 0.370489 0.288838
0.00610361 0.355032 0.270207
0.247196 0.459831 0.219562
0.619837 0.466117 0.144991
0.808499 0.441108 0.0855726
0.612924 0.0507515 0.000717174
0.282338 0 0
0.0351263 0.584253 0.515724
0.0268101 0.555322 0.492775
0.0214542 0.533867 0.470314
0.0178988 0.515724 0.450538
0.0153811 0.49781 0.433371
0.508324 0.639735 0.427665
0.798901 0.660838 0.376837
0.854994 0.636683 0.337865
0.720928 0.198947 0.00317388
0.0701152 0.610285 0.600809
0.0642557 0.608728 0.592905
0.0595407 0.607584 0.585122
0.0555734 0.606638 0.577401
0.0522774 0.605966 0.569497
0.049546 0.605158 0.561761
0.735332 0.741161 0.643473
0.871839 0.793576 0.654749
0.870405 0.781765 0.590906
0.19173 0.643366 0.663569
0.173327 0.639216 0.656229
0.157153 0.635309 0.649104
0.142229 0.631281 0.642771
0.128038 0.627741 0.637034
0.115892 0.624125 0.631601
0.104875 0.6206 0.626093
0.875059 0.805081 0.758114
0.878538 0.815579 0.753414
0 0 0.000228885
0 0 0.000198367
0.0201114 0 0
0.131121 0 0
0.234272 0 0
0.282338 0 0
0.282338 0 0
0.282338 0 0
0.282338 0 0
0 1.5259e-05 0.00141909
0 4.57771e-05 0.000839246
0.0126802 1.5259e-05 7.62951e-05
0.112947 0 0
0.204746 0 0
0.269688 0 0
0.282338 0 0
0.282338 0 0
0.282338 0 0
0.000518807 0.00798047 0.0126497
0 0.00518807 0.00447089
0.00590524 0.00419623 0.00149538
0.138384 0.00137331 0.000228885
0.205417 0 0
0.24741 0 0
0.282338 0 0
0.282338 0 0
0.282338 0 0
0.00192264 0.0947433 0.0578775
0.00184634 0.0783856 0.047715
0.00077821 0.0819104 0.0170748
0.134142 0.0690776 0.00497444
0.373983 0.0432593 0.00102235
0.290379 1.5259e-05 1.5259e-05
0.282338 0 0
0.282338 0 0
0.282338 0 0
0.00376898 0.239612 0.181201
0.0037232 0.223117 0.162341
0.00361639 0.207721 0.144152
0.0360723 0.255955 0.0792096
0.374228 0.254536 0.0311437
0.620111 0.214923 0.00839246
0.456428 0.00209049 0.000137331
0.282338 0 0
0.282338 0 0
0.0080415 0.395346 0.339376
0.00727855 0.379904 0.318746
0.00662242 0.365408 0.300084
0.00593576 0.350301 0.281575
0.230625 0.46215 0.238529
0.614588 0.468818 0.166049
0.805447 0.443351 0.10277
0.612619 0.0504463 0.000717174
0.282338 0 0
0.0320592 0.573373 0.51136
0.0250248 0.547601 0.488136
0.0202487 0.527047 0.466209
0.0170291 0.509438 0.446555
0.0146944 0.491707 0.429923
0.497887 0.633631 0.418997
0.792981 0.653864 0.367727
0.854536 0.630732 0.329122
0.71809 0.193393 0.00300603
0.0684215 0.609781 0.598611
0.0626993 0.608286 0.590539
0.0580301 0.607202 0.58233
0.0543069 0.606363 0.57438
0.051194 0.605646 0.566583
0.048661 0.604944 0.558953
0.727977 0.739254 0.638666
0.871534 0.792706 0.650355
0.870573 0.774762 0.559625
0.185245 0.641794 0.661006
0.167422 0.637797 0.653681
0.151553 0.633753 0.646662
0.136812 0.629938 0.640635
0.123217 0.626337 0.634958
0.111604 0.62269 0.629557
0.100999 0.619364 0.623941
0.87129 0.802365 0.752651
0.878202 0.814603 0.748333
0 0.0009308 0.0232242
0 0.00117494 0.0284123
0.0316777 0.00109865 0.0167086
0.129168 1.5259e-05 0.000595102
0.235523 3.0518e-05 0.000320439
0.348852 0.000137331 0.000183108
0.282338 0 0
0.282338 0 0
0.282338 0 0
0 0.000946059 0.018616
0 0.00175479 0.0243076
0.0163272 0.00276188 0.0231632
0.151568 0.000213626 0.00146487
0.20737 1.5259e-05 9.15541e-05
0.322057 3.0518e-05 4.57771e-05
0.282338 0 0
0.282338 0 0
0.282338 0 0
0.000320439 0.0102693 0.0447242
0 0.00868238 0.0317845
0.00627146 0.0196078 0.035874
0.175921 0.00857557 0.00698863
0.245731 7.62951e-05 0.000213626
0.288304 0 1.5259e-05
0.282338 0 0
0.282338 0 0
0.282338 0 0
0.00140383 0.0951247 0.112764
0.000823987 0.080766 0.0964981
7.62951e-05 0.0896468 0.0532692
0.143755 0.110475 0.0326238
0.405966 0.0720684 0.00746166
0.354726 0.000167849 9.15541e-05
0.282338 0 0
0.282338 0 0
0.282338 0 0
0.00323491 0.238483 0.207706
0.0031281 0.221942 0.190692
0.00299077 0.206195 0.174365
0.0202029 0.272175 0.121294
0.377874 0.273976 0.0655985
0.629725 0.236728 0.0244297
0.534142 0.00614939 0.000518807
0.282338 0 0
0.282338 0 0
0.00790417 0.390524 0.345113
0.00717174 0.375067 0.325536
0.00656138 0.360235 0.308339
0.00584421 0.34548 0.291524
0.21236 0.465278 0.258747
0.61033 0.473289 0.193805
0.803601 0.45008 0.1346
0.618067 0.0551461 0.000762951
0.282338 0 0
0.0297246 0.563928 0.507668
0.0235294 0.540719 0.48426
0.0193179 0.521019 0.463783
0.0164034 0.503395 0.445975
0.0142519 0.486381 0.430991
0.485267 0.633692 0.428916
0.788449 0.65301 0.378607
0.854002 0.632212 0.344991
0.717678 0.192493 0.00299077
0.0671397 0.60943 0.596902
0.0618601 0.608118 0.589105
0.057496 0.607156 0.58143
0.0539254 0.606226 0.573587
0.0509346 0.605539 0.565957
0.0484779 0.604883 0.558358
0.720348 0.738323 0.637797
0.871519 0.79266 0.650126
0.870848 0.769924 0.546105
0.180102 0.640757 0.659037
0.162875 0.636667 0.651621
0.147326 0.632731 0.644892
0.132647 0.628931 0.638956
0.119783 0.625269 0.633387
0.108476 0.621744 0.62797
0.0981155 0.618555 0.622309
0.867811 0.800183 0.74844
0.877958 0.813916 0.744595
0.000915541 0.109056 0.265324
0.00483711 0.111925 0.271885
0.0578164 0.108309 0.277607
0.332555 0.0941939 0.241901
0.225925 0.000228885 0.00737011
0.35996 0.000823987 0.00552377
0.356817 0.000503548 0.00218204
0.282338 0 0
0.282338 0 0
0 0.0542458 0.188174
0.000335698 0.0623789 0.202487
0.0210117 0.0726024 0.223011
0.253056 0.0667735 0.196918
0.302007 0.0015259 0.0209506
0.324208 0.000350958 0.00292973
0.355016 0.000366217 0.00125124
0.282338 0 0
0.282338 0 0
0 0.0381628 0.143816
1.5259e-05 0.0523995 0.165957
0.00575265 0.0793622 0.201984
0.19791 0.0883955 0.188632
0.392966 0.0220645 0.0597696
0.286015 0.000122072 0.00148013
0.353643 0.000259403 0.000717174
0.282338 0 0
0.282338 0 0
0.00109865 0.105989 0.193454
0.000122072 0.101244 0.182177
0.000717174 0.130571 0.196292
0.155627 0.194125 0.224506
0.439597 0.146868 0.127337
0.489143 0.0109865 0.0148165
0.35198 0.000213626 0.000457771
0.282338 0 0
0.282338 0 0
0.00311284 0.239521 0.270665
0.00288396 0.224109 0.253559
0.00265507 0.209171 0.237812
0.012192 0.295186 0.225406
0.38883 0.323766 0.199313
0.646326 0.283375 0.112932
0.654856 0.0352331 0.0127871
0.282338 0 0
0.282338 0 0
0.00794995 0.387274 0.370962
0.00727855 0.371405 0.353155
0.00665293 0.356054 0.336019
0.00602731 0.341131 0.319158
0.184924 0.479377 0.305058
0.609506 0.486366 0.247059
0.803052 0.460761 0.181735
0.708339 0.102937 0.00755322
0.282338 0 0
0.0283665 0.556588 0.50837
0.0226596 0.534432 0.48571
0.0188449 0.515816 0.465721
0.0160678 0.4981 0.448508
0.0139773 0.481636 0.433616
0.472526 0.633402 0.437171
0.783398 0.651698 0.387655
0.853529 0.632364 0.356283
0.716869 0.191043 0.00294499
0.0664988 0.609323 0.596078
0.0612802 0.608042 0.588159
0.057023 0.607004 0.580438
0.0535134 0.606226 0.57261
0.0505989 0.605539 0.564874
0.0482185 0.604791 0.557458
0.713344 0.737331 0.636713
0.871458 0.792493 0.649271
0.870863 0.765286 0.53785
0.175357 0.63975 0.65716
0.158434 0.635584 0.649607
0.143053 0.631601 0.643183
0.128725 0.627863 0.637354
0.116381 0.624216 0.631861
0.105364 0.620813 0.626352
0.0952926 0.61767 0.620737
0.864057 0.798321 0.744717
0.877745 0.813291 0.741299
0.161532 0.416632 0.547173
0.160662 0.40058 0.537911
0.216342 0.401648 0.543786
0.374777 0.395193 0.55346
0.654612 0.370977 0.519585
0.358144 0.00205997 0.0348974
0.359136 0.00187686 0.0299535
0.360784 0.00137331 0.0163272
0.282338 0 0
0.0781262 0.33756 0.486564
0.0829175 0.324681 0.477592
0.130938 0.325399 0.482734
0.287877 0.324132 0.489632
0.580819 0.30428 0.46183
0.440772 0.00654612 0.0798352
0.36025 0.00154116 0.0210117
0.360861 0.00106813 0.00956741
0.282338 0 0
0.0204013 0.270481 0.419669
0.030045 0.263615 0.416129
0.0595254 0.266514 0.421958
0.209751 0.275822 0.435203
0.512489 0.259358 0.411444
0.555428 0.0509651 0.185321
0.360891 0.0012665 0.0135958
0.360098 0.000823987 0.00556954
0.282338 0 0
0.000488289 0.209659 0.335851
0.00546273 0.24387 0.370535
0.0189059 0.250706 0.378897
0.152209 0.290013 0.414313
0.453849 0.292683 0.39617
0.631479 0.187167 0.270085
0.360647 0.000991836 0.00814832
0.358511 0.000640879 0.0033875
0.282338 0 0
0.00315862 0.25658 0.347585
0.00282292 0.240177 0.332311
0.00154116 0.277729 0.357504
0.0656901 0.353262 0.411276
0.398688 0.419043 0.436545
0.668162 0.371115 0.343633
0.757916 0.192645 0.192523
0.356985 0.000518807 0.00231937
0.282338 0 0
0.00851453 0.390341 0.420447
0.00767529 0.373999 0.405585
0.00697337 0.358267 0.390692
0.00631724 0.342962 0.376577
0.164401 0.506523 0.425269
0.621363 0.532036 0.401968
0.809659 0.50457 0.323705
0.770092 0.199756 0.143481
0.282338 0 0
0.0295872 0.552819 0.526787
0.0237736 0.530632 0.507118
0.0198672 0.511711 0.488243
0.0169833 0.494255 0.470192
0.0145571 0.477623 0.454795
0.448127 0.647684 0.484489
0.782254 0.661768 0.437995
0.853803 0.646204 0.414359
0.795987 0.288502 0.0930648
0.0694743 0.610056 0.6
0.0638743 0.608576 0.592279
0.059205 0.607462 0.584588
0.0553445 0.606577 0.576867
0.0521706 0.605936 0.569238
0.0495308 0.605142 0.561563
0.704753 0.738628 0.6439
0.871946 0.793851 0.656107
0.870054 0.763348 0.543404
0.17348 0.639261 0.656352
0.15671 0.635126 0.64889
0.141253 0.631083 0.642405
0.127031 0.627497 0.636683
0.114931 0.623728 0.631189
0.104173 0.620417 0.625666
0.0940871 0.617319 0.619913
0.860548 0.796857 0.742718
0.877684 0.812985 0.740032
0.509178 0.681483 0.686687
0.487495 0.666453 0.680934
0.484611 0.656703 0.677455
0.542947 0.662699 0.681758
0.664485 0.658412 0.694667
0.827771 0.643931 0.717494
0.326421 0.00531014 0.116625
0.336217 0.00442512 0.0960098
0.350851 0.0027924 0.0558785
0.412787 0.624872 0.663737
0.393835 0.609186 0.65832
0.38732 0.593973 0.664286
0.4477 0.596139 0.670832
0.592691 0.591669 0.691005
0.8177 0.574289 0.668574
0.429099 0.0107729 0.145418
0.347036 0.00320439 0.066331
0.356359 0.00225834 0.0409247
0.317174 0.561563 0.642298
0.303868 0.543023 0.632273
0.302693 0.528466 0.624063
0.365576 0.531975 0.630182
0.524483 0.532403 0.645899
0.762585 0.50956 0.623957
0.639643 0.0922408 0.306081
0.353674 0.002533 0.0487526
0.359045 0.00187686 0.0300603
0.215717 0.503731 0.601297
0.216678 0.489677 0.593439
0.215549 0.475441 0.58468
0.281682 0.48043 0.591379
0.452323 0.49099 0.609506
0.712428 0.467353 0.588495
0.757168 0.253361 0.414099
0.357687 0.00210575 0.0363775
0.360189 0.00157168 0.021622
0.116228 0.479332 0.567864
0.125673 0.470619 0.562936
0.128374 0.459571 0.555398
0.19144 0.468116 0.562646
0.406149 0.5093 0.591592
0.676921 0.505852 0.582055
0.819333 0.419409 0.476493
0.359396 0.00177005 0.0272526
0.360891 0.00131228 0.0146639
0.00874342 0.413794 0.484154
0.00773632 0.396551 0.469291
0.00695811 0.382666 0.457633
0.0584726 0.478553 0.533928
0.296574 0.55845 0.585031
0.636316 0.615579 0.606851
0.823697 0.576547 0.531533
0.815488 0.371878 0.394095
0.360906 0.00109865 0.0102083
0.0400854 0.561288 0.572366
0.0298772 0.538018 0.551354
0.0235752 0.518135 0.533349
0.0194247 0.499199 0.517754
0.0165713 0.481407 0.5028
0.407721 0.678782 0.583246
0.789715 0.694942 0.568887
0.848951 0.679911 0.531868
0.827466 0.39324 0.356039
0.0912642 0.616449 0.618219
0.0816968 0.61355 0.611841
0.073991 0.611444 0.604974
0.0679026 0.60972 0.59794
0.0629435 0.608362 0.590967
0.0586404 0.607401 0.58349
0.685115 0.750286 0.677592
0.874281 0.800076 0.688258
0.868879 0.770672 0.582971
0.182849 0.641276 0.660105
0.165454 0.637385 0.652766
0.14963 0.633265 0.645899
0.134966 0.629526 0.639841
0.121752 0.625849 0.634302
0.110338 0.622278 0.629038
0.099855 0.619028 0.623362
0.858167 0.797894 0.748363
0.878187 0.814588 0.748241
0.821393 0.822583 0.797498
0.808072 0.818677 0.794339
0.797909 0.815717 0.792157
0.800839 0.816556 0.792782
0.839063 0.83003 0.788266
0.874052 0.833188 0.795361
0.857679 0.802762 0.772549
0.312978 0.00590524 0.136706
0.312978 0.00590524 0.136706
0.770855 0.814878 0.783444
0.748623 0.803357 0.764904
0.728771 0.79292 0.752361
0.724804 0.786191 0.745068
0.771313 0.792981 0.745144
0.870436 0.793545 0.765118
0.845808 0.7635 0.749065
0.433448 0.0261692 0.236149
0.312978 0.00590524 0.136706
0.687953 0.775784 0.738811
0.66273 0.763272 0.730266
0.640681 0.750698 0.72192
0.638727 0.743297 0.71635
0.695781 0.750362 0.719768
0.807248 0.748196 0.738079
0.836973 0.722698 0.732219
0.603342 0.121782 0.400885
0.312978 0.00590524 0.136706
0.594171 0.733318 0.711803
0.570932 0.719112 0.703929
0.54789 0.704829 0.69691
0.545739 0.695827 0.692714
0.60708 0.703334 0.697765
0.728985 0.702586 0.709987
0.832105 0.68304 0.71809
0.723201 0.270649 0.52578
0.323751 0.00546273 0.12108
0.499519 0.694896 0.694423
0.478126 0.679973 0.686992
0.456672 0.664851 0.679911
0.454673 0.65565 0.676158
0.516548 0.662654 0.680095
0.654643 0.672251 0.725032
0.840726 0.658503 0.719768
0.8038 0.420829 0.599069
0.34136 0.00389105 0.08336
0.396094 0.679652 0.694591
0.37525 0.665751 0.68661
0.356619 0.650339 0.683116
0.356207 0.638346 0.678325
0.433082 0.648783 0.686305
0.634012 0.687953 0.715984
0.83032 0.679225 0.709407
0.828824 0.5935 0.65922
0.348837 0.00300603 0.0610361
0.174151 0.621805 0.652216
0.12224 0.592477 0.62768
0.0829023 0.566064 0.606638
0.0558633 0.541604 0.587991
0.270115 0.64979 0.671366
0.548608 0.717586 0.710735
0.801343 0.755337 0.728328
0.848402 0.733028 0.695994
0.82948 0.551186 0.588815
0.187594 0.642329 0.661982
0.169772 0.638437 0.654704
0.153918 0.634424 0.647654
0.139116 0.630549 0.641535
0.12549 0.627024 0.636011
0.113741 0.623468 0.630564
0.637278 0.777981 0.741192
0.880003 0.818311 0.768078
0.870115 0.798901 0.696284
0.234989 0.657816 0.678599
0.217395 0.651759 0.672389
0.196002 0.644541 0.665156
0.178302 0.64033 0.658381
0.162753 0.636713 0.65153
0.147951 0.632868 0.645167
0.133944 0.629267 0.639399
0.854734 0.809628 0.779782
0.881346 0.822232 0.783185
0.893599 0.853513 0.827695
0.893599 0.853513 0.827695
0.893599 0.853513 0.827695
0.893599 0.853513 0.827695
0.893599 0.853513 0.827695
0.893599 0.853513 0.827695
0.893599 0.853513 0.827695
0.893599 0.853513 0.827695
0.731273 0.2851 0.535012
0.893599 0.853513 0.827695
0.893599 0.853513 0.827695
0.893599 0.853513 0.827695
0.893599 0.853513 0.827695
0.893599 0.853513 0.827695
0.893599 0.853513 0.827695
0.893599 0.853513 0.827695
0.893599 0.853513 0.827695
0.719478 0.26392 0.521569
0.896666 0.850935 0.825925
0.890196 0.845502 0.821118
0.879973 0.840726 0.812879
0.871214 0.83769 0.809003
0.873838 0.838575 0.810086
0.893599 0.853513 0.827695
0.893599 0.853513 0.827695
0.893599 0.853513 0.827695
0.712627 0.252872 0.513863
0.862074 0.834531 0.806149
0.848692 0.830671 0.803433
0.8365 0.82678 0.801266
0.82681 0.824079 0.798856
0.829587 0.824842 0.799527
0.869108 0.836927 0.808316
0.892317 0.853147 0.825528
0.868864 0.825833 0.789136
0.742367 0.30544 0.547814
0.81709 0.821424 0.796445
0.802838 0.817121 0.793179
0.788846 0.813245 0.790448
0.778531 0.810773 0.789014
0.779385 0.815305 0.778836
0.816632 0.820081 0.772122
0.867552 0.823774 0.787549
0.854658 0.794003 0.766445
0.791074 0.427207 0.622278
0.763714 0.807157 0.786831
0.748241 0.803098 0.783932
0.729931 0.804578 0.774945
0.708949 0.793011 0.757946
0.705791 0.786114 0.748241
0.7523 0.792966 0.747494
0.859297 0.803693 0.763195
0.849577 0.778088 0.756786
0.826139 0.587594 0.69102
0.673732 0.787243 0.771923
0.656992 0.783932 0.769314
0.64361 0.781155 0.767391
0.632624 0.781003 0.765591
0.626017 0.776028 0.753521
0.6851 0.784176 0.749615
0.820279 0.814282 0.760952
0.85745 0.802121 0.772076
0.839246 0.733715 0.736446
0.234989 0.657816 0.678599
0.234989 0.657816 0.678599
0.234989 0.657816 0.678599
0.234989 0.657816 0.678599
0.234989 0.657816 0.678599
0.516487 0.753399 0.751492
0.756268 0.805188 0.785458
0.893599 0.853513 0.827695
0.88838 0.850034 0.816953
0.234989 0.657816 0.678599
0.234989 0.657816 0.678599
0.234989 0.657816 0.678599
0.234989 0.657816 0.678599
0.234989 0.657816 0.678599
0.234989 0.657816 0.678599
0.234989 0.657816 0.678599
0.855909 0.832761 0.804532
0.892592 0.850156 0.838117
0.893599 0.853513 0.827695
0.893599 0.853513 0.827695
0.893599 0.853513 0.827695
0.893599 0.853513 0.827695
0.893599 0.853513 0.827695
0.893599 0.853513 0.827695
0.893599 0.853513 0.827695
0.893599 0.853513 0.827695
0.893599 0.853513 0.827695
0.893599 0.853513 0.827695
0.893599 0.853513 0.827695
0.893599 0.853513 0.827695
0.893599 0.853513 0.827695
0.893599 0.853513 0.827695
0.893599 0.853513 0.827695
0.893599 0.853513 0.827695
0.893599 0.853513 0.827695
0.893599 0.853513 0.827695
0.893599 0.853513 0.827695
0.893599 0.853513 0.827695
0.893599 0.853513 0.827695
0.893599 0.853513 0.827695
0.893599 0.853513 0.827695
0.893599 0.853513 0.827695
0.893599 0.853513 0.827695
0.893599 0.853513 0.827695
0.893599 0.853513 0.827695
0.893599 0.853513 0.827695
0.893599 0.853513 0.827695
0.893599 0.853513 0.827695
0.893599 0.853513 0.827695
0.893599 0.853513 0.827695
0.893599 0.853513 0.827695
0.893599 0.853513 0.827695
0.893599 0.853513 0.827695
0.893599 0.853513 0.827695
0.893599 0.853513 0.827695
0.893599 0.853513 0.827695
0.893599 0.853513 0.827695
0.893599 0.853513 0.827695
0.893599 0.853513 0.827695
0.893599 0.853513 0.827695
0.893599 0.853513 0.827695
0.893599 0.853513 0.827695
0.893599 0.853513 0.827695
0.893599 0.853513 0.827695
0.893599 0.853513 0.827695
0.893599 0.853513 0.827695
0.894987 0.852476 0.826932
0.895903 0.84831 0.824475
0.897231 0.849378 0.82504
0.893599 0.853513 0.827695
0.893599 0.853513 0.827695
0.893599 0.853513 0.827695
0.896345 0.84863 0.824643
0.885481 0.842969 0.816373
0.873335 0.838422 0.809888
0.860594 0.834104 0.805768
0.851362 0.831418 0.803815
0.854994 0.832486 0.804349
0.893645 0.847242 0.823606
0.893599 0.853513 0.827695
0.893599 0.853513 0.827695
0.827909 0.824384 0.79913
0.812284 0.819944 0.795316
0.798398 0.815869 0.792264
0.78497 0.812299 0.789899
0.77615 0.810193 0.788663
0.784558 0.812207 0.789837
0.839719 0.827756 0.801953
0.893599 0.853513 0.827695
0.893599 0.853513 0.827695
0.234989 0.657816 0.678599
0.234989 0.657816 0.678599
0.234989 0.657816 0.678599
0.234989 0.657816 0.678599
0.234989 0.657816 0.678599
0.234989 0.657816 0.678599
0.665827 0.785748 0.770657
0.881132 0.841123 0.813443
0.893599 0.853513 0.827695
