luts/白夏.cube
TITLE "Generated by Resolve"
LUT_3D_SIZE 33
0 0 0
0 0 0
0 0 0
0 0 0
1.5259e-05 0 0
0.000396735 0 0
0.00233463 0 0
0.00860609 0 0
0.0241093 0 0
0.0442969 0 0
0.0705577 0 0
0.101015 0 0
0.128725 0 0
0.150423 0 0
0.171588 0 0
0.192874 0 0
0.21355 0 0
0.233341 0 0
0.252827 0 0
0.274556 0 0
0.282338 0 0
0.282338 0 0
0.282338 0 0
0.282338 0 0
0.282338 0 0
0.282338 0 0
0.282338 0 0
0.282338 0 0
0.282338 0 0
0.282338 0 0
0.282338 0 0
0.282338 0 0
0.282338 0 0
0 0 1.5259e-05
0 0 0
0 0 0
0 0 0
0 0 0
0.000183108 0 0
0.00146487 0 0
0.00584421 0 0
0.01738 0 0
0.0361944 0 0
0.0618601 0 0
0.0914778 0 0
0.120165 0 0
0.142855 0 0
0.165438 0 0
0.186862 0 0
0.207828 0 0
0.227955 0 0
0.24741 0 0
0.268269 0 0
0.282338 0 0
0.282338 0 0
0.282338 0 0
0.282338 0 0
0.282338 0 0
0.282338 0 0
0.282338 0 0
0.282338 0 0
0.282338 0 0
0.282338 0 0
0.282338 0 0
0.282338 0 0
0.282338 0 0
0 0 4.57771e-05
0 0 3.0518e-05
0 0 1.5259e-05
0 0 1.5259e-05
0 0 1.5259e-05
6.10361e-05 0 0
0.000793469 0 0
0.00381476 0 0
0.0124514 0 0
0.0290074 0 0
0.0522011 0 0
0.0818952 0 0
0.111528 0 0
0.136339 0 0
0.159289 0 0
0.180972 0 0
0.202258 0 0
0.222538 0 0
0.242084 0 0
0.262089 0 0
0.282338 0 0
0.282338 0 0
0.282338 0 0
0.282338 0 0
0.282338 0 0
0.282338 0 0
0.282338 0 0
0.282338 0 0
0.282338 0 0
0.282338 0 0
0.282338 0 0
0.282338 0 0
0.282338 0 0
0 0 0.00015259
0 0 9.15541e-05
0 0 6.10361e-05
0 0 4.57771e-05
0 0 3.0518e-05
1.5259e-05 0 3.0518e-05
0.000381476 0 1.5259e-05
0.00231937 0 0
0.00839246 0 0
0.021973 0 0
0.0435645 0 0
0.0703746 0 0
0.102632 0 0
0.130098 0 0
0.153124 0 0
0.17554 0 0
0.196612 0 0
0.216938 0 0
0.236698 0 0
0.256336 0 0
0.278859 0 0
0.282338 0 0
0.282338 0 0
0.282338 0 0
0.282338 0 0
0.282338 0 0
0.282338 0 0
0.282338 0 0
0.282338 0 0
0.282338 0 0
0.282338 0 0
0.282338 0 0
0.282338 0 0
0 1.5259e-05 0.000442512
0 1.5259e-05 0.000259403
0 0 0.000183108
0 0 0.00015259
0 0 0.000106813
1.5259e-05 0 7.62951e-05
0.000244144 0 6.10361e-05
0.0015259 0 6.10361e-05
0.00607309 0 6.10361e-05
0.0169528 0 4.57771e-05
0.0357977 0 4.57771e-05
0.0629435 0 1.5259e-05
0.0937209 0 0
0.123186 0 0
0.147097 0 0
0.169604 0 0
0.190906 0 0
0.211643 0 0
0.231434 0 0
0.250935 0 0
0.272236 0 0
0.282338 0 0
0.282338 0 0
0.282338 0 0
0.282338 0 0
0.282338 0 0
0.282338 0 0
0.282338 0 0
0.282338 0 0
0.282338 0 0
0.282338 0 0
0.282338 0 0
0.282338 0 0
0.000122072 0.000244144 0.000900282
0 0.000198367 0.000671397
0 0.000106813 0.000442512
0 4.57771e-05 0.000350958
0 1.5259e-05 0.000350958
1.5259e-05 0 0.000350958
0.000198367 0 0.000350958
0.00120546 0 0.000335698
0.0049897 0 0.000335698
0.0148928 0 0.000213626
0.0316472 0 0.000106813
0.0567483 0 4.57771e-05
0.0896315 0 1.5259e-05
0.115724 0 0
0.140856 0 0
0.163699 0 0
0.185183 0 0
0.20618 0 0
0.2262 0 0
0.245686 0 0
0.266163 0 0
0.282338 0 0
0.282338 0 0
0.282338 0 0
0.282338 0 0
0.282338 0 0
0.282338 0 0
0.282338 0 0
0.282338 0 0
0.282338 0 0
0.282338 0 0
0.282338 0 0
0.282338 0 0
0.000366217 0.00106813 0.00170901
1.5259e-05 0.000961318 0.00146487
0 0.000610361 0.0009308
0 0.000381476 0.0010071
0 0.000228885 0.00108339
1.5259e-05 0.000122072 0.0011902
0.000198367 3.0518e-05 0.00112917
0.00106813 1.5259e-05 0.000946059
0.0043183 0 0.000686656
0.0140841 0 0.000457771
0.0307622 0 0.000274662
0.0552834 0 0.000137331
0.0879988 0 4.57771e-05
0.118959 0 0
0.135195 0 0
0.157595 0 0
0.179599 0 0
0.200671 0 0
0.220829 0 0
0.240452 0 0
0.260288 0 0
0.282338 0 0
0.282338 0 0
0.282338 0 0
0.282338 0 0
0.282338 0 0
0.282338 0 0
0.282338 0 0
0.282338 0 0
0.282338 0 0
0.282338 0 0
0.282338 0 0
0.282338 0 0
0.000869764 0.00329595 0.0030518
0.000488289 0.0030518 0.00277714
3.0518e-05 0.00236515 0.002533
3.0518e-05 0.00163272 0.00248722
1.5259e-05 0.00105287 0.00257877
4.57771e-05 0.000793469 0.00285344
0.000213626 0.000534066 0.00230411
0.00102235 0.000228885 0.00166323
0.00404364 0.000122072 0.00120546
0.0135042 0.000106813 0.000854505
0.0314336 7.62951e-05 0.000549325
0.0567636 6.10361e-05 0.00030518
0.0917372 3.0518e-05 0.00015259
0.12726 0 4.57771e-05
0.147906 0 1.5259e-05
0.15285 0 0
0.173983 0 0
0.195117 0 0
0.215671 0 0
0.235325 0 0
0.25478 0 0
0.276905 0 0
0.282338 0 0
0.282338 0 0
0.282338 0 0
0.282338 0 0
0.282338 0 0
0.282338 0 0
0.282338 0 0
0.282338 0 0
0.282338 0 0
0.282338 0 0
0.282338 0 0
0.00169375 0.00798047 0.00523384
0.00166323 0.00737011 0.00479133
0.000350958 0.00665293 0.00547799
0.000137331 0.00512703 0.00531014
0.000122072 0.00387579 0.00541695
0.000106813 0.00270085 0.00447089
0.000289921 0.00227359 0.0037232
0.00108339 0.00166323 0.00291447
0.0041352 0.000946059 0.00202945
0.0133822 0.000671397 0.00140383
0.0323796 0.000564584 0.000946059
0.0614633 0.000442512 0.000579843
0.0989242 0.000320439 0.000335698
0.1364 0.000183108 0.00015259
0.168338 6.10361e-05 6.10361e-05
0.181933 0 1.5259e-05
0.168261 0 0
0.189487 0 0
0.210315 0 0
0.230167 0 0
0.249561 0 0
0.270588 0 0
0.282338 0 0
0.282338 0 0
0.282338 0 0
0.282338 0 0
0.282338 0 0
0.282338 0 0
0.282338 0 0
0.282338 0 0
0.282338 0 0
0.282338 0 0
0.282338 0 0
0.00283818 0.0165255 0.00874342
0.00283818 0.0154116 0.00801099
0.00216678 0.0142977 0.00917067
0.000457771 0.0125277 0.0102846
0.000427253 0.0102541 0.00877394
0.000335698 0.00790417 0.00732433
0.000411994 0.00628672 0.00581369
0.00112917 0.00564584 0.00463874
0.00373846 0.00459297 0.0033875
0.0127871 0.00302129 0.00224308
0.0327001 0.00236515 0.00151064
0.0654765 0.00196841 0.000961318
0.10721 0.00164797 0.000595102
0.149157 0.00120546 0.000320439
0.186618 0.000732433 0.000167849
0.215106 0.00030518 9.15541e-05
0.224109 3.0518e-05 3.0518e-05
0.183841 0 0
0.204822 0 0
0.225055 0 0
0.24448 0 0
0.264652 0 0
0.282338 0 0
0.282338 0 0
0.282338 0 0
0.282338 0 0
0.282338 0 0
0.282338 0 0
0.282338 0 0
0.282338 0 0
0.282338 0 0
0.282338 0 0
0.282338 0 0
0.0041352 0.0287633 0.0139773
0.00419623 0.0271611 0.0129854
0.0041352 0.0255589 0.0132906
0.00215152 0.0242313 0.0166476
0.000946059 0.0217594 0.0140841
0.000900282 0.0191806 0.0116426
0.00077821 0.014786 0.00889601
0.0012665 0.0136873 0.00724804
0.00349432 0.0132601 0.00540169
0.0104219 0.0111696 0.0037232
0.0301061 0.00801099 0.00233463
0.0663462 0.00666819 0.00151064
0.114031 0.00579843 0.000946059
0.161257 0.00515755 0.000564584
0.207843 0.00430304 0.000366217
0.246555 0.00296025 0.000259403
0.272145 0.00132753 0.00015259
0.274968 0.000213626 6.10361e-05
0.20177 0 0
0.219669 0 0
0.239399 0 0
0.259068 0 0
0.282338 0 0
0.282338 0 0
0.282338 0 0
0.282338 0 0
0.282338 0 0
0.282338 0 0
0.282338 0 0
0.282338 0 0
0.282338 0 0
0.282338 0 0
0.282338 0 0
0.0055848 0.0454261 0.021088
0.00561532 0.0431983 0.0197147
0.00567636 0.0412299 0.0182803
0.00535592 0.0390326 0.0209201
0.0030518 0.0373388 0.0206149
0.00167849 0.034699 0.0175937
0.00158694 0.0301976 0.0140078
0.00167849 0.0255589 0.0111696
0.00332647 0.0255894 0.0084535
0.00915541 0.0263676 0.00605783
0.0247196 0.0241855 0.00396735
0.0616312 0.0196994 0.00236515
0.117098 0.0166781 0.00144961
0.16936 0.0153811 0.000915541
0.222141 0.0141756 0.000671397
0.269276 0.0125124 0.000518807
0.309194 0.00926223 0.000381476
0.335286 0.00497444 0.000244144
0.33138 0.0009308 0.000106813
0.221576 0 0
0.234272 0 0
0.253758 0 0
0.275502 0 0
0.282338 0 0
0.282338 0 0
0.282338 0 0
0.282338 0 0
0.282338 0 0
0.282338 0 0
0.282338 0 0
0.282338 0 0
0.282338 0 0
0.282338 0 0
0.00717174 0.0673838 0.0299535
0.00724804 0.0641031 0.0280766
0.00746166 0.0613413 0.025864
0.00726329 0.0585184 0.0257572
0.00704967 0.0563363 0.0252537
0.00492866 0.0544289 0.0248112
0.00292973 0.0517433 0.0208743
0.00282292 0.0438087 0.0159304
0.0037232 0.0428931 0.0129854
0.00816358 0.0449378 0.00918593
0.0204776 0.0483406 0.00631724
0.0489662 0.0447395 0.0039826
0.109529 0.0369268 0.00233463
0.171267 0.0336309 0.00141909
0.228717 0.0317845 0.00109865
0.282155 0.0302281 0.000900282
0.331594 0.0277867 0.000717174
0.373388 0.0228885 0.000534066
0.402457 0.0146639 0.000350958
0.393896 0.00366217 0.000167849
0.243992 0 0
0.248447 0 0
0.269337 0 0
0.282338 0 0
0.282338 0 0
0.282338 0 0
0.282338 0 0
0.282338 0 0
0.282338 0 0
0.282338 0 0
0.282338 0 0
0.282338 0 0
0.282338 0 0
0.00949111 0.0934157 0.0387579
0.009308 0.0897993 0.0371405
0.0091249 0.0865034 0.0357214
0.0089723 0.0834821 0.0343786
0.00885023 0.0803082 0.0329747
0.0087129 0.0776226 0.0317998
0.0068513 0.0754406 0.0297551
0.00482185 0.0737926 0.0235447
0.00492866 0.0638132 0.0179294
0.00819409 0.0664988 0.0143282
0.018204 0.0738842 0.00981155
0.0398718 0.078706 0.00646983
0.0900282 0.0728618 0.00390631
0.163439 0.063386 0.00250248
0.228717 0.0593271 0.00184634
0.286885 0.056672 0.00143435
0.342229 0.05449 0.00114443
0.392889 0.0513771 0.0009308
0.436362 0.0445716 0.000701915
0.466499 0.0327306 0.000488289
0.461006 0.0123903 0.000274662
0.272023 0 1.5259e-05
0.263508 0 0
0.282338 0 0
0.282338 0 0
0.282338 0 0
0.282338 0 0
0.282338 0 0
0.282338 0 0
0.282338 0 0
0.282338 0 0
0.282338 0 0
0.282338 0 0
0.00956741 0.130266 0.0552377
0.00979629 0.125795 0.0528572
0.00996414 0.121416 0.050782
0.0101167 0.117189 0.0489967
0.0101778 0.113054 0.0472877
0.0101472 0.1093 0.0457618
0.0100557 0.105623 0.0442664
0.00817884 0.102983 0.0415351
0.00587472 0.108217 0.0295415
0.00895705 0.0986648 0.0197147
0.0159457 0.103426 0.0148775
0.0353246 0.115129 0.00988785
0.0719921 0.119432 0.00700389
0.14107 0.110796 0.00471504
0.221164 0.100175 0.00306706
0.288243 0.095613 0.00231937
0.3467 0.0927138 0.00184634
0.402152 0.0897383 0.00148013
0.452491 0.0852216 0.00117494
0.495903 0.0762798 0.000915541
0.527321 0.0603342 0.000656138
0.525231 0.0306706 0.000381476
0.309133 3.0518e-05 1.5259e-05
0.280858 0 0
0.282338 0 0
0.282338 0 0
0.282338 0 0
0.282338 0 0
0.282338 0 0
0.282338 0 0
0.282338 0 0
0.282338 0 0
0.282338 0 0
0.00605783 0.184955 0.0847334
0.00627146 0.178378 0.0808728
0.00657664 0.172244 0.0774701
0.00691234 0.166155 0.0740368
0.00730907 0.160159 0.0707561
0.00776684 0.154314 0.0676738
0.00823987 0.148608 0.0647746
0.00874342 0.143191 0.0621958
0.00796521 0.138399 0.0582437
0.00540169 0.150332 0.0397192
0.0153048 0.145708 0.0261845
0.0274968 0.156024 0.0199283
0.0649882 0.171115 0.0136416
0.123247 0.173663 0.010193
0.202869 0.164431 0.00639353
0.287694 0.150988 0.00395209
0.354711 0.142199 0.00291447
0.412161 0.136004 0.00228885
0.463127 0.130053 0.0018616
0.512291 0.125811 0.0015259
0.554376 0.117708 0.0011902
0.58468 0.100404 0.000885023
0.587716 0.0619059 0.000579843
0.362188 0.000198367 3.0518e-05
0.282338 0 0
0.282338 0 0
0.282338 0 0
0.282338 0 0
0.282338 0 0
0.282338 0 0
0.282338 0 0
0.282338 0 0
0.282338 0 0
0.00547799 0.233341 0.129702
0.00547799 0.228962 0.123766
0.00547799 0.224674 0.1178
0.00550851 0.220035 0.112917
0.00555428 0.215228 0.108431
0.00560006 0.210239 0.104082
0.00567636 0.205264 0.0999161
0.00576791 0.200366 0.0957809
0.00584421 0.195193 0.0916457
0.0053254 0.190097 0.0863203
0.00416571 0.204517 0.0560616
0.0196841 0.207538 0.0416876
0.0501869 0.219821 0.0329747
0.115602 0.232792 0.0256657
0.187228 0.238743 0.0204166
0.271458 0.229007 0.0126955
0.357977 0.209903 0.00683604
0.428519 0.19826 0.00454719
0.487648 0.18996 0.00335698
0.535897 0.182177 0.00259403
0.575509 0.173617 0.00205997
0.610162 0.162768 0.00163272
0.639338 0.147921 0.00132753
0.650477 0.11252 0.00106813
0.420783 0.000915541 9.15541e-05
0.282338 0 0
0.282338 0 0
0.282338 0 0
0.282338 0 0
0.282338 0 0
0.282338 0 0
0.282338 0 0
0.282338 0 0
0.00512703 0.275532 0.18439
0.00512703 0.270512 0.178958
0.00518807 0.265965 0.173159
0.0052491 0.261616 0.167666
0.00531014 0.257603 0.162081
0.00535592 0.253391 0.156329
0.00540169 0.249424 0.150713
0.00541695 0.245289 0.145144
0.00544747 0.241184 0.139773
0.00547799 0.237095 0.134401
0.00518807 0.233082 0.128161
0.00479133 0.253864 0.0872969
0.0276799 0.269993 0.0742809
0.0916457 0.282261 0.06215
0.172824 0.297307 0.0521248
0.255375 0.308232 0.0442054
0.340993 0.300023 0.0315404
0.433646 0.279484 0.0185855
0.503334 0.266545 0.0127413
0.560006 0.256107 0.00854505
0.609277 0.244709 0.00567636
0.646235 0.232105 0.00381476
0.670466 0.2159 0.00267033
0.694804 0.202716 0.00231937
0.707927 0.175448 0.00254826
0.475898 0.00323491 0.000167849
0.282338 0 0
0.282338 0 0
0.282338 0 0
0.282338 0 0
0.282338 0 0
0.282338 0 0
0.282338 0 0
0.00521859 0.322515 0.233906
0.00520333 0.317769 0.228916
0.00518807 0.31284 0.224002
0.00517281 0.308003 0.219104
0.00515755 0.303441 0.214191
0.00514229 0.298695 0.209277
0.00514229 0.294011 0.204181
0.00514229 0.289296 0.19913
0.00512703 0.284489 0.194003
0.00512703 0.279805 0.188968
0.00514229 0.27509 0.18378
0.00511177 0.270405 0.178363
0.00581369 0.308476 0.133043
0.0409552 0.331991 0.124102
0.134508 0.345281 0.108431
0.231846 0.362051 0.0963149
0.32462 0.372595 0.0856489
0.408881 0.363714 0.0660868
0.498436 0.344533 0.0433356
0.568215 0.333272 0.0319371
0.626566 0.325063 0.0244297
0.674403 0.316045 0.0184176
0.711299 0.302892 0.0123293
0.734371 0.282963 0.00691234
0.749203 0.27097 0.00595102
0.727031 0.211063 0.00352483
0.527657 0.0105898 0.00030518
0.282338 0 0
0.282338 0 0
0.282338 0 0
0.282338 0 0
0.282338 0 0
0.282338 0 0
0.00642405 0.363378 0.280293
0.0062562 0.35906 0.275242
0.00610361 0.354864 0.270191
0.00593576 0.35079 0.265461
0.00578317 0.346883 0.260761
0.00564584 0.343099 0.256046
0.00550851 0.339147 0.251484
0.00535592 0.335332 0.246891
0.00529488 0.331121 0.242496
0.00526436 0.326635 0.237964
0.00523384 0.322118 0.23328
0.00520333 0.317571 0.228656
0.00520333 0.312856 0.223957
0.00747692 0.368277 0.177874
0.0627146 0.3879 0.17641
0.183536 0.405051 0.162432
0.301747 0.420554 0.151644
0.393988 0.428595 0.141527
0.475319 0.423392 0.119615
0.558694 0.407828 0.0895552
0.626657 0.396048 0.068925
0.682841 0.389395 0.0564584
0.727123 0.381552 0.0466926
0.764599 0.373098 0.035584
0.792615 0.361395 0.0258793
0.779568 0.321279 0.0124971
0.743481 0.247745 0.0049897
0.57322 0.0266575 0.000457771
0.282338 0 0
0.282338 0 0
0.282338 0 0
0.282338 0 0
0.282338 0 0
0.00817884 0.400168 0.3299
0.00796521 0.396475 0.324239
0.00776684 0.392508 0.318807
0.00758373 0.388739 0.31342
0.00740063 0.385245 0.308232
0.00721752 0.381811 0.303243
0.00703441 0.378149 0.298283
0.00688182 0.374273 0.293614
0.00672923 0.370489 0.288838
0.00657664 0.36669 0.284245
0.00639353 0.36286 0.279561
0.00624094 0.358923 0.274891
0.00610361 0.355032 0.270207
0.00595102 0.35108 0.265553
0.0133364 0.41735 0.224475
0.0987106 0.438926 0.229984
0.247196 0.459831 0.219562
0.371817 0.471611 0.209888
0.45922 0.48307 0.200504
0.534524 0.482033 0.180285
0.619837 0.466117 0.144991
0.681117 0.457267 0.124315
0.73106 0.451606 0.110964
0.773358 0.445289 0.0971695
0.808499 0.441108 0.0855726
0.826108 0.432029 0.0720684
0.803037 0.370398 0.0253147
0.758297 0.284077 0.00738537
0.612924 0.0507515 0.000717174
0.282338 0 0
0.282338 0 0
0.282338 0 0
0.282338 0 0
0.0104219 0.437446 0.381506
0.010193 0.4336 0.376379
0.00996414 0.42974 0.371344
0.00972 0.425788 0.36614
0.00947585 0.421775 0.361074
0.00924697 0.418006 0.355856
0.00901808 0.414343 0.350454
0.00880446 0.410636 0.345022
0.00856031 0.406836 0.339742
0.00834669 0.403326 0.334325
0.00814832 0.399664 0.329091
0.00794995 0.396277 0.32398
0.0077821 0.392554 0.318807
0.00759899 0.38909 0.313802
0.00741588 0.385718 0.308766
0.0251011 0.459907 0.276127
0.144274 0.491157 0.284947
0.319142 0.50985 0.275456
0.431189 0.521981 0.264134
0.519448 0.534997 0.258824
0.59559 0.532815 0.240696
0.672816 0.52015 0.205234
0.725978 0.513741 0.184436
0.773785 0.509407 0.171588
0.812573 0.506661 0.1635
0.843381 0.513497 0.173648
0.83769 0.481239 0.126574
0.82211 0.422354 0.0559548
0.771908 0.320714 0.010956
0.644419 0.0839399 0.00103761
0.282338 0 0
0.282338 0 0
0.282338 0 0
0.0133974 0.480751 0.418784
0.0129549 0.475853 0.415167
0.0124971 0.471015 0.411597
0.0120851 0.466346 0.408164
0.0118257 0.461891 0.404868
0.0115816 0.457206 0.401541
0.0113375 0.452705 0.398398
0.0111238 0.448386 0.394919
0.0109102 0.444312 0.390539
0.010605 0.440513 0.38555
0.0103914 0.436973 0.380697
0.0101778 0.433249 0.376028
0.00996414 0.429709 0.371237
0.00973526 0.426001 0.366491
0.00950637 0.42237 0.361685
0.00927749 0.418585 0.356588
0.0438392 0.506096 0.323857
0.198566 0.53994 0.334829
0.382208 0.556054 0.323095
0.489464 0.56939 0.31545
0.577478 0.57937 0.313222
0.650874 0.579202 0.296986
0.715892 0.570977 0.263722
0.768078 0.56556 0.243336
0.811627 0.563317 0.236683
0.847166 0.56875 0.249226
0.847868 0.557519 0.232502
0.845426 0.527855 0.186618
0.835462 0.473457 0.103334
0.784527 0.357366 0.0158389
0.673396 0.120867 0.0015259
0.282338 0 0
0.282338 0 0
0.0197147 0.525383 0.461295
0.0187686 0.520607 0.455833
0.0179446 0.515923 0.450752
0.0171817 0.511177 0.445762
0.0164492 0.506279 0.441138
0.0158541 0.501549 0.436896
0.0153048 0.497002 0.432746
0.0147402 0.492668 0.428885
0.0141909 0.488304 0.42504
0.0137331 0.484092 0.421607
0.0133211 0.479942 0.41825
0.0129091 0.475471 0.414908
0.0125124 0.471092 0.411597
0.0121157 0.466621 0.408301
0.0118715 0.462333 0.405127
0.0116121 0.457877 0.401877
0.011368 0.453422 0.398779
0.0734722 0.552529 0.366827
0.269566 0.585718 0.385901
0.442283 0.600519 0.374304
0.553124 0.611048 0.368734
0.63679 0.621576 0.367559
0.697368 0.624689 0.353964
0.757366 0.617456 0.319753
0.807019 0.613138 0.304051
0.845426 0.614801 0.309102
0.853376 0.61648 0.311498
0.852064 0.598642 0.286
0.849439 0.570932 0.244923
0.843976 0.521263 0.162966
0.79765 0.394491 0.0231022
0.69836 0.159701 0.0021973
0.282338 0 0
0.0351263 0.584253 0.515724
0.0324712 0.575845 0.510033
0.0302892 0.567941 0.504662
0.0284733 0.561181 0.498848
0.0268101 0.555322 0.492775
0.0252842 0.549676 0.487129
0.0238956 0.544274 0.481056
0.0225834 0.539055 0.475471
0.0214542 0.533867 0.470314
0.0204623 0.529061 0.465156
0.0195163 0.524498 0.460212
0.018677 0.520073 0.455344
0.0178988 0.515724 0.450538
0.0172122 0.51133 0.445853
0.016495 0.506752 0.441459
0.0159457 0.502174 0.437385
0.0153811 0.49781 0.433371
0.014847 0.493431 0.42945
0.122164 0.589059 0.411429
0.350561 0.625254 0.437339
0.508324 0.639735 0.427665
0.616648 0.649378 0.423148
0.689555 0.66154 0.41976
0.741344 0.66743 0.409751
0.798901 0.660838 0.376837
0.840482 0.659831 0.366537
0.857786 0.666072 0.386404
0.856504 0.654002 0.365942
0.854994 0.636683 0.337865
0.853376 0.611444 0.297032
0.849271 0.565225 0.223682
0.816098 0.439719 0.0390631
0.720928 0.198947 0.00317388
0.0444343 0.603311 0.54197
0.0440681 0.603128 0.539788
0.0437171 0.60296 0.537514
0.0434119 0.602808 0.535348
0.0430457 0.602502 0.533135
0.0427253 0.602365 0.530877
0.0424048 0.602228 0.528878
0.0421454 0.602106 0.526696
0.0407721 0.599329 0.523735
0.0373999 0.590814 0.519402
0.0344854 0.582422 0.514443
0.0321813 0.574685 0.509285
0.0301671 0.567514 0.504311
0.0284886 0.561242 0.499046
0.0269169 0.555718 0.493248
0.0254978 0.550484 0.487938
0.0241398 0.54519 0.482063
0.0228428 0.540108 0.4766
0.0216983 0.535027 0.47129
0.185183 0.626856 0.458747
0.424506 0.664439 0.485298
0.573434 0.675776 0.477821
0.670298 0.687724 0.471214
0.736477 0.700786 0.469398
0.784665 0.707195 0.466407
0.832776 0.703685 0.435111
0.863539 0.708415 0.453071
0.861631 0.700664 0.442603
0.860075 0.689555 0.423041
0.858625 0.674235 0.393988
0.856352 0.649424 0.349844
0.853239 0.606439 0.279026
0.833371 0.490623 0.075639
0.0496223 0.605173 0.561868
0.0489357 0.605051 0.559792
0.0482948 0.604822 0.557656
0.0476081 0.604562 0.555596
0.0470436 0.604471 0.55346
0.0466011 0.604257 0.551385
0.0460975 0.604044 0.549416
0.045655 0.60383 0.547417
0.0451972 0.603647 0.545373
0.0447395 0.603449 0.54345
0.044358 0.603281 0.541497
0.044007 0.603098 0.539376
0.0437171 0.602945 0.537377
0.0434119 0.602808 0.535225
0.0430915 0.602533 0.533227
0.0427863 0.602396 0.531212
0.0424659 0.602258 0.529183
0.0422065 0.602121 0.527047
0.0416724 0.601373 0.524941
0.0381323 0.59292 0.520302
0.289006 0.670634 0.526604
0.507851 0.699519 0.547494
0.637156 0.709819 0.533349
0.724819 0.722148 0.521035
0.785977 0.735256 0.518456
0.823117 0.746868 0.519402
0.867384 0.745144 0.501259
0.867765 0.742718 0.503929
0.866163 0.733761 0.491035
0.864713 0.723674 0.473594
0.863005 0.709194 0.449363
0.859831 0.685786 0.406775
0.856428 0.644968 0.330465
0.0578012 0.607126 0.581949
0.0566873 0.606897 0.579828
0.0556649 0.606683 0.577615
0.0547341 0.6065 0.575494
0.0538796 0.606226 0.573343
0.0529946 0.606073 0.571252
0.0521859 0.605936 0.569268
0.0513771 0.605707 0.567239
0.0506905 0.60557 0.565164
