luts/白夏.cube
TITLE "Generated by Resolve"
LUT_3D_SIZE 5
0 0 0
0.0241093 0 0
0.21355 0 0
0.282338 0 0
0.282338 0 0
0.00169375 0.00798047 0.00523384
0.0041352 0.000946059 0.00202945
0.168261 0 0
0.282338 0 0
0.282338 0 0
0.00547799 0.233341 0.129702
0.00584421 0.195193 0.0916457
0.357977 0.209903 0.00683604
0.420783 0.000915541 9.15541e-05
0.282338 0 0
0.0351263 0.584253 0.515724
0.0214542 0.533867 0.470314
0.0153811 0.49781 0.433371
0.798901 0.660838 0.376837
0.720928 0.198947 0.00317388
0.19173 0.643366 0.663569
0.157153 0.635309 0.649104
0.128038 0.627741 0.637034
0.104875 0.6206 0.626093
0.878538 0.815579 0.753414
0 0.0009308 0.0232242
0.0316777 0.00109865 0.0167086
0.235523 3.0518e-05 0.000320439
0.282338 0 0
0.282338 0 0
0.000320439 0.0102693 0.0447242
0.00627146 0.0196078 0.035874
0.245731 7.62951e-05 0.000213626
0.282338 0 0
0.282338 0 0
0.00323491 0.238483 0.207706
0.00299077 0.206195 0.174365
0.377874 0.273976 0.0655985
0.534142 0.00614939 0.000518807
0.282338 0 0
0.0297246 0.563928 0.507668
0.0193179 0.521019 0.463783
0.0142519 0.486381 0.430991
0.788449 0.65301 0.378607
0.717678 0.192493 0.00299077
0.180102 0.640757 0.659037
0.147326 0.632731 0.644892
0.119783 0.625269 0.633387
0.0981155 0.618555 0.622309
0.877958 0.813916 0.744595
0.161532 0.416632 0.547173
0.216342 0.401648 0.543786
0.654612 0.370977 0.519585
0.359136 0.00187686 0.0299535
0.282338 0 0
0.0204013 0.270481 0.419669
0.0595254 0.266514 0.421958
0.512489 0.259358 0.411444
0.360891 0.0012665 0.0135958
0.282338 0 0
0.00315862 0.25658 0.347585
0.00154116 0.277729 0.357504
0.398688 0.419043 0.436545
0.757916 0.192645 0.192523
0.282338 0 0
0.0295872 0.552819 0.526787
0.0198672 0.511711 0.488243
0.0145571 0.477623 0.454795
0.782254 0.661768 0.437995
0.795987 0.288502 0.0930648
0.17348 0.639261 0.656352
0.141253 0.631083 0.642405
0.114931 0.623728 0.631189
0.0940871 0.617319 0.619913
0.877684 0.812985 0.740032
0.821393 0.822583 0.797498
0.797909 0.815717 0.792157
0.839063 0.83003 0.788266
0.857679 0.802762 0.772549
0.312978 0.00590524 0.136706
0.687953 0.775784 0.738811
0.640681 0.750698 0.72192
0.695781 0.750362 0.719768
0.836973 0.722698 0.732219
0.312978 0.00590524 0.136706
0.499519 0.694896 0.694423
0.456672 0.664851 0.679911
0.516548 0.662654 0.680095
0.840726 0.658503 0.719768
0.34136 0.00389105 0.08336
0.174151 0.621805 0.652216
0.0829023 0.566064 0.606638
0.270115 0.64979 0.671366
0.801343 0.755337 0.728328
0.82948 0.551186 0.588815
0.234989 0.657816 0.678599
0.196002 0.644541 0.665156
0.162753 0.636713 0.65153
0.133944 0.629267 0.639399
0.881346 0.822232 0.783185
0.893599 0.853513 0.827695
0.893599 0.853513 0.827695
0.893599 0.853513 0.827695
0.893599 0.853513 0.827695
0.893599 0.853513 0.827695
0.893599 0.853513 0.827695
0.893599 0.853513 0.827695
0.893599 0.853513 0.827695
0.893599 0.853513 0.827695
0.893599 0.853513 0.827695
0.893599 0.853513 0.827695
0.893599 0.853513 0.827695
0.893599 0.853513 0.827695
0.893599 0.853513 0.827695
0.893599 0.853513 0.827695
0.896345 0.84863 0.824643
0.873335 0.838422 0.809888
0.851362 0.831418 0.803815
0.893645 0.847242 0.823606
0.893599 0.853513 0.827695
0.234989 0.657816 0.678599
0.234989 0.657816 0.678599
0.234989 0.657816 0.678599
0.665827 0.785748 0.770657
0.893599 0.853513 0.827695
