luts/細雪.cube
TITLE "Generated by Resolve"
LUT_3D_SIZE 33
0 0 0
0 0 0
0 0 0
0 0 0
1.5259e-05 0 0
0.000335698 0 0
0.00166323 0 0
0.00518807 0 0
0.012726 0 0
0.0256962 0 0
0.0453346 0 0
0.0721752 0 0
0.104341 0 0
0.135393 0 0
0.168765 0 0
0.203464 0 0
0.238712 0 0
0.273793 0 0
0.310597 0 0
0.34992 0 0
0.390814 0 0
0.390814 0 0
0.390814 0 0
0.390814 0 0
0.390814 0 0
0.390814 0 0
0.390814 0 0
0.390814 0 0
0.390814 0 0
0.390814 0 0
0.390814 0 0
0.390814 0 0
0.390814 0 0
0 0 0
0 0 0
0 0 0
0 0 0
1.5259e-05 0 0
0.000213626 0 0
0.00120546 0 0
0.00419623 0 0
0.0112154 0 0
0.0230411 0 0
0.03888 0 0
0.0631876 0 0
0.094377 0 0
0.127031 0 0
0.15996 0 0
0.1944 0 0
0.229709 0 0
0.264622 0 0
0.300847 0 0
0.339422 0 0
0.384054 0 0
0.390814 0 0
0.390814 0 0
0.390814 0 0
0.390814 0 0
0.390814 0 0
0.390814 0 0
0.390814 0 0
0.390814 0 0
0.390814 0 0
0.390814 0 0
0.390814 0 0
0.390814 0 0
0 0 0
0 0 0
0 0 0
0 0 0
0 0 0
0.000122072 0 0
0.000808728 0 0
0.0031281 0 0
0.0090486 0 0
0.0204166 0 0
0.0363012 0 0
0.0548257 0 0
0.0855268 0 0
0.118654 0 0
0.151415 0 0
0.185412 0 0
0.220554 0 0
0.255604 0 0
0.291325 0 0
0.329198 0 0
0.371145 0 0
0.390814 0 0
0.390814 0 0
0.390814 0 0
0.390814 0 0
0.390814 0 0
0.390814 0 0
0.390814 0 0
0.390814 0 0
0.390814 0 0
0.390814 0 0
0.390814 0 0
0.390814 0 0
0 0 0
0 0 0
0 0 0
0 0 0
0 0 0
9.15541e-05 0 0
0.000579843 0 0
0.00228885 0 0
0.00695811 0 0
0.0169985 0 0
0.0327153 0 0
0.0537118 0 0
0.0765698 0 0
0.11014 0 0
0.142824 0 0
0.176425 0 0
0.21146 0 0
0.246586 0 0
0.281895 0 0
0.319234 0 0
0.359579 0 0
0.390814 0 0
0.390814 0 0
0.390814 0 0
0.390814 0 0
0.390814 0 0
0.390814 0 0
0.390814 0 0
0.390814 0 0
0.390814 0 0
0.390814 0 0
0.390814 0 0
0.390814 0 0
0 0 0
0 0 0
0 0 0
0 0 0
0 0 0
7.62951e-05 0 0
0.000503548 0 0
0.00187686 0 0
0.0056611 0 0
0.0145724 0 0
0.0292973 0 0
0.0509041 0 0
0.0756085 0 0
0.101671 0 0
0.134234 0 0
0.167712 0 0
0.202411 0 0
0.237598 0 0
0.272725 0 0
0.30956 0 0
0.348837 0 0
0.390814 0 0
0.390814 0 0
0.390814 0 0
0.390814 0 0
0.390814 0 0
0.390814 0 0
0.390814 0 0
0.390814 0 0
0.390814 0 0
0.390814 0 0
0.390814 0 0
0.390814 0 0
0 6.10361e-05 0
0 4.57771e-05 0
0 4.57771e-05 0
0 4.57771e-05 0
0 3.0518e-05 0
9.15541e-05 1.5259e-05 0
0.000488289 1.5259e-05 0
0.00183108 0 0
0.00549325 0 0
0.0138705 0 0
0.0276036 0 0
0.0480354 0 0
0.0756085 0 0
0.100862 0 0
0.125826 0 0
0.158938 0 0
0.193378 0 0
0.228595 0 0
0.263691 0 0
0.299855 0 0
0.338354 0 0
0.382589 0 0
0.390814 0 0
0.390814 0 0
0.390814 0 0
0.390814 0 0
0.390814 0 0
0.390814 0 0
0.390814 0 0
0.390814 0 0
0.390814 0 0
0.390814 0 0
0.390814 0 0
0 0.000335698 0
0 0.000274662 0
0 0.000244144 0
0 0.000213626 0
0 0.000198367 0
7.62951e-05 0.000198367 0
0.00047303 0.00015259 0
0.0018616 9.15541e-05 0
0.0055848 6.10361e-05 0
0.0144961 3.0518e-05 0
0.0287633 1.5259e-05 0
0.0485389 0 0
0.0762188 0 0
0.106706 0 0
0.124453 0 0
0.15021 0 0
0.184283 0 0
0.219471 0 0
0.254566 0 0
0.290196 0 0
0.328145 0 0
0.369924 0 0
0.390814 0 0
0.390814 0 0
0.390814 0 0
0.390814 0 0
0.390814 0 0
0.390814 0 0
0.390814 0 0
0.390814 0 0
0.390814 0 0
0.390814 0 0
0.390814 0 0
0 0.00112917 0
0 0.000976577 0
0 0.000869764 0
0 0.000823987 0
0 0.000717174 0
6.10361e-05 0.000717174 0
0.000457771 0.000717174 0
0.00187686 0.000610361 0
0.00582895 0.000457771 0
0.0151675 0.000335698 0
0.0313115 0.000228885 0
0.0529183 0.000122072 0
0.0817578 4.57771e-05 0
0.114733 0 0
0.138872 0 0
0.145632 0 0
0.175387 0 0
0.210285 0 0
0.245579 0 0
0.280827 0 0
0.318212 0 0
0.358419 0 0
0.390814 0 0
0.390814 0 0
0.390814 0 0
0.390814 0 0
0.390814 0 0
0.390814 0 0
0.390814 0 0
0.390814 0 0
0.390814 0 0
0.390814 0 0
0.390814 0 0
0 0.00291447 0
0 0.00257877 0
0 0.00239567 0
0 0.00233463 0
0 0.00216678 0
4.57771e-05 0.00201419 0
0.000396735 0.002121 0
0.00181582 0.00218204 0
0.00616464 0.00196841 0
0.0161288 0.00161746 0
0.0336156 0.00128176 0
0.0590066 0.000900282 0
0.0912795 0.000518807 0
0.123568 0.000213626 0
0.155428 3.0518e-05 0
0.173495 0 0
0.166476 0 0
0.201266 0 0
0.236637 0 0
0.271672 0 0
0.308385 0 0
0.347601 0 0
0.390814 0 0
0.390814 0 0
0.390814 0 0
0.390814 0 0
0.390814 0 0
0.390814 0 0
0.390814 0 0
0.390814 0 0
0.390814 0 0
0.390814 0 0
0.390814 0 0
0 0.00665293 0
0 0.00605783 0
0 0.00550851 0
0 0.00543221 0
0 0.00541695 0
3.0518e-05 0.00505074 0
0.00030518 0.00497444 0
0.00151064 0.00537118 0
0.00569161 0.00581369 0
0.0164187 0.0053254 0
0.0347448 0.00445563 0
0.0634012 0.00369268 0
0.10135 0.00282292 0
0.140078 0.00192264 0
0.176165 0.0010071 0
0.205432 0.00030518 0
0.220523 0 0
0.192248 0 0
0.227497 0 0
0.262562 0 0
0.298695 0 0
0.33727 0 0
0.381155 0 0
0.390814 0 0
0.390814 0 0
0.390814 0 0
0.390814 0 0
0.390814 0 0
0.390814 0 0
0.390814 0 0
0.390814 0 0
0.390814 0 0
0.390814 0 0
0 0.0141604 1.5259e-05
0 0.013077 1.5259e-05
0 0.0120851 1.5259e-05
0 0.0113375 0
0 0.0113527 0
3.0518e-05 0.01149 0
0.000213626 0.0107424 0
0.00111391 0.0112917 0
0.00462348 0.0128939 0
0.0151217 0.0142824 0
0.0353704 0.0139773 0
0.0672007 0.0127108 0
0.110155 0.0105135 0
0.152911 0.00859083 0
0.196918 0.00630198 0
0.23537 0.00373846 0
0.263416 0.00135805 0
0.275196 9.15541e-05 0
0.219486 0 0
0.253452 0 0
0.289097 0 0
0.327092 0 0
0.368582 0 0
0.390814 0 0
0.390814 0 0
0.390814 0 0
0.390814 0 0
0.390814 0 0
0.390814 0 0
0.390814 0 0
0.390814 0 0
0.390814 0 0
0.390814 0 0
0 0.025864 3.0518e-05
0 0.0242313 3.0518e-05
0 0.0227359 3.0518e-05
0 0.0211643 3.0518e-05
0 0.0204471 1.5259e-05
1.5259e-05 0.0208286 1.5259e-05
0.000137331 0.0216373 1.5259e-05
0.000854505 0.0218662 0
0.00361639 0.0241398 0
0.0129549 0.0282444 0
0.0328222 0.0315251 0
0.0666667 0.0311589 0
0.114656 0.0284428 0
0.162707 0.0252689 0
0.211719 0.0217441 0
0.257679 0.0170138 0
0.297932 0.0110475 0
0.326772 0.00477607 0
0.334447 0.000579843 0
0.24683 0 0
0.279774 0 0
0.317037 0 0
0.357168 0 0
0.390814 0 0
0.390814 0 0
0.390814 0 0
0.390814 0 0
0.390814 0 0
0.390814 0 0
0.390814 0 0
0.390814 0 0
0.390814 0 0
0.390814 0 0
1.5259e-05 0.0433967 7.62951e-05
1.5259e-05 0.0410925 7.62951e-05
1.5259e-05 0.0390631 7.62951e-05
1.5259e-05 0.0370947 6.10361e-05
0 0.0352178 6.10361e-05
1.5259e-05 0.0347143 4.57771e-05
9.15541e-05 0.0362402 3.0518e-05
0.000518807 0.0373846 3.0518e-05
0.00263981 0.0400702 1.5259e-05
0.00976577 0.0456397 1.5259e-05
0.0283513 0.0532845 0
0.0609598 0.0585794 0
0.113085 0.0575265 0
0.167559 0.053666 0
0.220356 0.0493477 0
0.272984 0.0436103 0
0.320745 0.0361944 0
0.363867 0.0261845 0
0.394949 0.0138094 0
0.397498 0.00230411 0
0.274617 0 0
0.307256 0 0
0.34638 0 0
0.390814 0 0
0.390814 0 0
0.390814 0 0
0.390814 0 0
0.390814 0 0
0.390814 0 0
0.390814 0 0
0.390814 0 0
0.390814 0 0
0.390814 0 0
6.10361e-05 0.0684215 0.000167849
6.10361e-05 0.0654612 0.00015259
4.57771e-05 0.0626383 0.000137331
4.57771e-05 0.06009 0.000137331
3.0518e-05 0.0575418 0.000122072
3.0518e-05 0.0551308 0.000122072
4.57771e-05 0.0544747 0.000106813
0.000274662 0.0584878 9.15541e-05
0.00161746 0.0615854 4.57771e-05
0.00712596 0.0680095 3.0518e-05
0.0225376 0.0796826 3.0518e-05
0.0539254 0.0917067 1.5259e-05
0.104402 0.0974746 1.5259e-05
0.165484 0.0952316 1.5259e-05
0.224125 0.0909743 0
0.280385 0.0850843 0
0.334157 0.0767834 0
0.385168 0.0660105 0
0.431083 0.0512703 0
0.463355 0.0312505 0
0.465217 0.00766003 0
0.30457 0 0
0.335912 0 0
0.379721 0 0
0.390814 0 0
0.390814 0 0
0.390814 0 0
0.390814 0 0
0.390814 0 0
0.390814 0 0
0.390814 0 0
0.390814 0 0
0.390814 0 0
0.000106813 0.110307 0.000686656
0.000106813 0.105394 0.000595102
9.15541e-05 0.10074 0.000503548
9.15541e-05 0.096376 0.000427253
9.15541e-05 0.0921798 0.000381476
9.15541e-05 0.0879835 0.000320439
7.62951e-05 0.0839399 0.000274662
0.000122072 0.0822614 0.000213626
0.000656138 0.0901656 0.000167849
0.00442512 0.0976272 9.15541e-05
0.0166934 0.108919 7.62951e-05
0.0447395 0.125353 4.57771e-05
0.0930648 0.137819 3.0518e-05
0.154788 0.141222 3.0518e-05
0.220905 0.139239 3.0518e-05
0.28307 0.135195 1.5259e-05
0.340261 0.128649 1.5259e-05
0.396353 0.120546 1.5259e-05
0.449241 0.108095 1.5259e-05
0.495689 0.0892348 1.5259e-05
0.531029 0.0598611 1.5259e-05
0.533135 0.0208896 0
0.336919 0 0
0.367117 0 0
0.390814 0 0
0.390814 0 0
0.390814 0 0
0.390814 0 0
0.390814 0 0
0.390814 0 0
0.390814 0 0
0.390814 0 0
0.390814 0 0
7.62951e-05 0.168444 0.0030518
9.15541e-05 0.161883 0.00265507
9.15541e-05 0.155291 0.00230411
0.000106813 0.14905 0.00199893
0.000122072 0.142977 0.00173953
0.000122072 0.137438 0.00151064
0.000122072 0.132357 0.00131228
0.000122072 0.127153 0.00112917
0.00015259 0.123842 0.000900282
0.00109865 0.134615 0.000564584
0.0100252 0.147295 0.000396735
0.0319066 0.163668 0.000289921
0.0793927 0.180865 0.000183108
0.143008 0.190036 0.000137331
0.211322 0.192416 0.000122072
0.281498 0.188846 7.62951e-05
0.343786 0.182498 6.10361e-05
0.403296 0.17612 4.57771e-05
0.45977 0.166964 4.57771e-05
0.512398 0.154147 4.57771e-05
0.558328 0.134676 3.0518e-05
0.592859 0.10132 3.0518e-05
0.600153 0.0448615 3.0518e-05
0.372625 0 0
0.390814 0 0
0.390814 0 0
0.390814 0 0
0.390814 0 0
0.390814 0 0
0.390814 0 0
0.390814 0 0
0.390814 0 0
0.390814 0 0
4.57771e-05 0.235386 0.0124056
4.57771e-05 0.229343 0.0110475
4.57771e-05 0.223087 0.0096437
4.57771e-05 0.216861 0.00843824
4.57771e-05 0.210849 0.00740063
4.57771e-05 0.204715 0.00643931
4.57771e-05 0.198367 0.00564584
6.10361e-05 0.19176 0.00494392
6.10361e-05 0.184985 0.0043183
9.15541e-05 0.179904 0.00360113
0.0015259 0.190799 0.0018616
0.0174411 0.206165 0.00151064
0.0556191 0.226001 0.00117494
0.125978 0.242878 0.000854505
0.200122 0.252567 0.000793469
0.274968 0.254612 0.000640879
0.348882 0.248798 0.000442512
0.414954 0.240848 0.00030518
0.473655 0.231098 0.000213626
0.526604 0.218662 0.000137331
0.574197 0.203937 9.15541e-05
0.617746 0.184588 9.15541e-05
0.652766 0.150439 9.15541e-05
0.666041 0.0852674 0.000106813
0.416297 0 0
0.390814 0 0
0.390814 0 0
0.390814 0 0
0.390814 0 0
0.390814 0 0
0.390814 0 0
0.390814 0 0
0.390814 0 0
7.62951e-05 0.292531 0.0377661
7.62951e-05 0.287068 0.034638
7.62951e-05 0.281666 0.0315251
6.10361e-05 0.27631 0.0286412
6.10361e-05 0.27097 0.0259098
6.10361e-05 0.265644 0.0233158
6.10361e-05 0.260365 0.0208286
4.57771e-05 0.255329 0.0185702
4.57771e-05 0.250248 0.0163729
4.57771e-05 0.244526 0.0146334
6.10361e-05 0.239734 0.0129702
0.00241093 0.256519 0.00753796
0.0268711 0.272908 0.00668345
0.0945296 0.292531 0.00630198
0.179843 0.30811 0.00547799
0.262516 0.319997 0.00512703
0.341039 0.323491 0.00427253
0.418753 0.314458 0.00292973
0.48687 0.304585 0.00199893
0.546151 0.292195 0.00134279
0.597681 0.27863 0.00077821
0.640208 0.261341 0.000411994
0.674281 0.237217 0.000228885
0.708583 0.204974 0.000259403
0.731945 0.142596 0.000442512
0.425132 0 0
0.390814 0 0
0.390814 0 0
0.390814 0 0
0.390814 0 0
0.390814 0 0
0.390814 0 0
0.390814 0 0
0.000106813 0.353201 0.0822766
0.000106813 0.347417 0.0770581
0.000106813 0.34168 0.0721904
9.15541e-05 0.335836 0.0675822
9.15541e-05 0.330129 0.0631571
9.15541e-05 0.324178 0.0588083
9.15541e-05 0.318349 0.0546578
9.15541e-05 0.312551 0.0506142
9.15541e-05 0.306889 0.0467842
7.62951e-05 0.301335 0.0431373
7.62951e-05 0.295689 0.0395819
7.62951e-05 0.290455 0.0362402
0.00462348 0.31957 0.0244297
0.0439918 0.338399 0.0224155
0.139986 0.35761 0.0217441
0.234043 0.374258 0.0201724
0.325353 0.3879 0.0199283
0.407782 0.390265 0.0179904
0.487892 0.381567 0.0142977
0.554788 0.371435 0.0113832
0.612589 0.358984 0.00839246
0.664179 0.343984 0.00517281
0.705272 0.323751 0.00251774
0.734981 0.297475 0.00106813
0.763821 0.266255 0.000869764
0.766262 0.194812 0.000961318
0.436576 0 0
0.390814 0 0
0.390814 0 0
0.390814 0 0
0.390814 0 0
0.390814 0 0
0.390814 0 0
0.00015259 0.414115 0.136309
0.000137331 0.409003 0.131456
0.000137331 0.403281 0.126513
0.000122072 0.397482 0.121416
0.000122072 0.391485 0.116167
0.000122072 0.385779 0.110948
0.000122072 0.379965 0.105837
0.000122072 0.374182 0.100725
0.000106813 0.368582 0.095613
0.000106813 0.36286 0.0904707
0.000106813 0.356909 0.085359
0.000106813 0.350958 0.0799115
0.000106813 0.34493 0.0748455
0.0080415 0.389731 0.0557259
0.0692912 0.404791 0.0530556
0.183246 0.424567 0.0527962
0.292363 0.439734 0.0517128
0.391287 0.450431 0.0508583
0.473548 0.451942 0.0476844
0.550103 0.446159 0.0413519
0.61416 0.436225 0.0357977
0.672358 0.424109 0.0294652
0.721859 0.408927 0.0225681
0.761883 0.389593 0.0148623
0.794293 0.363104 0.00633249
0.807523 0.329488 0.00288396
0.781338 0.237842 0.00132753
0.451194 1.5259e-05 0
0.390814 0 0
0.390814 0 0
0.390814 0 0
0.390814 0 0
0.390814 0 0
0.00030518 0.468482 0.191516
0.000289921 0.463508 0.186145
0.000274662 0.458534 0.180865
0.000259403 0.45359 0.175479
0.000244144 0.448417 0.170108
0.000228885 0.443214 0.16492
0.000213626 0.438132 0.159716
0.000198367 0.433036 0.154513
0.000183108 0.427939 0.149523
0.000167849 0.422766 0.144533
0.00015259 0.4177 0.139528
0.000137331 0.412467 0.134539
0.000137331 0.406897 0.129488
0.000137331 0.400961 0.124315
0.0160067 0.457053 0.100847
0.110521 0.464347 0.099733
0.237751 0.484352 0.102815
0.35906 0.49778 0.102388
0.454917 0.507973 0.102281
0.534417 0.512489 0.0983139
0.606058 0.508217 0.0901961
0.669917 0.498329 0.0812848
0.724865 0.486213 0.0714275
0.770397 0.471595 0.0611124
0.811826 0.454276 0.0480049
0.853605 0.434791 0.035935
0.82884 0.377737 0.00704967
0.794949 0.283223 0.00187686
0.470054 3.0518e-05 0
0.390814 0 0
0.390814 0 0
0.390814 0 0
0.390814 0 0
0.000579843 0.521324 0.253407
0.000549325 0.516381 0.247318
0.000518807 0.511421 0.241199
0.000488289 0.506477 0.235187
0.000457771 0.501396 0.229282
0.000427253 0.496437 0.223377
0.000411994 0.491646 0.21767
0.000396735 0.486732 0.212055
0.000366217 0.481895 0.206409
0.000350958 0.476951 0.200855
0.000320439 0.47187 0.195224
0.00030518 0.466926 0.1897
0.000289921 0.46186 0.184268
0.000274662 0.456794 0.178729
0.000244144 0.451514 0.173281
0.0327001 0.512551 0.153582
0.158358 0.52134 0.15523
0.30277 0.540383 0.161379
0.426123 0.553063 0.16228
0.515862 0.565179 0.163348
0.590051 0.570611 0.161471
0.661723 0.56556 0.152132
0.721172 0.55697 0.143648
0.770886 0.545586 0.135607
0.815503 0.531044 0.123568
0.859586 0.517708 0.114672
0.868818 0.488365 0.080293
0.848447 0.428672 0.0200351
0.806561 0.327535 0.00277714
0.494438 0.000106813 0
0.390814 0 0
0.390814 0 0
0.390814 0 0
0.00111391 0.574197 0.320699
0.00105287 0.569314 0.314244
0.000991836 0.564355 0.307668
0.0009308 0.55938 0.301335
0.000869764 0.554452 0.294972
0.000823987 0.549523 0.288869
0.00077821 0.544549 0.282704
0.000732433 0.539727 0.276417
0.000686656 0.534829 0.270176
0.000656138 0.52987 0.26389
0.000610361 0.524804 0.257664
0.000579843 0.519753 0.251484
0.000534066 0.514824 0.245319
0.000503548 0.509773 0.239124
0.00047303 0.504707 0.232914
0.000442512 0.499474 0.226886
0.0610513 0.563989 0.212467
0.211322 0.578683 0.215152
0.370398 0.595148 0.222248
0.484428 0.607813 0.223087
0.573388 0.619837 0.226902
0.646281 0.623392 0.227573
0.713069 0.619516 0.220554
0.765881 0.611856 0.213962
0.812894 0.601984 0.206714
0.858839 0.589426 0.20119
0.884916 0.573999 0.1906
0.878935 0.541024 0.138323
0.864652 0.481895 0.0527962
0.817853 0.372473 0.00415045
0.524575 0.000366217 1.5259e-05
0.390814 0 0
0.390814 0 0
0.00244144 0.631022 0.380209
0.00224308 0.62565 0.375204
0.00207523 0.620295 0.37026
0.00190738 0.61471 0.365286
0.00177005 0.609171 0.360296
0.00163272 0.603571 0.355398
0.00151064 0.598123 0.350729
0.00140383 0.592767 0.34519
0.00131228 0.587655 0.338674
0.00123598 0.582635 0.331899
0.00115969 0.577722 0.325383
0.00109865 0.572793 0.318776
0.00103761 0.567803 0.312215
0.000976577 0.56286 0.305699
0.000915541 0.55787 0.299153
0.000854505 0.552834 0.292729
0.000808728 0.547692 0.28632
0.100511 0.618891 0.269429
0.272114 0.633066 0.27422
0.435218 0.646052 0.281544
0.544121 0.659556 0.286137
0.630472 0.668803 0.292622
0.699199 0.671809 0.293538
0.757321 0.669596 0.287877
0.806485 0.663264 0.282567
0.854017 0.654124 0.280003
0.895674 0.644388 0.287266
0.892576 0.623606 0.253574
0.88719 0.591455 0.201129
0.876417 0.534401 0.104402
0.828656 0.417746 0.0061799
0.560555 0.0011902 3.0518e-05
0.390814 0 0
0.00720226 0.691295 0.442847
0.00637827 0.685466 0.436042
0.00572213 0.679713 0.429404
0.00512703 0.673808 0.423148
0.00460822 0.667887 0.417029
0.00415045 0.662181 0.4112
0.00376898 0.656611 0.405402
0.00343328 0.651148 0.399954
0.0031281 0.645838 0.394461
0.0028687 0.640528 0.389288
0.00260929 0.635096 0.383948
0.00238041 0.629572 0.378759
0.0021973 0.624186 0.373785
0.00201419 0.618631 0.36875
0.0018616 0.613031 0.363653
0.00172427 0.607385 0.358724
0.00158694 0.601801 0.353826
0.00146487 0.596155 0.348562
0.14786 0.671336 0.324575
0.344213 0.681895 0.33547
0.499809 0.695293 0.34464
0.606485 0.706004 0.352621
0.686076 0.713832 0.358053
0.744274 0.718685 0.359976
0.795666 0.717311 0.356252
0.846693 0.710338 0.355154
0.896086 0.702831 0.364858
0.901106 0.690105 0.348714
0.898589 0.670314 0.316945
0.89456 0.639857 0.264652
0.885481 0.586236 0.166323
0.838575 0.462852 0.00914015
0.595361 0.00358587 6.10361e-05
0.0256199 0.750988 0.517891
0.025452 0.751003 0.514427
0.0252995 0.751019 0.511086
0.0215915 0.74284 0.502724
0.0184329 0.735042 0.494072
0.0157931 0.727886 0.485542
0.013611 0.720974 0.477302
0.0118105 0.714366 0.469566
0.0102083 0.707805 0.462135
0.00894179 0.701564 0.454887
0.00788891 0.695674 0.448035
0.00697337 0.689738 0.441077
0.00619516 0.683864 0.434119
0.00553903 0.67808 0.427573
0.00495918 0.672023 0.421241
0.00447089 0.666209 0.415305
0.00402838 0.660502 0.409384
0.00364691 0.654765 0.403418
0.00331121 0.649149 0.397711
0.211429 0.716045 0.383185
0.42443 0.728054 0.400732
0.568689 0.741619 0.413016
0.669703 0.749905 0.421683
0.736126 0.757748 0.425132
0.787015 0.763256 0.42681
0.83801 0.760906 0.427024
0.886885 0.755688 0.431876
0.907897 0.747646 0.429725
0.906371 0.733639 0.408347
0.904005 0.714916 0.377081
0.900175 0.685664 0.327688
0.892744 0.634989 0.2318
0.847501 0.507118 0.0136873
0.0280613 0.751324 0.551537
0.0278019 0.751232 0.54876
0.0275273 0.751232 0.545953
0.0272831 0.751156 0.54316
0.0270085 0.75108 0.540185
0.0267948 0.751064 0.53695
0.0265812 0.751049 0.533578
0.0263676 0.751034 0.530221
0.026154 0.751019 0.52697
0.0259861 0.751019 0.523598
0.0257725 0.751003 0.520226
0.0255741 0.750988 0.516945
0.0254063 0.751003 0.513481
0.0243992 0.749111 0.508934
0.020676 0.740581 0.500328
0.0176089 0.732998 0.491585
0.0151064 0.725872 0.483009
0.0130159 0.718898 0.47483
0.0112612 0.712184 0.467079
0.00968948 0.705501 0.459251
0.292424 0.763821 0.444968
0.506554 0.777691 0.466087
0.638193 0.787961 0.479957
0.725353 0.795819 0.485527
0.782452 0.802365 0.489448
0.829526 0.805982 0.494682
0.877501 0.805081 0.49865
0.913878 0.800259 0.506874
0.912703 0.790005 0.490593
0.911254 0.776562 0.468116
0.908919 0.758129 0.43595
0.905516 0.729442 0.387594
0.898817 0.680797 0.296361
0.0314336 0.752026 0.581384
0.0310826 0.75198 0.578653
0.0307469 0.751949 0.57583
0.0304112 0.751842 0.573114
0.0300755 0.751812 0.570291
0.0297398 0.75169 0.567559
0.0294499 0.75169 0.564721
0.02916 0.751598 0.562005
0.0288548 0.751492 0.559243
