luts/細雪.cube
TITLE "Generated by Resolve"
LUT_3D_SIZE 9
0 0 0
1.5259e-05 0 0
0.012726 0 0
0.104341 0 0
0.238712 0 0
0.390814 0 0
0.390814 0 0
0.390814 0 0
0.390814 0 0
0 0 0
0 0 0
0.0056611 0 0
0.0756085 0 0
0.202411 0 0
0.348837 0 0
0.390814 0 0
0.390814 0 0
0.390814 0 0
0 0.00291447 0
0 0.00216678 0
0.00616464 0.00196841 0
0.0912795 0.000518807 0
0.166476 0 0
0.308385 0 0
0.390814 0 0
0.390814 0 0
0.390814 0 0
1.5259e-05 0.0433967 7.62951e-05
0 0.0352178 6.10361e-05
0.00263981 0.0400702 1.5259e-05
0.113085 0.0575265 0
0.320745 0.0361944 0
0.274617 0 0
0.390814 0 0
0.390814 0 0
0.390814 0 0
4.57771e-05 0.235386 0.0124056
4.57771e-05 0.210849 0.00740063
6.10361e-05 0.184985 0.0043183
0.0556191 0.226001 0.00117494
0.348882 0.248798 0.000442512
0.574197 0.203937 9.15541e-05
0.416297 0 0
0.390814 0 0
0.390814 0 0
0.00030518 0.468482 0.191516
0.000244144 0.448417 0.170108
0.000183108 0.427939 0.149523
0.000137331 0.406897 0.129488
0.237751 0.484352 0.102815
0.606058 0.508217 0.0901961
0.811826 0.454276 0.0480049
0.470054 3.0518e-05 0
0.390814 0 0
0.00720226 0.691295 0.442847
0.00460822 0.667887 0.417029
0.0031281 0.645838 0.394461
0.0021973 0.624186 0.373785
0.00158694 0.601801 0.353826
0.499809 0.695293 0.34464
0.795666 0.717311 0.356252
0.898589 0.670314 0.316945
0.595361 0.00358587 6.10361e-05
0.0357519 0.753063 0.610315
0.0339971 0.752682 0.599634
0.0323949 0.7523 0.588754
0.0309758 0.751949 0.577905
0.0296788 0.751675 0.566735
0.0284581 0.751446 0.555398
0.749004 0.849454 0.590845
0.925063 0.880598 0.633234
0.918685 0.844099 0.559121
0.085893 0.763149 0.725322
0.0753185 0.761273 0.714336
0.0673991 0.759396 0.703883
0.0609598 0.757626 0.693446
0.0558328 0.756024 0.683192
0.0512703 0.755245 0.672663
0.0474403 0.754833 0.661891
0.877577 0.883589 0.744121
0.928161 0.891585 0.74229
0 0 0.000213626
1.5259e-05 0 0.000381476
0.0140688 0 0.000122072
0.114626 0 3.0518e-05
0.26038 0 0
0.390814 0 0
0.390814 0 0
0.390814 0 0
0.390814 0 0
0 3.0518e-05 0.000366217
0 7.62951e-05 0.000396735
0.00982681 0 9.15541e-05
0.0982986 0 1.5259e-05
0.21767 0 0
0.344533 0 0
0.390814 0 0
0.390814 0 0
0.390814 0 0
0 0.00436408 0.00111391
0 0.00395209 0.00047303
0.00724804 0.00514229 0.00030518
0.119158 0.00163272 6.10361e-05
0.211246 0 0
0.304631 0 0
0.390814 0 0
0.390814 0 0
0.390814 0 0
0 0.0689403 0.00560006
0 0.0549477 0.00401312
0.000900282 0.0618143 0.00140383
0.123018 0.0783246 0.000946059
0.345678 0.0445563 0.000228885
0.316869 0 0
0.390814 0 0
0.390814 0 0
0.390814 0 0
1.5259e-05 0.243748 0.0473793
0 0.224063 0.0361334
0 0.205966 0.0265965
0.0392157 0.246967 0.0142061
0.355077 0.275959 0.0102998
0.601358 0.220172 0.00283818
0.44802 0 0
0.390814 0 0
0.390814 0 0
0.00030518 0.462593 0.208148
0.000228885 0.442908 0.187137
0.000183108 0.422965 0.166567
0.000122072 0.402319 0.146258
0.224002 0.481834 0.121416
0.59942 0.506004 0.108461
0.807797 0.450706 0.0598459
0.466987 3.0518e-05 0
0.390814 0 0
0.00622568 0.683665 0.438468
0.0040589 0.660517 0.413657
0.00280766 0.63888 0.391226
0.00198367 0.616876 0.369558
0.00143435 0.594476 0.346838
0.490364 0.688502 0.335515
0.790219 0.711192 0.346761
0.897841 0.663874 0.308186
0.590753 0.00308232 6.10361e-05
0.0352026 0.752956 0.607034
0.0334478 0.75256 0.595911
0.0319371 0.752224 0.585061
0.0305333 0.751873 0.574136
0.0292668 0.751629 0.562936
0.0280613 0.751324 0.551629
0.743832 0.847898 0.585107
0.924926 0.880232 0.629129
0.917983 0.837873 0.550362
0.0821393 0.762509 0.721538
0.0724651 0.760586 0.710811
0.0651408 0.758801 0.700298
0.0591135 0.757046 0.689906
0.0542153 0.755581 0.679713
0.0499123 0.755108 0.669123
0.0463264 0.754696 0.658274
0.87396 0.882429 0.73933
0.928084 0.891127 0.738216
0 0.000442512 0.0218509
6.10361e-05 0.000457771 0.0299535
0.0222934 0.000137331 0.0286259
0.119478 0 0.00784314
0.274769 0 0.00437934
0.472145 0 0.00135805
0.390814 0 0
0.390814 0 0
0.390814 0 0
0 0.000762951 0.012665
0 0.00120546 0.0198215
0.0133516 0.00114443 0.0257115
0.128664 3.0518e-05 0.00715648
0.230091 0 0.0018616
0.407568 0 0.00047303
0.390814 0 0
0.390814 0 0
0.390814 0 0
0 0.00755322 0.0158083
0 0.00807202 0.0142977
0.00602731 0.0130465 0.0193332
0.137957 0.00520333 0.00828565
0.252628 0 0.0015259
0.354299 0 0.000183108
0.390814 0 0
0.390814 0 0
0.390814 0 0
0 0.0742351 0.0271305
0 0.0623941 0.0212406
0.000366217 0.0753185 0.0144045
0.123278 0.09897 0.014313
0.361654 0.0564889 0.00587472
0.384405 0 0.000335698
0.390814 0 0
0.390814 0 0
0.390814 0 0
0 0.244327 0.0775006
0 0.224491 0.0634928
0 0.205829 0.0513313
0.0266117 0.255436 0.0356909
0.352239 0.284504 0.0332647
0.607538 0.228885 0.0173342
0.518257 7.62951e-05 9.15541e-05
0.390814 0 0
0.390814 0 0
0.000289921 0.456672 0.219287
0.000228885 0.437201 0.199924
0.000167849 0.417716 0.181399
0.000137331 0.397498 0.163516
0.209354 0.480598 0.147219
0.593072 0.507622 0.146746
0.805814 0.453635 0.108446
0.529122 0.000427253 1.5259e-05
0.390814 0 0
0.00547799 0.67599 0.435676
0.00364691 0.6533 0.41294
0.00254826 0.632059 0.392233
0.00183108 0.610346 0.37293
0.00134279 0.588693 0.35285
0.478996 0.686076 0.348516
0.785214 0.708354 0.361517
0.89807 0.661677 0.328389
0.614542 0.00642405 9.15541e-05
0.0349584 0.752865 0.605447
0.0332799 0.752575 0.594766
0.0318151 0.752178 0.584146
0.0304265 0.751842 0.573312
0.02916 0.751598 0.562341
0.0280461 0.751308 0.551171
0.73817 0.847181 0.584176
0.924926 0.880247 0.629297
0.917525 0.832563 0.548623
0.078996 0.76199 0.718517
0.0703136 0.760098 0.708034
0.0633097 0.758297 0.697429
0.0577249 0.756649 0.68716
0.0530251 0.755489 0.67689
0.0489357 0.754986 0.666407
0.0454719 0.75462 0.655512
0.870405 0.881407 0.735409
0.928038 0.890776 0.735027
0.0009308 0.068452 0.262989
0.00469978 0.0630503 0.264073
0.0549325 0.0598764 0.278401
0.270558 0.0366979 0.264179
0.269734 0 0.0646067
0.487236 1.5259e-05 0.0470588
0.49575 0 0.0190127
0.390814 0 0
0.390814 0 0
1.5259e-05 0.0367132 0.180972
0.000701915 0.0384222 0.193881
0.0217288 0.0414588 0.214313
0.207233 0.0292058 0.209949
0.316915 0.000183108 0.0839399
0.41915 0 0.0303197
0.491569 0 0.0107881
0.390814 0 0
0.390814 0 0
0 0.0304417 0.116808
7.62951e-05 0.04065 0.145235
0.00642405 0.0480201 0.170031
0.157794 0.0445869 0.17409
0.353674 0.00703441 0.0979324
0.362936 0 0.0178836
0.488258 0 0.00590524
0.390814 0 0
0.390814 0 0
0 0.0995956 0.127626
0 0.0979477 0.123644
0.000900282 0.118105 0.139925
0.1149 0.146822 0.160723
0.376425 0.0984054 0.113085
0.494789 0.00207523 0.0364691
0.484581 0 0.00366217
0.390814 0 0
0.390814 0 0
1.5259e-05 0.254383 0.166049
0 0.23476 0.149432
0 0.215717 0.133318
0.02121 0.284031 0.133974
0.350271 0.307042 0.1402
0.612711 0.249134 0.0962692
0.646097 0.00195315 0.0155795
0.390814 0 0
0.390814 0 0
0.00030518 0.453391 0.259281
0.000228885 0.433677 0.23917
0.000183108 0.41413 0.219593
0.000137331 0.394293 0.200381
0.192447 0.484016 0.19443
0.586786 0.511254 0.200473
0.803189 0.455787 0.159548
0.644724 0.00222782 0.00166323
0.390814 0 0
0.00492866 0.668696 0.439353
0.00334173 0.646708 0.417273
0.00234989 0.625605 0.396704
0.00169375 0.604135 0.377661
0.0012665 0.582986 0.356924
0.467811 0.682872 0.357046
0.780301 0.704479 0.370947
0.898009 0.658457 0.340764
0.628473 0.00973526 0.000106813
0.0347143 0.752865 0.603983
0.033051 0.752483 0.593347
0.031632 0.752102 0.582803
0.0302892 0.751797 0.571984
0.0290379 0.751553 0.561166
0.0279393 0.751278 0.550118
0.73254 0.846311 0.582483
0.92491 0.880201 0.62884
0.917128 0.827161 0.546441
0.0762036 0.761486 0.715404
0.068101 0.759518 0.704936
0.0616007 0.757809 0.694545
0.0563516 0.756191 0.684367
0.0518349 0.755322 0.674006
0.0479591 0.754894 0.663554
0.0446784 0.754467 0.652796
0.866819 0.880385 0.73167
0.927993 0.890486 0.732311
0.125246 0.368277 0.598138
0.128099 0.348516 0.58262
0.181979 0.338079 0.578302
0.352071 0.331762 0.587045
0.611887 0.28542 0.573632
0.480842 0.000122072 0.174594
0.503532 0.000137331 0.156146
0.50341 6.10361e-05 0.0981918
0.390814 0 0
0.0538796 0.29221 0.52134
0.0617075 0.275456 0.507469
0.10576 0.265034 0.503334
0.266773 0.262623 0.512291
0.535058 0.22298 0.505486
0.49485 0.000442512 0.203372
0.503746 9.15541e-05 0.125765
0.502846 3.0518e-05 0.068513
0.390814 0 0
0.0118257 0.231937 0.435721
0.0234226 0.222065 0.43125
0.0471046 0.214115 0.428305
0.189151 0.214908 0.443244
0.459129 0.184924 0.43476
0.572274 0.0115663 0.275227
0.50338 6.10361e-05 0.0947585
0.50132 1.5259e-05 0.0457771
0.390814 0 0
3.0518e-05 0.198657 0.328008
0.00444038 0.226215 0.368078
0.0152132 0.221653 0.368582
0.123949 0.233188 0.391119
0.393027 0.222507 0.389425
0.610605 0.105394 0.308354
0.502693 3.0518e-05 0.0664073
0.499016 1.5259e-05 0.0300908
0.390814 0 0
4.57771e-05 0.284459 0.313161
3.0518e-05 0.264424 0.294118
0.000701915 0.296513 0.320668
0.0473335 0.337926 0.357885
0.33724 0.368032 0.379248
0.619669 0.308507 0.325765
0.759487 0.0723888 0.215564
0.496635 0 0.0213931
0.390814 0 0
0.000366217 0.459693 0.359167
0.000289921 0.439414 0.3402
0.000228885 0.419028 0.321965
0.000183108 0.398489 0.303624
0.183047 0.514565 0.351583
0.583307 0.534829 0.355688
0.804715 0.476524 0.308049
0.767224 0.0448005 0.127703
0.390814 0 0
0.00514229 0.663111 0.473899
0.00347906 0.641443 0.451392
0.00242618 0.620981 0.430701
0.00175479 0.600381 0.411048
0.00129702 0.580865 0.389944
0.454383 0.688807 0.409934
0.776928 0.707439 0.425101
0.899626 0.662333 0.398199
0.755413 0.038056 0.025742
0.0356298 0.753033 0.60972
0.0339208 0.752651 0.599145
0.0323796 0.7523 0.588464
0.0309758 0.751949 0.57792
0.0296788 0.751675 0.566934
0.0285191 0.751476 0.556008
0.726574 0.846937 0.58941
0.924498 0.876432 0.630396
0.916976 0.823362 0.555627
0.0749981 0.761151 0.713954
0.0672007 0.759319 0.703548
0.0607919 0.757549 0.693111
0.0556802 0.756039 0.682963
0.0512551 0.755245 0.672541
0.0475013 0.754772 0.662074
0.0442969 0.754437 0.651362
0.863325 0.879545 0.729442
0.927962 0.890333 0.730846
0.474372 0.673686 0.820401
0.453483 0.655222 0.816144
0.450034 0.63917 0.814099
0.50779 0.632044 0.818158
0.6607 0.630228 0.824216
0.877119 0.594675 0.807416
0.476631 0.000732433 0.328603
0.485008 0.000564584 0.299321
0.49926 0.000274662 0.220981
0.379583 0.608865 0.795666
0.363394 0.588815 0.777218
0.362615 0.570672 0.761517
0.425437 0.563439 0.755474
0.591836 0.563302 0.764614
0.81149 0.520623 0.753307
0.490074 0.00047303 0.278096
0.494408 0.000381476 0.254658
0.502358 0.000198367 0.186114
0.282689 0.540978 0.733394
0.274388 0.52166 0.718227
0.273564 0.50341 0.703853
0.339757 0.494041 0.699275
0.509026 0.492729 0.708812
0.748653 0.445701 0.695979
0.657038 0.00662242 0.385458
0.499763 0.000259403 0.216403
0.503594 0.000137331 0.154147
0.1794 0.487465 0.674342
0.186175 0.470039 0.661082
0.186908 0.450721 0.646708
0.250126 0.441627 0.642161
0.432334 0.444892 0.654261
0.686152 0.407218 0.640772
0.802365 0.137209 0.504356
0.502541 0.000183108 0.18204
0.503716 9.15541e-05 0.12401
0.0763867 0.488777 0.618814
0.0937514 0.475837 0.609018
0.102007 0.458946 0.595483
0.162142 0.452689 0.592721
0.36556 0.464958 0.605341
0.632853 0.450462 0.606699
0.826017 0.316823 0.521157
0.503716 0.000137331 0.151675
0.503395 6.10361e-05 0.0950179
0.000656138 0.489479 0.506905
0.000518807 0.469749 0.488289
0.000457771 0.454459 0.473823
0.0320897 0.522103 0.537667
0.264485 0.562112 0.567773
0.579538 0.592462 0.590326
0.811994 0.537179 0.542657
0.841047 0.244999 0.426963
0.502937 4.57771e-05 0.0740063
0.00740063 0.66598 0.564248
0.00503548 0.644526 0.543694
0.00350958 0.623697 0.523095
0.00251774 0.603143 0.502876
0.00183108 0.583734 0.482658
0.447791 0.714229 0.554833
0.775692 0.726101 0.565332
0.905089 0.682551 0.540246
0.827741 0.185824 0.321935
0.0416571 0.75407 0.640787
0.0393225 0.753689 0.630014
0.0372778 0.753277 0.618952
0.0354314 0.752956 0.608255
0.0336919 0.752651 0.597681
0.0321355 0.752209 0.586908
0.719661 0.853086 0.628214
0.924514 0.874388 0.65864
0.917739 0.824765 0.603891
0.0801404 0.762249 0.719707
0.0711528 0.760342 0.709194
0.0640726 0.75845 0.698665
0.0583352 0.756848 0.688365
0.0535439 0.75555 0.678203
0.049424 0.755047 0.667796
0.0459602 0.754681 0.657053
0.85977 0.879866 0.735759
0.928084 0.891112 0.737972
0.811994 0.894865 0.876356
0.799847 0.893172 0.875196
0.785946 0.882933 0.872084
0.779889 0.867414 0.870054
0.816495 0.859083 0.873182
0.920348 0.849882 0.883513
0.914199 0.809873 0.878508
0.44593 0.00125124 0.398825
0.44593 0.00125124 0.398825
0.749691 0.858457 0.8663
0.728878 0.842786 0.863157
0.70985 0.827741 0.859663
0.705608 0.814572 0.857801
0.750347 0.809445 0.861906
0.86627 0.801099 0.878141
0.907835 0.763668 0.871153
0.44593 0.00125124 0.398825
0.44593 0.00125124 0.398825
0.667247 0.805173 0.853697
0.644053 0.789334 0.850095
0.621897 0.77261 0.846235
0.617304 0.758099 0.843961
0.671534 0.754009 0.849485
0.799649 0.751614 0.864927
0.901488 0.713603 0.862776
0.44593 0.00125124 0.398825
0.44593 0.00125124 0.398825
0.572839 0.749981 0.83856
0.552148 0.732525 0.834974
0.529641 0.714397 0.831067
0.525902 0.698985 0.828779
0.582986 0.694667 0.833646
0.723812 0.69604 0.854246
0.895323 0.664179 0.854917
0.728939 0.0738994 0.652857
0.471458 0.000823987 0.343374
0.475105 0.706706 0.824765
0.45536 0.688731 0.820447
0.435096 0.670588 0.816052
0.432898 0.655039 0.813916
0.495552 0.649683 0.808438
0.659113 0.656016 0.817533
0.869154 0.626596 0.803418
0.843244 0.314092 0.708614
0.487373 0.000534066 0.29015
0.358099 0.709895 0.815534
0.338598 0.693049 0.797436
0.324117 0.676493 0.780728
0.329091 0.662562 0.76701
0.41442 0.660365 0.761868
0.608515 0.678248 0.770825
0.82063 0.661997 0.77557
0.886366 0.532021 0.715587
0.495445 0.000366217 0.248524
0.0331426 0.703014 0.704997
0.0195773 0.679088 0.683665
0.011841 0.656001 0.663264
0.00723278 0.633555 0.642725
0.220706 0.718212 0.719066
0.527092 0.749508 0.740749
0.775143 0.766537 0.755154
0.911879 0.73109 0.728878
0.874891 0.440818 0.627497
0.0800488 0.762234 0.719707
0.0711376 0.760342 0.709133
0.0640726 0.75845 0.698665
0.0583352 0.756848 0.68838
0.0535439 0.75555 0.678218
0.049424 0.755047 0.667735
0.706157 0.870817 0.723644
0.926787 0.884291 0.750591
0.920272 0.839185 0.715724
0.119799 0.767742 0.755444
0.103502 0.765774 0.741924
0.090135 0.763821 0.729473
0.0787671 0.762005 0.718273
0.0701152 0.760052 0.70782
0.0632181 0.758267 0.697292
0.0576333 0.756603 0.6869
0.855512 0.884474 0.770138
0.929381 0.89456 0.773373
0.93167 0.908598 0.889189
0.93167 0.908598 0.889189
0.93167 0.908598 0.889189
0.93167 0.908598 0.889189
0.93167 0.908598 0.889189
0.93167 0.908598 0.889189
0.93167 0.908598 0.889189
0.93167 0.908598 0.889189
0.44593 0.00125124 0.398825
0.93167 0.908598 0.889189
0.93167 0.908598 0.889189
0.930694 0.908507 0.889021
0.91928 0.90721 0.887587
0.92137 0.907469 0.887816
0.93167 0.908598 0.889189
0.93167 0.908598 0.889189
0.93167 0.908598 0.889189
0.44593 0.00125124 0.398825
0.90808 0.906096 0.886732
0.893629 0.904845 0.885283
0.87985 0.903365 0.883955
0.869535 0.902129 0.882948
0.871473 0.902358 0.883116
0.914641 0.906767 0.887266
0.93167 0.908598 0.889189
0.929122 0.896376 0.887709
0.44593 0.00125124 0.398825
0.858671 0.900725 0.881819
0.84625 0.899275 0.880339
0.833906 0.897826 0.878767
0.82472 0.896635 0.877745
0.826413 0.89688 0.877943
0.865339 0.901625 0.882582
0.92781 0.89044 0.88716
0.92018 0.84892 0.883375
0.44593 0.00125124 0.398825
0.813367 0.895064 0.876509
0.801419 0.893385 0.875334
0.789014 0.891615 0.874189
0.772885 0.877592 0.870237
0.766598 0.862242 0.868223
0.804852 0.854734 0.87158
0.919188 0.847242 0.883101
0.914031 0.808865 0.878325
0.794614 0.203265 0.736294
0.7617 0.887648 0.871199
0.742657 0.874647 0.867308
0.718547 0.856687 0.863539
0.697581 0.840574 0.859968
0.693462 0.827359 0.858167
0.739818 0.822141 0.862104
0.857359 0.819135 0.877302
0.911101 0.787411 0.874983
0.872557 0.511635 0.825391
0.675959 0.876417 0.86305
0.661051 0.874647 0.861845
0.645563 0.867796 0.859113
0.618769 0.848402 0.854978
0.613336 0.832898 0.852857
0.669703 0.82768 0.856031
0.807477 0.835309 0.870787
0.915206 0.81709 0.879545
0.902724 0.723995 0.864454
0.141909 0.770367 0.772381
0.141909 0.770367 0.772381
0.141909 0.770367 0.772381
0.141909 0.770367 0.772381
0.141909 0.770367 0.772381
0.519905 0.856062 0.847257
0.752514 0.886381 0.870207
0.93167 0.908598 0.889189
0.925872 0.878843 0.876005
0.141909 0.770367 0.772381
0.141909 0.770367 0.772381
0.141909 0.770367 0.772381
0.141909 0.770367 0.772381
0.141909 0.770367 0.772381
0.141909 0.770367 0.772381
0.141909 0.770367 0.772381
0.848417 0.899596 0.871458
0.931685 0.904601 0.864302
0.93167 0.908598 0.889189
0.93167 0.908598 0.889189
0.93167 0.908598 0.889189
0.93167 0.908598 0.889189
0.93167 0.908598 0.889189
0.93167 0.908598 0.889189
0.93167 0.908598 0.889189
0.93167 0.908598 0.889189
0.93167 0.908598 0.889189
0.93167 0.908598 0.889189
0.93167 0.908598 0.889189
0.93167 0.908598 0.889189
0.93167 0.908598 0.889189
0.93167 0.908598 0.889189
0.93167 0.908598 0.889189
0.93167 0.908598 0.889189
0.93167 0.908598 0.889189
0.93167 0.908598 0.889189
0.93167 0.908598 0.889189
0.93167 0.908598 0.889189
0.93167 0.908598 0.889189
0.93167 0.908598 0.889189
0.93167 0.908598 0.889189
0.93167 0.908598 0.889189
0.93167 0.908598 0.889189
0.93167 0.908598 0.889189
0.93167 0.908598 0.889189
0.93167 0.908598 0.889189
0.93167 0.908598 0.889189
0.93167 0.908598 0.889189
0.93167 0.908598 0.889189
0.93167 0.908598 0.889189
0.93167 0.908598 0.889189
0.93167 0.908598 0.889189
0.93167 0.908598 0.889189
0.93167 0.908598 0.889189
0.93167 0.908598 0.889189
0.93167 0.908598 0.889189
0.93167 0.908598 0.889189
0.93167 0.908598 0.889189
0.93167 0.908598 0.889189
0.93167 0.908598 0.889189
0.93167 0.908598 0.889189
0.93167 0.908598 0.889189
0.93167 0.908598 0.889189
0.93167 0.908598 0.889189
0.93167 0.908598 0.889189
0.93167 0.908598 0.889189
0.918196 0.907118 0.887526
0.90724 0.906004 0.886671
0.909453 0.906203 0.886824
0.93167 0.908598 0.889189
0.93167 0.908598 0.889189
0.93167 0.908598 0.889189
0.90428 0.90576 0.886381
0.889342 0.904418 0.884855
0.875685 0.902861 0.883528
0.862715 0.901274 0.882292
0.85301 0.900023 0.881178
0.85568 0.900343 0.881483
0.899763 0.905394 0.885924
0.93167 0.908598 0.889189
0.93167 0.908598 0.889189
0.825437 0.896742 0.877836
0.81265 0.894957 0.876432
0.800916 0.893324 0.875288
0.788663 0.891554 0.874159
0.77998 0.890318 0.87332
0.786679 0.891279 0.87396
0.836378 0.898146 0.879103
0.93167 0.908598 0.889189
0.93167 0.908598 0.889189
0.141909 0.770367 0.772381
0.141909 0.770367 0.772381
0.141909 0.770367 0.772381
0.141909 0.770367 0.772381
0.141909 0.770367 0.772381
0.141909 0.770367 0.772381
0.662242 0.874769 0.861921
0.878416 0.903166 0.883772
0.93167 0.908598 0.889189
