luts/細雪.cube
TITLE "Generated by Resolve"
LUT_3D_SIZE 5
0 0 0
0.012726 0 0
0.238712 0 0
0.390814 0 0
0.390814 0 0
0 0.00291447 0
0.00616464 0.00196841 0
0.166476 0 0
0.390814 0 0
0.390814 0 0
4.57771e-05 0.235386 0.0124056
6.10361e-05 0.184985 0.0043183
0.348882 0.248798 0.000442512
0.416297 0 0
0.390814 0 0
0.00720226 0.691295 0.442847
0.0031281 0.645838 0.394461
0.00158694 0.601801 0.353826
0.795666 0.717311 0.356252
0.595361 0.00358587 6.10361e-05
0.085893 0.763149 0.725322
0.0673991 0.759396 0.703883
0.0558328 0.756024 0.683192
0.0474403 0.754833 0.661891
0.928161 0.891585 0.74229
0 0.000442512 0.0218509
0.0222934 0.000137331 0.0286259
0.274769 0 0.00437934
0.390814 0 0
0.390814 0 0
0 0.00755322 0.0158083
0.00602731 0.0130465 0.0193332
0.252628 0 0.0015259
0.390814 0 0
0.390814 0 0
0 0.244327 0.0775006
0 0.205829 0.0513313
0.352239 0.284504 0.0332647
0.518257 7.62951e-05 9.15541e-05
0.390814 0 0
0.00547799 0.67599 0.435676
0.00254826 0.632059 0.392233
0.00134279 0.588693 0.35285
0.785214 0.708354 0.361517
0.614542 0.00642405 9.15541e-05
0.078996 0.76199 0.718517
0.0633097 0.758297 0.697429
0.0530251 0.755489 0.67689
0.0454719 0.75462 0.655512
0.928038 0.890776 0.735027
0.125246 0.368277 0.598138
0.181979 0.338079 0.578302
0.611887 0.28542 0.573632
0.503532 0.000137331 0.156146
0.390814 0 0
0.0118257 0.231937 0.435721
0.0471046 0.214115 0.428305
0.459129 0.184924 0.43476
0.50338 6.10361e-05 0.0947585
0.390814 0 0
4.57771e-05 0.284459 0.313161
0.000701915 0.296513 0.320668
0.33724 0.368032 0.379248
0.759487 0.0723888 0.215564
0.390814 0 0
0.00514229 0.663111 0.473899
0.00242618 0.620981 0.430701
0.00129702 0.580865 0.389944
0.776928 0.707439 0.425101
0.755413 0.038056 0.025742
0.0749981 0.761151 0.713954
0.0607919 0.757549 0.693111
0.0512551 0.755245 0.672541
0.0442969 0.754437 0.651362
0.927962 0.890333 0.730846
0.811994 0.894865 0.876356
0.785946 0.882933 0.872084
0.816495 0.859083 0.873182
0.914199 0.809873 0.878508
0.44593 0.00125124 0.398825
0.667247 0.805173 0.853697
0.621897 0.77261 0.846235
0.671534 0.754009 0.849485
0.901488 0.713603 0.862776
0.44593 0.00125124 0.398825
0.475105 0.706706 0.824765
0.435096 0.670588 0.816052
0.495552 0.649683 0.808438
0.869154 0.626596 0.803418
0.487373 0.000534066 0.29015
0.0331426 0.703014 0.704997
0.011841 0.656001 0.663264
0.220706 0.718212 0.719066
0.775143 0.766537 0.755154
0.874891 0.440818 0.627497
0.119799 0.767742 0.755444
0.090135 0.763821 0.729473
0.0701152 0.760052 0.70782
0.0576333 0.756603 0.6869
0.929381 0.89456 0.773373
0.93167 0.908598 0.889189
0.93167 0.908598 0.889189
0.93167 0.908598 0.889189
0.93167 0.908598 0.889189
0.93167 0.908598 0.889189
0.93167 0.908598 0.889189
0.93167 0.908598 0.889189
0.93167 0.908598 0.889189
0.93167 0.908598 0.889189
0.93167 0.908598 0.889189
0.93167 0.908598 0.889189
0.93167 0.908598 0.889189
0.93167 0.908598 0.889189
0.93167 0.908598 0.889189
0.93167 0.908598 0.889189
0.90428 0.90576 0.886381
0.875685 0.902861 0.883528
0.85301 0.900023 0.881178
0.899763 0.905394 0.885924
0.93167 0.908598 0.889189
0.141909 0.770367 0.772381
0.141909 0.770367 0.772381
0.141909 0.770367 0.772381
0.662242 0.874769 0.861921
0.93167 0.908598 0.889189
