luts/翠雨.cube
TITLE "Generated by Resolve"
LUT_3D_SIZE 9
0 0 0
7.62951e-05 0 0
0.0356451 0 0
0.178988 0 0
0.312413 0 0
0.423819 1.5259e-05 0
0.423819 1.5259e-05 0
0.423819 1.5259e-05 0
0.423819 1.5259e-05 0
0 0 0
0 0 0
0.00665293 0 0
0.131685 0 0
0.279194 0 0
0.399969 1.5259e-05 0
0.423819 1.5259e-05 0
0.423819 1.5259e-05 0
0.423819 1.5259e-05 0
9.15541e-05 0.0043183 0.000366217
0 0.00108339 9.15541e-05
0.000946059 0.000106813 0
0.104753 1.5259e-05 0
0.244114 0 0
0.370092 0 0
0.423819 1.5259e-05 0
0.423819 1.5259e-05 0
0.423819 1.5259e-05 0
0.000717174 0.0635386 0.0034638
0.000640879 0.0520485 0.00306706
0.000228885 0.036408 0.00047303
0.0666514 0.0236973 0
0.367666 0.0168765 0
0.340383 0 0
0.423819 1.5259e-05 0
0.423819 1.5259e-05 0
0.423819 1.5259e-05 0
0.000198367 0.274372 0.0265812
0.000259403 0.244709 0.0200656
0.000350958 0.214405 0.0147707
0.014786 0.238819 0.000640879
0.338567 0.218204 0
0.630747 0.188922 0
0.423819 1.5259e-05 0
0.423819 1.5259e-05 0
0.423819 1.5259e-05 0
0.000122072 0.520851 0.253819
0.000106813 0.502495 0.226413
9.15541e-05 0.482963 0.200671
9.15541e-05 0.462486 0.175769
0.192035 0.52871 0.082948
0.64567 0.523171 0.0395514
0.835401 0.515053 0.0248112
0.423819 1.5259e-05 0
0.423819 1.5259e-05 0
0.00306706 0.678599 0.559228
0.00173953 0.666117 0.529015
0.00106813 0.652949 0.500252
0.000701915 0.639445 0.472557
0.00047303 0.62562 0.446525
0.478401 0.700526 0.366491
0.813046 0.717327 0.322515
0.871946 0.712703 0.302831
0.423819 1.5259e-05 0
0.0226749 0.709911 0.683619
0.0199893 0.709041 0.676387
0.017731 0.708263 0.66891
0.0159304 0.70753 0.660853
0.014435 0.706798 0.652537
0.0131838 0.705913 0.644053
0.700069 0.768353 0.614969
0.879194 0.816983 0.623804
0.879652 0.803723 0.54522
0.108354 0.727214 0.738293
0.0941482 0.725063 0.734157
0.081529 0.722927 0.730144
0.0701457 0.721141 0.72636
0.0604257 0.719402 0.722362
0.0518502 0.717708 0.717891
0.0444038 0.716014 0.713069
0.867903 0.826352 0.756329
0.882918 0.835523 0.74844
0 0 0
0 0 0
0.0334783 0 0
0.201862 0 0
0.352346 0 0
0.423819 1.5259e-05 0
0.423819 1.5259e-05 0
0.423819 1.5259e-05 0
0.423819 1.5259e-05 0
0 0 3.0518e-05
0 0 0
0.0136873 0 0
0.167575 0 0
0.310674 0 0
0.39675 1.5259e-05 0
0.423819 1.5259e-05 0
0.423819 1.5259e-05 0
0.423819 1.5259e-05 0
0 0.00407416 0.000854505
0 0.002121 4.57771e-05
0.00155642 0.000640879 0
0.142077 0.000198367 0
0.298955 0 0
0.367208 0 0
0.423819 1.5259e-05 0
0.423819 1.5259e-05 0
0.423819 1.5259e-05 0
3.0518e-05 0.0838788 0.00823987
3.0518e-05 0.0656138 0.00572213
0 0.0653697 0.000366217
0.0833448 0.0379644 0
0.410834 0.0246281 0
0.380621 0 0
0.423819 1.5259e-05 0
0.423819 1.5259e-05 0
0.423819 1.5259e-05 0
7.62951e-05 0.28864 0.0697032
6.10361e-05 0.266514 0.0547189
6.10361e-05 0.244343 0.0413672
0.0127718 0.271717 0.00512703
0.358984 0.254108 0.000823987
0.675425 0.218189 7.62951e-05
0.434394 3.0518e-05 0
0.423819 1.5259e-05 0
0.423819 1.5259e-05 0
0.000122072 0.515114 0.270939
0.000106813 0.497017 0.244099
9.15541e-05 0.477989 0.218173
9.15541e-05 0.457649 0.192828
0.180102 0.531823 0.106447
0.641505 0.523384 0.0527047
0.833753 0.513222 0.0322271
0.423819 1.5259e-05 0
0.423819 1.5259e-05 0
0.00256352 0.674632 0.553582
0.00151064 0.66157 0.523857
0.000946059 0.648707 0.495064
0.00062562 0.63505 0.467109
0.000411994 0.620768 0.437995
0.468894 0.696468 0.355856
0.808392 0.712718 0.312078
0.871672 0.70869 0.293553
0.423819 1.5259e-05 0
0.0217594 0.70959 0.681407
0.0191958 0.708751 0.673823
0.0170596 0.708003 0.666178
0.0153964 0.707225 0.657984
0.0139925 0.706462 0.649714
0.0128023 0.705608 0.641337
0.69453 0.767132 0.610071
0.879133 0.81651 0.619364
0.879606 0.800702 0.533776
0.103273 0.726558 0.737057
0.0896468 0.724285 0.732708
0.0773785 0.722271 0.728923
0.0666667 0.720562 0.724987
0.0573587 0.718837 0.720851
0.0492866 0.717113 0.716396
0.0421759 0.715419 0.711452
0.864759 0.824628 0.750744
0.882765 0.83473 0.744488
0 0.000122072 0.0100099
0 6.10361e-05 0.00975052
0.0376135 9.15541e-05 0.00402838
0.211429 3.0518e-05 7.62951e-05
0.385916 0.000106813 3.0518e-05
0.535485 0.000198367 0
0.423819 1.5259e-05 0
0.423819 1.5259e-05 0
0.423819 1.5259e-05 0
0 0.000213626 0.00547799
0 0.000335698 0.0069276
0.0139467 0.000503548 0.0039826
0.20911 3.0518e-05 0.000106813
0.339773 4.57771e-05 0
0.489403 9.15541e-05 0
0.423819 1.5259e-05 0
0.423819 1.5259e-05 0
0.423819 1.5259e-05 0
0 0.00514229 0.0123751
0 0.00363165 0.00581369
0.00173953 0.00596628 0.0043946
0.187671 0.00202945 0.000289921
0.363714 3.0518e-05 0
0.443763 4.57771e-05 0
0.423819 1.5259e-05 0
0.423819 1.5259e-05 0
0.423819 1.5259e-05 0
1.5259e-05 0.0913252 0.0363012
0 0.0748302 0.0279088
0 0.0705882 0.00579843
0.0962081 0.0628061 0.00137331
0.452705 0.0423896 0.00015259
0.477211 6.10361e-05 0
0.423819 1.5259e-05 0
0.423819 1.5259e-05 0
0.423819 1.5259e-05 0
4.57771e-05 0.288411 0.104845
4.57771e-05 0.266117 0.0878462
3.0518e-05 0.244678 0.0716411
0.00495918 0.295949 0.022858
0.362356 0.271443 0.00584421
0.692439 0.240467 0.00202945
0.527733 0.000122072 0
0.423819 1.5259e-05 0
0.423819 1.5259e-05 0
0.000137331 0.509422 0.282032
0.000122072 0.491005 0.257389
9.15541e-05 0.472587 0.233402
9.15541e-05 0.452522 0.210559
0.165545 0.537438 0.138796
0.638376 0.529625 0.0867323
0.834043 0.523247 0.0657054
0.423819 1.5259e-05 0
0.423819 1.5259e-05 0
0.0021973 0.670436 0.549126
0.00132753 0.657359 0.521096
0.000854505 0.644419 0.494301
0.000579843 0.630625 0.469352
0.000396735 0.616464 0.444846
0.455589 0.697459 0.372671
0.805127 0.712047 0.327932
0.871855 0.710445 0.31722
0.423819 1.5259e-05 0
0.0213474 0.709484 0.680354
0.0189212 0.708629 0.672908
0.0168917 0.707897 0.665354
0.015259 0.70724 0.657343
0.013901 0.706386 0.649119
0.0127413 0.705562 0.640787
0.688228 0.766644 0.609964
0.879133 0.816495 0.619333
0.879774 0.798901 0.531777
0.0992294 0.725902 0.735836
0.086183 0.723766 0.731655
0.0744488 0.721767 0.727871
0.0640879 0.720088 0.723949
0.0550698 0.718395 0.719646
0.0473182 0.716625 0.715038
0.0404364 0.715099 0.710124
0.860945 0.822889 0.746334
0.882643 0.834119 0.74136
0 0.0679484 0.286
0.000427253 0.0643778 0.286275
0.0322118 0.0500649 0.278904
0.393484 0.0436713 0.249042
0.380621 0.000411994 0.010605
0.569772 0.000808728 0.00523384
0.561257 0.000534066 0.0010071
0.423819 1.5259e-05 0
0.423819 1.5259e-05 0
0 0.0298619 0.184253
0 0.0336461 0.198596
0.0068513 0.030457 0.202838
0.296361 0.0311437 0.178759
0.44567 0.000534066 0.019089
0.514153 0.000518807 0.00225834
0.55613 0.000427253 0.000381476
0.423819 1.5259e-05 0
0.423819 1.5259e-05 0
0 0.0234531 0.1149
0 0.0311284 0.137591
0.000946059 0.0418708 0.16286
0.205478 0.0444038 0.13875
0.512184 0.00776684 0.0359197
0.467872 0.000335698 0.000793469
0.550011 0.000335698 0.000106813
0.423819 1.5259e-05 0
0.423819 1.5259e-05 0
0 0.0988022 0.14078
0 0.0907912 0.126284
0 0.108354 0.130495
0.114763 0.148898 0.134783
0.501534 0.105928 0.0556649
0.61976 0.00292973 0.00515755
0.545266 0.000274662 3.0518e-05
0.423819 1.5259e-05 0
0.423819 1.5259e-05 0
4.57771e-05 0.291829 0.200885
4.57771e-05 0.269581 0.180896
3.0518e-05 0.247745 0.161929
0.000915541 0.317403 0.124254
0.380133 0.318212 0.0824445
0.712795 0.285039 0.0404517
0.68957 0.002533 0.00111391
0.423819 1.5259e-05 0
0.423819 1.5259e-05 0
0.00015259 0.504448 0.328115
0.000137331 0.486427 0.301991
0.000122072 0.467231 0.27744
0.000106813 0.447425 0.252888
0.134829 0.552911 0.20235
0.63743 0.540047 0.143694
0.834684 0.532769 0.117449
0.5691 0.000198367 0
0.423819 1.5259e-05 0
0.00195315 0.66659 0.551431
0.00122072 0.653284 0.524086
0.000793469 0.640146 0.498329
0.000549325 0.626245 0.473884
0.000381476 0.612039 0.449729
0.441917 0.697963 0.38529
0.801602 0.710643 0.338689
0.871946 0.710781 0.332311
0.423819 1.5259e-05 0
0.0209812 0.7093 0.679225
0.018616 0.708583 0.671977
0.0166629 0.707851 0.664225
0.0150454 0.707134 0.65626
0.0137636 0.706279 0.648173
0.0126345 0.70547 0.639887
0.681636 0.765972 0.609659
0.879118 0.816419 0.618494
0.879896 0.797147 0.529534
0.0951858 0.7252 0.734539
0.0826276 0.72314 0.730465
0.0712749 0.721325 0.726741
0.0614176 0.7196 0.722759
0.0527962 0.71783 0.718395
0.0453956 0.716167 0.713771
0.0388952 0.71458 0.708659
0.857114 0.821088 0.742184
0.882536 0.833585 0.738506
0.0975357 0.440436 0.6374
0.101305 0.418814 0.628061
0.169833 0.411261 0.63032
0.374273 0.38175 0.627909
0.735882 0.368765 0.619074
0.568215 0.00144961 0.0777905
0.574472 0.00141909 0.0606699
0.574929 0.00114443 0.0208743
0.423819 1.5259e-05 0
0.0265507 0.343435 0.571618
0.0337987 0.325185 0.561303
0.0802472 0.318593 0.562676
0.269718 0.293004 0.555734
0.67599 0.285359 0.549111
0.582773 0.00177005 0.10811
0.575509 0.00129702 0.0365454
0.572595 0.000961318 0.010193
0.423819 1.5259e-05 0
0.00178531 0.260746 0.486625
0.00584421 0.252033 0.482933
0.0231479 0.248402 0.484047
0.180606 0.236881 0.484367
0.602518 0.229633 0.471412
0.692576 0.0211337 0.237308
0.574701 0.00114443 0.0201267
0.569207 0.000793469 0.00480659
0.423819 1.5259e-05 0
0 0.209186 0.370733
0.00015259 0.23949 0.408042
0.00251774 0.238697 0.409964
0.108782 0.269047 0.443412
0.516442 0.26598 0.421302
0.741955 0.156588 0.306371
0.572549 0.000961318 0.0100099
0.564691 0.000640879 0.00225834
0.423819 1.5259e-05 0
4.57771e-05 0.311528 0.366995
4.57771e-05 0.287938 0.343023
0 0.318608 0.363607
0.0180209 0.372412 0.399832
0.399802 0.427527 0.416892
0.738384 0.383505 0.327855
0.816175 0.139101 0.18677
0.562203 0.000564584 0.00125124
0.423819 1.5259e-05 0
0.000198367 0.50515 0.442588
0.000183108 0.486152 0.418784
0.000167849 0.467033 0.395651
0.00015259 0.446479 0.372641
0.0919051 0.572198 0.383749
0.651972 0.583078 0.343771
0.840574 0.573846 0.297902
0.790463 0.0495308 0.0543526
0.423819 1.5259e-05 0
0.00215152 0.662974 0.583703
0.00137331 0.649897 0.55964
0.0009308 0.637125 0.534615
0.00062562 0.623209 0.510964
0.000442512 0.608759 0.488228
0.41265 0.709957 0.456474
0.801129 0.719326 0.407263
0.872953 0.721233 0.404044
0.622293 0.000656138 9.15541e-05
0.0223239 0.709758 0.682811
0.0197757 0.708934 0.675639
0.0175631 0.708202 0.668437
0.0158236 0.707485 0.660304
0.0143893 0.706767 0.652232
0.0131838 0.705913 0.644083
0.673198 0.766964 0.618982
0.879255 0.817227 0.62562
0.879713 0.796979 0.539025
0.0933242 0.724941 0.733898
0.0807965 0.72285 0.730007
0.069749 0.721019 0.726116
0.0600443 0.719387 0.722118
0.0516213 0.717632 0.717754
0.0443885 0.716014 0.713069
0.038056 0.714443 0.707835
0.853117 0.819623 0.7393
0.88249 0.833295 0.736812
0.485359 0.737667 0.74461
0.464683 0.726772 0.742016
0.462852 0.717754 0.740429
0.524407 0.717144 0.743862
0.647654 0.696437 0.772763
0.862837 0.712901 0.784573
0.535622 0.00273136 0.235203
0.546731 0.00230411 0.203464
0.567361 0.00166323 0.122606
0.387533 0.693278 0.73402
0.367224 0.675746 0.73637
0.365194 0.661189 0.734173
0.440665 0.656245 0.741955
0.60914 0.635569 0.755016
0.843626 0.636332 0.752728
0.55314 0.00205997 0.182147
0.559182 0.00189212 0.158145
0.57229 0.00154116 0.0878767
0.279774 0.626062 0.718746
0.26978 0.606775 0.713542
0.268833 0.589853 0.709194
0.346044 0.585901 0.715343
0.545586 0.567315 0.722454
0.813977 0.560967 0.721904
0.676646 0.00759899 0.279255
0.567758 0.00166323 0.120287
0.574655 0.00140383 0.0573587
0.157855 0.562264 0.686503
0.165911 0.546349 0.681254
0.167468 0.527764 0.673961
0.245792 0.525841 0.6795
0.469017 0.517937 0.689158
0.781476 0.50782 0.683192
0.824079 0.225147 0.536431
0.572396 0.0015259 0.0859083
0.575402 0.00128176 0.0343023
0.040177 0.5411 0.646494
0.0528725 0.529046 0.641001
0.0606851 0.513832 0.632227
0.132525 0.516213 0.638437
0.398856 0.546609 0.663584
0.741192 0.543236 0.65742
0.854032 0.464424 0.577783
0.574655 0.00140383 0.0567788
0.574701 0.00112917 0.0195315
0.000183108 0.527871 0.571984
0.000167849 0.509285 0.555535
0.000137331 0.493034 0.540475
0.00993362 0.562295 0.596399
0.231571 0.622126 0.637064
0.66865 0.666819 0.65182
0.850324 0.643671 0.597223
0.852064 0.368688 0.469383
0.573144 0.0010071 0.0120699
0.00392157 0.66804 0.649226
0.00233463 0.654826 0.631739
0.0015259 0.64036 0.61445
0.00103761 0.625223 0.596246
0.000732433 0.61091 0.576852
0.341543 0.728939 0.607645
0.809247 0.747646 0.593393
0.869596 0.747845 0.573693
0.83711 0.230121 0.309453
0.0325017 0.712856 0.702068
0.0283055 0.711589 0.695308
0.0247349 0.710597 0.688396
0.0218357 0.709621 0.68159
0.0193332 0.708812 0.674311
0.0172122 0.70808 0.666804
0.648722 0.77586 0.659403
0.880644 0.822324 0.663722
0.878126 0.804013 0.598962
0.100267 0.726101 0.736156
0.0871443 0.723842 0.73196
0.0753033 0.721935 0.728222
0.0648203 0.720226 0.724269
0.055787 0.718532 0.720027
0.0480049 0.716777 0.715526
0.0411841 0.715251 0.710643
0.850217 0.820157 0.745052
0.882734 0.834577 0.743725
0.816342 0.839353 0.818265
0.803281 0.836149 0.8159
0.792233 0.833799 0.814252
0.794049 0.838178 0.806928
0.830549 0.846525 0.806271
0.87602 0.856901 0.822324
0.866972 0.837705 0.807218
0.501549 0.00328069 0.29572
0.501549 0.00328069 0.29572
0.764691 0.831159 0.801251
0.742412 0.82504 0.791882
0.722667 0.818906 0.784375
0.719921 0.815641 0.779858
0.769268 0.822644 0.782391
0.860502 0.828901 0.799619
0.861006 0.812406 0.796155
0.501549 0.00328069 0.29572
0.501549 0.00328069 0.29572
0.678874 0.807187 0.775311
0.655894 0.798703 0.76997
0.634806 0.790829 0.764889
0.633021 0.786313 0.762188
0.693858 0.791959 0.76643
0.800488 0.789487 0.780911
0.857588 0.78497 0.789654
0.501549 0.00328069 0.29572
0.501549 0.00328069 0.29572
0.582559 0.777798 0.758099
0.561608 0.769131 0.754314
0.53959 0.760143 0.75108
0.538338 0.753719 0.749462
0.603967 0.756802 0.754223
0.722316 0.74699 0.762036
0.856214 0.755764 0.784588
0.713863 0.0512245 0.56466
0.528405 0.00297551 0.252415
0.479057 0.750866 0.747662
0.460334 0.741039 0.744381
0.440482 0.731106 0.741894
0.440208 0.724041 0.740658
0.508247 0.726543 0.749966
0.66009 0.718624 0.779065
0.867048 0.729793 0.788006
0.84654 0.439963 0.715053
0.549676 0.00218204 0.194034
0.355077 0.739162 0.745586
0.336797 0.728542 0.74313
0.31667 0.715251 0.74107
0.317037 0.705425 0.739147
0.406653 0.711666 0.74789
0.648508 0.738964 0.773312
0.849393 0.740368 0.776806
0.859739 0.668101 0.739147
0.560784 0.00184634 0.152056
0.0525826 0.70132 0.720546
0.0284428 0.684642 0.706966
0.0152438 0.668391 0.694301
0.00814832 0.651667 0.680568
0.179706 0.716579 0.733532
0.52726 0.764538 0.762661
0.822889 0.799939 0.781292
0.867613 0.790967 0.75642
0.863569 0.584695 0.671046
0.0988785 0.725795 0.735714
0.0859388 0.72369 0.731563
0.0741894 0.721721 0.727794
0.063859 0.720043 0.723873
0.0549477 0.718349 0.7196
0.0472114 0.716609 0.714992
0.571176 0.79556 0.730434
0.883513 0.837446 0.758526
0.876951 0.826123 0.729229
0.15259 0.734844 0.746593
0.130617 0.73051 0.742885
0.112581 0.727749 0.739284
0.0977188 0.725658 0.735317
0.0849775 0.723491 0.731243
0.0731823 0.721553 0.727459
0.0630045 0.719875 0.723507
0.845823 0.829923 0.781704
0.885222 0.841077 0.77789
0.896864 0.871763 0.84799
0.896864 0.871763 0.84799
0.896864 0.871763 0.84799
0.896864 0.871763 0.84799
0.896864 0.871763 0.84799
0.896864 0.871763 0.84799
0.896864 0.871763 0.84799
0.896864 0.871763 0.84799
0.501549 0.00328069 0.29572
0.896864 0.871763 0.84799
0.896864 0.871763 0.84799
0.896864 0.871763 0.84799
0.89662 0.871504 0.84773
0.896864 0.871763 0.84799
0.896864 0.871763 0.84799
0.896864 0.871763 0.84799
0.896864 0.871763 0.84799
0.501549 0.00328069 0.29572
0.893217 0.868574 0.844953
0.88574 0.864515 0.840803
0.877302 0.860182 0.835904
0.869871 0.856733 0.832258
0.871015 0.857237 0.832731
0.895003 0.869734 0.846036
0.896864 0.871763 0.84799
0.896208 0.871626 0.84715
0.501549 0.00328069 0.29572
0.861295 0.853086 0.828916
0.850767 0.84892 0.826093
0.839658 0.845258 0.823346
0.829755 0.842725 0.821027
0.831144 0.843076 0.821347
0.865599 0.854841 0.830488
0.89279 0.870878 0.842893
0.875685 0.856428 0.821942
0.501549 0.00328069 0.29572
0.817945 0.839765 0.81857
0.805035 0.836561 0.816205
0.791333 0.833616 0.814145
0.780224 0.833814 0.812589
0.781338 0.834852 0.803555
0.819501 0.843336 0.802396
0.87509 0.855573 0.82118
0.866743 0.837018 0.806821
0.782513 0.179461 0.659892
0.760967 0.827878 0.810422
0.746349 0.825025 0.808576
0.727626 0.825101 0.798321
0.7066 0.81886 0.789487
0.702876 0.815534 0.783261
0.755779 0.823423 0.783902
0.854612 0.837308 0.800717
0.863508 0.825452 0.801083
0.853361 0.636072 0.77023
0.663264 0.812894 0.800732
0.646738 0.810834 0.799146
0.634195 0.80911 0.798184
0.613672 0.807416 0.791745
0.60853 0.804013 0.784131
0.673564 0.811521 0.782818
0.821698 0.840833 0.795438
0.867964 0.840604 0.809232
0.857786 0.789242 0.7906
0.163119 0.736599 0.748226
0.163119 0.736599 0.748226
0.163119 0.736599 0.748226
0.163119 0.736599 0.748226
0.163119 0.736599 0.748226
0.468482 0.788205 0.784939
0.7476 0.825254 0.808743
0.896864 0.871763 0.84799
0.88658 0.867521 0.835142
0.163119 0.736599 0.748226
0.163119 0.736599 0.748226
0.163119 0.736599 0.748226
0.163119 0.736599 0.748226
0.163119 0.736599 0.748226
0.163119 0.736599 0.748226
0.163119 0.736599 0.748226
0.851743 0.849302 0.826352
0.895003 0.866957 0.84686
0.896864 0.871763 0.84799
0.896864 0.871763 0.84799
0.896864 0.871763 0.84799
0.896864 0.871763 0.84799
0.896864 0.871763 0.84799
0.896864 0.871763 0.84799
0.896864 0.871763 0.84799
0.896864 0.871763 0.84799
0.896864 0.871763 0.84799
0.896864 0.871763 0.84799
0.896864 0.871763 0.84799
0.896864 0.871763 0.84799
0.896864 0.871763 0.84799
0.896864 0.871763 0.84799
0.896864 0.871763 0.84799
0.896864 0.871763 0.84799
0.896864 0.871763 0.84799
0.896864 0.871763 0.84799
0.896864 0.871763 0.84799
0.896864 0.871763 0.84799
0.896864 0.871763 0.84799
0.896864 0.871763 0.84799
0.896864 0.871763 0.84799
0.896864 0.871763 0.84799
0.896864 0.871763 0.84799
0.896864 0.871763 0.84799
0.896864 0.871763 0.84799
0.896864 0.871763 0.84799
0.896864 0.871763 0.84799
0.896864 0.871763 0.84799
0.896864 0.871763 0.84799
0.896864 0.871763 0.84799
0.896864 0.871763 0.84799
0.896864 0.871763 0.84799
0.896864 0.871763 0.84799
0.896864 0.871763 0.84799
0.896864 0.871763 0.84799
0.896864 0.871763 0.84799
0.896864 0.871763 0.84799
0.896864 0.871763 0.84799
0.896864 0.871763 0.84799
0.896864 0.871763 0.84799
0.896864 0.871763 0.84799
0.896864 0.871763 0.84799
0.896864 0.871763 0.84799
0.896864 0.871763 0.84799
0.896864 0.871763 0.84799
0.896864 0.871763 0.84799
0.896422 0.871244 0.847486
0.892866 0.868376 0.844755
0.893492 0.868727 0.845075
0.896864 0.871763 0.84799
0.896864 0.871763 0.84799
0.896864 0.871763 0.84799
0.891478 0.867704 0.844099
0.883925 0.863416 0.839643
0.874632 0.858946 0.83447
0.864713 0.854475 0.830167
0.856382 0.851118 0.827527
0.858274 0.851865 0.828031
0.888014 0.865873 0.842222
0.896864 0.871763 0.84799
0.896864 0.871763 0.84799
0.831464 0.843153 0.821424
0.817807 0.839719 0.81854
0.805066 0.836576 0.81622
0.791592 0.833661 0.814176
0.781613 0.831769 0.81294
0.788434 0.833066 0.813779
0.840864 0.845609 0.823651
0.896864 0.871763 0.84799
0.896864 0.871763 0.84799
0.163119 0.736599 0.748226
0.163119 0.736599 0.748226
0.163119 0.736599 0.748226
0.163119 0.736599 0.748226
0.163119 0.736599 0.748226
0.163119 0.736599 0.748226
0.643381 0.810422 0.798825
0.874846 0.859037 0.834577
0.896864 0.871763 0.84799
