luts/翠雨.cube
TITLE "Generated by Resolve"
LUT_3D_SIZE 33
0 0 0
0 0 0
0 0 0
0 0 0
7.62951e-05 0 0
0.000885023 0 0
0.00410468 0 0
0.0143282 0 0
0.0356451 0 0
0.0650339 0 0
0.102312 0 0
0.140887 0 0
0.178988 0 0
0.211124 0 0
0.246403 0 0
0.280186 0 0
0.312413 0 0
0.343175 0 0
0.371588 0 0
0.40087 1.5259e-05 0
0.423819 1.5259e-05 0
0.423819 1.5259e-05 0
0.423819 1.5259e-05 0
0.423819 1.5259e-05 0
0.423819 1.5259e-05 0
0.423819 1.5259e-05 0
0.423819 1.5259e-05 0
0.423819 1.5259e-05 0
0.423819 1.5259e-05 0
0.423819 1.5259e-05 0
0.423819 1.5259e-05 0
0.423819 1.5259e-05 0
0.423819 1.5259e-05 0
0 0 0
0 0 0
0 0 0
0 0 0
1.5259e-05 0 0
0.000320439 0 0
0.00209049 0 0
0.00823987 0 0
0.0239567 0 0
0.0522164 0 0
0.0903182 0 0
0.128054 0 0
0.165911 0 0
0.202121 0 0
0.237369 0 0
0.271931 0 0
0.304189 0 0
0.335485 0 0
0.364309 0 0
0.393072 1.5259e-05 0
0.423819 1.5259e-05 0
0.423819 1.5259e-05 0
0.423819 1.5259e-05 0
0.423819 1.5259e-05 0
0.423819 1.5259e-05 0
0.423819 1.5259e-05 0
0.423819 1.5259e-05 0
0.423819 1.5259e-05 0
0.423819 1.5259e-05 0
0.423819 1.5259e-05 0
0.423819 1.5259e-05 0
0.423819 1.5259e-05 0
0.423819 1.5259e-05 0
0 0 0
0 0 0
0 0 0
0 0 0
0 0 0
9.15541e-05 0 0
0.000976577 0 0
0.00469978 0 0
0.0158083 0 0
0.0378119 0 0
0.072694 0 0
0.115557 0 0
0.154742 0 0
0.193179 0 0
0.228275 0 0
0.263218 0 0
0.295933 0 0
0.327565 0 0
0.357214 0 0
0.385534 0 0
0.416861 1.5259e-05 0
0.423819 1.5259e-05 0
0.423819 1.5259e-05 0
0.423819 1.5259e-05 0
0.423819 1.5259e-05 0
0.423819 1.5259e-05 0
0.423819 1.5259e-05 0
0.423819 1.5259e-05 0
0.423819 1.5259e-05 0
0.423819 1.5259e-05 0
0.423819 1.5259e-05 0
0.423819 1.5259e-05 0
0.423819 1.5259e-05 0
0 0 0
0 0 0
0 0 0
0 0 0
0 0 0
1.5259e-05 0 0
0.000396735 0 0
0.00265507 0 0
0.0103304 0 0
0.0281376 0 0
0.0584421 0 0
0.100969 0 0
0.144183 0 0
0.183658 0 0
0.219135 0 0
0.254307 0 0
0.28748 0 0
0.319738 0 0
0.349889 0 0
0.378241 0 0
0.408209 1.5259e-05 0
0.423819 1.5259e-05 0
0.423819 1.5259e-05 0
0.423819 1.5259e-05 0
0.423819 1.5259e-05 0
0.423819 1.5259e-05 0
0.423819 1.5259e-05 0
0.423819 1.5259e-05 0
0.423819 1.5259e-05 0
0.423819 1.5259e-05 0
0.423819 1.5259e-05 0
0.423819 1.5259e-05 0
0.423819 1.5259e-05 0
0 0 0
0 0 0
0 0 0
0 0 0
0 0 0
0 0 0
0.00015259 0 0
0.00140383 0 0
0.00665293 0 0
0.0211032 0 0
0.0479744 0 0
0.0885481 0 0
0.131685 0 0
0.17409 0 0
0.209964 0 0
0.245365 0 0
0.279194 0 0
0.311421 0 0
0.34226 0 0
0.370901 0 0
0.399969 1.5259e-05 0
0.423819 1.5259e-05 0
0.423819 1.5259e-05 0
0.423819 1.5259e-05 0
0.423819 1.5259e-05 0
0.423819 1.5259e-05 0
0.423819 1.5259e-05 0
0.423819 1.5259e-05 0
0.423819 1.5259e-05 0
0.423819 1.5259e-05 0
0.423819 1.5259e-05 0
0.423819 1.5259e-05 0
0.423819 1.5259e-05 0
0 9.15541e-05 0
0 6.10361e-05 0
0 0 0
0 0 0
0 0 0
0 0 0
4.57771e-05 0 0
0.000717174 0 0
0.00427253 0 0
0.016022 0 0
0.039292 0 0
0.076997 0 0
0.12256 0 0
0.162417 0 0
0.201038 0 0
0.23621 0 0
0.270848 0 0
0.303258 0 0
0.3346 0 0
0.363516 0 0
0.392279 1.5259e-05 0
0.423819 1.5259e-05 0
0.423819 1.5259e-05 0
0.423819 1.5259e-05 0
0.423819 1.5259e-05 0
0.423819 1.5259e-05 0
0.423819 1.5259e-05 0
0.423819 1.5259e-05 0
0.423819 1.5259e-05 0
0.423819 1.5259e-05 0
0.423819 1.5259e-05 0
0.423819 1.5259e-05 0
0.423819 1.5259e-05 0
0 0.000503548 0
0 0.000427253 1.5259e-05
0 0.000137331 0
0 3.0518e-05 0
0 1.5259e-05 0
0 0 0
1.5259e-05 0 0
0.000350958 0 0
0.00257877 0 0
0.011841 0 0
0.0328679 0 0
0.068574 0 0
0.115541 0 0
0.159091 0 0
0.191104 0 0
0.227024 0 0
0.262272 0 0
0.294865 0 0
0.326741 0 0
0.356268 0 0
0.384802 0 0
0.4159 1.5259e-05 0
0.423819 1.5259e-05 0
0.423819 1.5259e-05 0
0.423819 1.5259e-05 0
0.423819 1.5259e-05 0
0.423819 1.5259e-05 0
0.423819 1.5259e-05 0
0.423819 1.5259e-05 0
0.423819 1.5259e-05 0
0.423819 1.5259e-05 0
0.423819 1.5259e-05 0
0.423819 1.5259e-05 0
3.0518e-05 0.00167849 9.15541e-05
1.5259e-05 0.00146487 0.000137331
0 0.000976577 0.000122072
0 0.000396735 4.57771e-05
0 0.000198367 3.0518e-05
0 0.000137331 1.5259e-05
0 4.57771e-05 1.5259e-05
0.00015259 0 0
0.00154116 0 0
0.00813306 0 0
0.0270085 0 0
0.0609293 0 0
0.110903 0 0
0.160159 0 0
0.196841 0 0
0.218402 0 0
0.253117 0 0
0.286503 0 0
0.318746 0 0
0.348989 0 0
0.377356 0 0
0.407431 1.5259e-05 0
0.423819 1.5259e-05 0
0.423819 1.5259e-05 0
0.423819 1.5259e-05 0
0.423819 1.5259e-05 0
0.423819 1.5259e-05 0
0.423819 1.5259e-05 0
0.423819 1.5259e-05 0
0.423819 1.5259e-05 0
0.423819 1.5259e-05 0
0.423819 1.5259e-05 0
0.423819 1.5259e-05 0
9.15541e-05 0.0043183 0.000366217
7.62951e-05 0.00386053 0.000503548
0 0.0034638 0.000503548
0 0.002121 0.000213626
0 0.00108339 9.15541e-05
0 0.000762951 6.10361e-05
0 0.000640879 4.57771e-05
6.10361e-05 0.000335698 3.0518e-05
0.000946059 0.000106813 0
0.00561532 4.57771e-05 0
0.0219577 4.57771e-05 0
0.0542306 3.0518e-05 0
0.104753 1.5259e-05 0
0.159991 1.5259e-05 0
0.209384 0 0
0.237781 0 0
0.244114 0 0
0.278111 0 0
0.310491 0 0
0.341375 0 0
0.370092 0 0
0.399084 1.5259e-05 0
0.423819 1.5259e-05 0
0.423819 1.5259e-05 0
0.423819 1.5259e-05 0
0.423819 1.5259e-05 0
0.423819 1.5259e-05 0
0.423819 1.5259e-05 0
0.423819 1.5259e-05 0
0.423819 1.5259e-05 0
0.423819 1.5259e-05 0
0.423819 1.5259e-05 0
0.423819 1.5259e-05 0
0.000198367 0.0099794 0.000900282
0.000183108 0.0090486 0.000976577
0.000167849 0.00823987 0.000915541
1.5259e-05 0.00706493 0.000656138
0 0.00471504 0.00030518
0 0.00294499 0.000167849
0 0.00250248 0.000122072
3.0518e-05 0.0021973 7.62951e-05
0.00047303 0.00137331 3.0518e-05
0.00360113 0.000640879 0
0.0167697 0.000442512 0
0.0475624 0.000350958 0
0.0994278 0.00030518 0
0.158724 0.000228885 0
0.218097 0.000137331 0
0.270176 4.57771e-05 0
0.29308 0 0
0.269871 0 0
0.302205 0 0
0.333577 0 0
0.362737 0 0
0.391501 0 0
0.423819 1.5259e-05 0
0.423819 1.5259e-05 0
0.423819 1.5259e-05 0
0.423819 1.5259e-05 0
0.423819 1.5259e-05 0
0.423819 1.5259e-05 0
0.423819 1.5259e-05 0
0.423819 1.5259e-05 0
0.423819 1.5259e-05 0
0.423819 1.5259e-05 0
0.423819 1.5259e-05 0
0.000366217 0.0208591 0.00167849
0.000350958 0.0193484 0.0016022
0.000335698 0.0179294 0.0015259
0.000122072 0.0167697 0.0015259
4.57771e-05 0.0141756 0.000885023
3.0518e-05 0.00991836 0.000427253
1.5259e-05 0.00737011 0.000274662
3.0518e-05 0.00680552 0.000183108
0.000274662 0.00602731 0.000106813
0.00198367 0.00421149 4.57771e-05
0.01178 0.00262455 0
0.0402075 0.00201419 0
0.092958 0.00180056 0
0.156466 0.0016022 0
0.223392 0.00134279 0
0.286763 0.000885023 0
0.337804 0.000350958 0
0.357092 3.0518e-05 0
0.293721 0 0
0.32578 0 0
0.35555 0 0
0.383886 0 0
0.414939 1.5259e-05 0
0.423819 1.5259e-05 0
0.423819 1.5259e-05 0
0.423819 1.5259e-05 0
0.423819 1.5259e-05 0
0.423819 1.5259e-05 0
0.423819 1.5259e-05 0
0.423819 1.5259e-05 0
0.423819 1.5259e-05 0
0.423819 1.5259e-05 0
0.423819 1.5259e-05 0
0.000534066 0.0382086 0.002533
0.000518807 0.035874 0.00242618
0.000503548 0.0336919 0.00231937
0.00047303 0.0314946 0.00222782
0.000183108 0.0296635 0.00216678
0.000106813 0.0261082 0.00122072
9.15541e-05 0.0198062 0.000549325
6.10361e-05 0.0176852 0.000381476
0.000228885 0.0179599 0.000228885
0.00117494 0.0174411 0.000122072
0.00657664 0.0131991 4.57771e-05
0.0303044 0.0089723 0
0.0837568 0.00729381 0
0.15108 0.00666819 0
0.222324 0.00607309 0
0.293416 0.00534066 0
0.358984 0.00389105 0
0.409903 0.00181582 0
0.425315 0.000228885 0
0.317647 0 0
0.34815 0 0
0.376501 0 0
0.406455 1.5259e-05 0
0.423819 1.5259e-05 0
0.423819 1.5259e-05 0
0.423819 1.5259e-05 0
0.423819 1.5259e-05 0
0.423819 1.5259e-05 0
0.423819 1.5259e-05 0
0.423819 1.5259e-05 0
0.423819 1.5259e-05 0
0.423819 1.5259e-05 0
0.423819 1.5259e-05 0
0.000717174 0.0635386 0.0034638
0.000701915 0.0602579 0.00334173
0.000686656 0.0573587 0.00325017
0.000671397 0.0546578 0.00315862
0.000640879 0.0520485 0.00306706
0.000366217 0.0500496 0.00285344
0.000213626 0.0446174 0.00144961
0.000183108 0.0357214 0.000640879
0.000228885 0.036408 0.00047303
0.000946059 0.0381476 0.000259403
0.00381476 0.0377661 0.000122072
0.0191348 0.0307927 3.0518e-05
0.0666514 0.0236973 0
0.140444 0.020798 0
0.2168 0.0193179 0
0.293629 0.0184787 0
0.367666 0.0168765 0
0.433967 0.0132296 0
0.483192 0.00706493 0
0.493828 0.00115969 0
0.340383 0 0
0.369131 0 0
0.398215 1.5259e-05 0
0.423819 1.5259e-05 0
0.423819 1.5259e-05 0
0.423819 1.5259e-05 0
0.423819 1.5259e-05 0
0.423819 1.5259e-05 0
0.423819 1.5259e-05 0
0.423819 1.5259e-05 0
0.423819 1.5259e-05 0
0.423819 1.5259e-05 0
0.423819 1.5259e-05 0
0.000869764 0.097612 0.00500496
0.000854505 0.093904 0.00480659
0.000823987 0.0903792 0.00462348
0.000808728 0.0868849 0.00444038
0.000808728 0.0834211 0.00422675
0.000793469 0.079881 0.00402838
0.000610361 0.0776226 0.00355535
0.000411994 0.0696574 0.0015259
0.000396735 0.0616922 0.000793469
0.000808728 0.0664073 0.000518807
0.00291447 0.0718547 0.000259403
0.0115358 0.0714122 0.000106813
0.0449226 0.0603342 1.5259e-05
0.121309 0.0490425 0
0.205127 0.0453803 0
0.285847 0.0434577 0
0.366049 0.0421149 0
0.441337 0.039353 0
0.505028 0.0333715 0
0.551156 0.0215152 0
0.562127 0.00497444 0
0.361868 0 0
0.390585 0 0
0.422843 1.5259e-05 0
0.423819 1.5259e-05 0
0.423819 1.5259e-05 0
0.423819 1.5259e-05 0
0.423819 1.5259e-05 0
0.423819 1.5259e-05 0
0.423819 1.5259e-05 0
0.423819 1.5259e-05 0
0.423819 1.5259e-05 0
0.423819 1.5259e-05 0
0.000854505 0.140017 0.0071107
0.000885023 0.134997 0.00688182
0.000885023 0.130343 0.00666819
0.000885023 0.125872 0.00646983
0.000885023 0.121645 0.00628672
0.000885023 0.117693 0.00611887
0.000885023 0.113649 0.00593576
0.000762951 0.11191 0.00517281
0.000595102 0.109178 0.00154116
0.00077821 0.101534 0.000701915
0.00233463 0.111086 0.000503548
0.00759899 0.120378 0.000259403
0.0272068 0.120134 9.15541e-05
0.0902876 0.10602 1.5259e-05
0.183764 0.0926528 0
0.273503 0.0878309 0
0.358328 0.0850538 0
0.43917 0.0826581 0
0.510048 0.0777752 0
0.56849 0.067628 0
0.614221 0.049073 0
0.627543 0.0174258 0
0.383047 0 0
0.413825 1.5259e-05 0
0.423819 1.5259e-05 0
0.423819 1.5259e-05 0
0.423819 1.5259e-05 0
0.423819 1.5259e-05 0
0.423819 1.5259e-05 0
0.423819 1.5259e-05 0
0.423819 1.5259e-05 0
0.423819 1.5259e-05 0
0.423819 1.5259e-05 0
0.000457771 0.196658 0.0120546
0.000518807 0.189746 0.0111696
0.000595102 0.18294 0.0103456
0.000656138 0.176715 0.00982681
0.000701915 0.171374 0.00933852
0.000732433 0.166384 0.00888075
0.000762951 0.161532 0.0084535
0.000793469 0.156832 0.0080415
0.000732433 0.153521 0.00720226
0.000396735 0.167742 0.0028687
0.00177005 0.157733 0.000854505
0.00584421 0.170764 0.00047303
0.0215305 0.182269 0.000244144
0.0617075 0.179782 0.000122072
0.153368 0.164645 3.0518e-05
0.25536 0.150484 0
0.34847 0.142748 0
0.432959 0.138689 0
0.509087 0.135256 0
0.572915 0.130831 0
0.626429 0.119509 0
0.668498 0.0957198 0
0.68333 0.0449073 0
0.405325 1.5259e-05 0
0.423819 1.5259e-05 0
0.423819 1.5259e-05 0
0.423819 1.5259e-05 0
0.423819 1.5259e-05 0
0.423819 1.5259e-05 0
0.423819 1.5259e-05 0
0.423819 1.5259e-05 0
0.423819 1.5259e-05 0
0.423819 1.5259e-05 0
0.000198367 0.274372 0.0265812
0.000213626 0.267353 0.0249332
0.000228885 0.259617 0.0231632
0.000244144 0.252186 0.021561
0.000259403 0.244709 0.0200656
0.000274662 0.237095 0.018616
0.000289921 0.229358 0.0172732
0.00030518 0.221759 0.0159609
0.000350958 0.214405 0.0147707
0.000366217 0.207828 0.0130922
0.00015259 0.235248 0.00483711
0.00343328 0.224369 0.00114443
0.014786 0.238819 0.000640879
0.0514534 0.252567 0.000381476
0.122347 0.252659 0.000244144
0.226673 0.236927 6.10361e-05
0.338567 0.218204 0
0.437415 0.2094 0
0.517449 0.203525 0
0.580774 0.197421 0
0.630747 0.188922 0
0.680583 0.178485 0
0.717632 0.155642 0
0.733074 0.0978714 0
0.423819 1.5259e-05 0
0.423819 1.5259e-05 0
0.423819 1.5259e-05 0
0.423819 1.5259e-05 0
0.423819 1.5259e-05 0
0.423819 1.5259e-05 0
0.423819 1.5259e-05 0
0.423819 1.5259e-05 0
0.423819 1.5259e-05 0
0.000167849 0.34136 0.0631571
0.000167849 0.335302 0.0585794
0.000167849 0.329183 0.0538949
0.000167849 0.32314 0.0497597
0.000167849 0.316915 0.0459907
0.000167849 0.310872 0.0422522
0.000167849 0.304799 0.0388647
0.000183108 0.298772 0.035584
0.000183108 0.292653 0.0323644
0.000183108 0.285542 0.0299992
0.000198367 0.278233 0.0276951
7.62951e-05 0.306447 0.0104524
0.00575265 0.307713 0.0041352
0.0354009 0.315282 0.00241093
0.104799 0.32958 0.00190738
0.194308 0.336782 0.00148013
0.306966 0.321874 0.000640879
0.428031 0.298665 0.00015259
0.523598 0.286442 4.57771e-05
0.596292 0.277256 1.5259e-05
0.653895 0.270191 0
0.69749 0.260197 0
0.728008 0.244968 0
0.761028 0.225803 0
0.778912 0.180041 3.0518e-05
0.423819 1.5259e-05 0
0.423819 1.5259e-05 0
0.423819 1.5259e-05 0
0.423819 1.5259e-05 0
0.423819 1.5259e-05 0
0.423819 1.5259e-05 0
0.423819 1.5259e-05 0
0.423819 1.5259e-05 0
0.000122072 0.406546 0.121752
0.000137331 0.400549 0.115969
0.000137331 0.394476 0.110124
0.000137331 0.388418 0.104356
0.000137331 0.3823 0.0987106
0.00015259 0.376349 0.0931563
0.00015259 0.369741 0.0875563
0.00015259 0.363439 0.0821241
0.000167849 0.357321 0.076463
0.000167849 0.351125 0.071107
0.000167849 0.345037 0.065919
0.000167849 0.338704 0.0609598
0.000137331 0.370901 0.026978
0.0124208 0.384726 0.0166323
0.0770581 0.389502 0.0103304
0.171435 0.405615 0.00885023
0.269596 0.415091 0.00755322
0.390433 0.400961 0.00428778
0.510292 0.379461 0.00195315
0.599786 0.368093 0.00112917
0.667277 0.361151 0.000717174
0.717998 0.354299 0.000457771
0.75668 0.342489 0.000213626
0.781796 0.326711 9.15541e-05
0.799985 0.311391 0.000137331
0.793317 0.232242 9.15541e-05
0.423819 1.5259e-05 0
0.423819 1.5259e-05 0
0.423819 1.5259e-05 0
0.423819 1.5259e-05 0
0.423819 1.5259e-05 0
0.423819 1.5259e-05 0
0.423819 1.5259e-05 0
9.15541e-05 0.469383 0.184085
9.15541e-05 0.464317 0.178058
9.15541e-05 0.459037 0.172061
9.15541e-05 0.453788 0.166079
9.15541e-05 0.447776 0.160327
9.15541e-05 0.441642 0.15462
0.000106813 0.435447 0.148821
0.000106813 0.429068 0.143038
0.000106813 0.422843 0.13724
0.000122072 0.416632 0.13135
0.000122072 0.410437 0.125399
0.000122072 0.404135 0.119341
0.000137331 0.397894 0.113283
0.000244144 0.439567 0.0629282
0.0248569 0.460182 0.0495918
0.12958 0.46424 0.0345312
0.241001 0.477592 0.0314336
0.352621 0.486488 0.0289158
0.46746 0.476585 0.0207675
0.582498 0.454871 0.0111849
0.663081 0.444175 0.00749218
0.722225 0.439063 0.00601205
0.769039 0.436606 0.00495918
0.804303 0.432166 0.00361639
0.824338 0.421073 0.00207523
0.821363 0.386099 0.000946059
0.803586 0.280873 0.000213626
0.423819 1.5259e-05 0
0.423819 1.5259e-05 0
0.423819 1.5259e-05 0
0.423819 1.5259e-05 0
0.423819 1.5259e-05 0
0.423819 1.5259e-05 0
0.000122072 0.520851 0.253819
0.000106813 0.516487 0.246769
0.000106813 0.512108 0.239994
0.000106813 0.507225 0.233082
0.000106813 0.502495 0.226413
0.000106813 0.497765 0.219806
9.15541e-05 0.493034 0.213291
9.15541e-05 0.487999 0.207004
9.15541e-05 0.482963 0.200671
9.15541e-05 0.477806 0.194293
9.15541e-05 0.472862 0.188067
9.15541e-05 0.46772 0.181903
9.15541e-05 0.462486 0.175769
9.15541e-05 0.456947 0.169543
0.000656138 0.504189 0.116701
0.0509346 0.523537 0.10663
0.192035 0.52871 0.082948
0.32108 0.540505 0.0776226
0.433143 0.550561 0.0752422
0.541756 0.543832 0.0615091
0.64567 0.523171 0.0395514
0.714977 0.514534 0.0308995
0.766735 0.512337 0.0281224
0.80827 0.512505 0.0258793
0.835401 0.515053 0.0248112
0.852522 0.519799 0.0255436
0.835142 0.444358 0.0031281
0.811994 0.330404 0.000411994
0.423819 1.5259e-05 0
0.423819 1.5259e-05 0
0.423819 1.5259e-05 0
0.423819 1.5259e-05 0
0.423819 1.5259e-05 0
0.000167849 0.565026 0.332296
0.000167849 0.561044 0.324773
0.000167849 0.557031 0.317113
0.00015259 0.552972 0.309529
0.00015259 0.548959 0.302007
0.000137331 0.545052 0.294759
0.000137331 0.540932 0.287358
0.000137331 0.536919 0.279911
0.000122072 0.532601 0.272816
0.000122072 0.528115 0.265797
0.000122072 0.523873 0.258686
0.000122072 0.519432 0.251469
0.000106813 0.515099 0.244388
0.000106813 0.510338 0.237339
0.000106813 0.505379 0.230442
0.00222782 0.556023 0.179004
0.0935225 0.578088 0.174365
0.26804 0.582254 0.150637
0.396567 0.593851 0.146181
0.507271 0.604822 0.144137
0.609781 0.600122 0.127138
0.699535 0.584329 0.0975662
0.757198 0.57792 0.0825818
0.803876 0.57882 0.0783398
0.836011 0.583566 0.0816968
0.860014 0.599557 0.101915
0.859449 0.572534 0.0634012
0.847807 0.503792 0.0118105
0.819409 0.379049 0.000808728
0.423819 1.5259e-05 0
0.423819 1.5259e-05 0
0.423819 1.5259e-05 0
0.423819 1.5259e-05 0
0.00030518 0.605509 0.412634
0.000289921 0.60148 0.406394
0.000274662 0.597528 0.400198
0.000259403 0.593637 0.393744
0.000244144 0.590127 0.386252
0.000228885 0.586419 0.37792
0.000213626 0.582773 0.369635
0.000213626 0.579187 0.361669
0.000198367 0.57554 0.353506
0.000198367 0.571801 0.345663
0.000183108 0.567834 0.337713
0.000167849 0.563775 0.329915
0.000167849 0.559686 0.322301
0.00015259 0.555764 0.314595
0.00015259 0.551736 0.30695
0.00015259 0.547555 0.299077
0.00743114 0.599405 0.247181
0.14725 0.625986 0.246738
0.34049 0.62974 0.222934
0.464179 0.640177 0.216434
0.575204 0.651621 0.217792
0.667521 0.649241 0.204395
0.743481 0.635431 0.16875
0.794217 0.632227 0.153979
0.832319 0.635859 0.156878
0.858732 0.647883 0.176989
0.866484 0.647913 0.174182
0.863752 0.619852 0.121782
0.856413 0.559716 0.0378882
0.8262 0.426383 0.00149538
0.423819 1.5259e-05 0
0.423819 1.5259e-05 0
0.423819 1.5259e-05 0
0.000793469 0.6439 0.481041
0.000717174 0.640482 0.474464
0.000656138 0.637003 0.467994
0.000595102 0.633814 0.46154
0.000534066 0.630228 0.45507
0.000488289 0.626688 0.448798
0.000442512 0.623224 0.442451
0.000411994 0.619654 0.436194
0.000366217 0.615747 0.429847
0.000335698 0.611994 0.423514
0.000320439 0.608179 0.417258
0.00030518 0.604303 0.410819
0.000289921 0.600305 0.404654
0.000274662 0.596262 0.398383
0.000259403 0.592523 0.391318
0.000244144 0.588937 0.383185
0.000228885 0.585061 0.374609
0.0218662 0.639796 0.316304
0.213413 0.664698 0.319036
0.407767 0.66891 0.294362
0.532143 0.677821 0.287556
0.637873 0.68864 0.291768
0.714031 0.689784 0.282567
0.779583 0.679591 0.243168
0.824903 0.678752 0.233051
0.856184 0.686427 0.248859
0.870802 0.696986 0.272312
0.869322 0.682216 0.237034
0.867094 0.658122 0.183307
0.862135 0.608576 0.0856336
0.832563 0.472099 0.00270085
0.423819 1.5259e-05 0
0.423819 1.5259e-05 0
0.00306706 0.678599 0.559228
0.00263981 0.675593 0.551659
0.00228885 0.672496 0.543908
0.00198367 0.669322 0.536431
0.00173953 0.666117 0.529015
0.00154116 0.662577 0.521798
0.00135805 0.659342 0.514336
0.00120546 0.656153 0.507149
0.00106813 0.652949 0.500252
0.000961318 0.649775 0.493065
0.000869764 0.64651 0.486091
0.00077821 0.642969 0.479286
0.000701915 0.639445 0.472557
0.000640879 0.636118 0.46595
0.000579843 0.632715 0.459541
0.000518807 0.629068 0.45301
0.00047303 0.62562 0.446525
0.000427253 0.621881 0.440024
0.0527199 0.671611 0.384222
0.291295 0.696345 0.392844
0.478401 0.700526 0.366491
0.599069 0.70808 0.36144
0.691844 0.720562 0.367071
0.754116 0.724849 0.360143
0.813046 0.717327 0.322515
0.850141 0.719066 0.31957
0.873625 0.733867 0.36202
0.872862 0.725124 0.338308
0.871946 0.712703 0.302831
0.869932 0.690898 0.246067
0.865965 0.64863 0.146517
0.837705 0.514168 0.00469978
0.423819 1.5259e-05 0
0.0106508 0.704082 0.616068
0.0104982 0.703899 0.613535
0.0103456 0.703822 0.611002
0.0102235 0.703761 0.608454
0.0101015 0.703593 0.605844
0.00886549 0.701442 0.601053
0.00706493 0.697002 0.594629
0.00570687 0.692424 0.587518
0.00479133 0.688243 0.579934
0.00402838 0.684337 0.572702
0.00344854 0.680873 0.564935
0.00294499 0.677745 0.557061
0.002533 0.674784 0.54963
0.0021973 0.671626 0.541772
0.00190738 0.668467 0.534279
0.00167849 0.665019 0.526879
0.00148013 0.661555 0.51931
0.00131228 0.658305 0.511818
0.00115969 0.654978 0.504509
0.111391 0.697261 0.451164
0.374151 0.722972 0.465339
0.545113 0.725338 0.442527
0.654383 0.735225 0.434363
0.738048 0.749508 0.440055
0.790295 0.755352 0.439948
0.840192 0.74995 0.401999
0.870954 0.757855 0.421271
0.875929 0.757534 0.425757
0.875257 0.750011 0.402045
0.874098 0.738888 0.366644
0.872465 0.720287 0.312062
0.868864 0.683116 0.208972
0.84184 0.553201 0.0080415
0.0127871 0.705608 0.641245
0.0125734 0.705501 0.639033
0.0123445 0.705318 0.636774
0.0121309 0.705135 0.634668
0.011902 0.704936 0.63241
0.0116884 0.704753 0.630137
0.0114748 0.704585 0.628016
0.0112764 0.704417 0.625711
0.0111391 0.704326 0.623209
0.0109865 0.704234 0.620554
0.0107576 0.704143 0.618036
0.010605 0.70396 0.615366
0.0104677 0.703883 0.612848
0.0103151 0.703807 0.61033
0.010193 0.703731 0.607645
0.0100557 0.703578 0.605051
0.00827039 0.700252 0.599023
0.00660716 0.695476 0.59266
0.00538643 0.69102 0.584909
0.00448615 0.686717 0.577081
0.196536 0.721187 0.52108
0.458717 0.742855 0.532586
0.607294 0.747356 0.51339
0.702159 0.758007 0.500175
0.778195 0.773388 0.506981
0.820722 0.783963 0.516945
0.863462 0.781247 0.484749
0.878477 0.784207 0.495369
0.878141 0.779293 0.480583
0.877653 0.772641 0.460899
0.876371 0.762005 0.429999
0.874632 0.745571 0.375631
0.871565 0.712901 0.272511
0.0164492 0.707744 0.66331
0.0160372 0.7075 0.661372
0.01561 0.707362 0.659266
0.0152438 0.70724 0.657298
0.014847 0.707027 0.655192
0.0145266 0.706874 0.653162
0.0142061 0.706615 0.650996
0.0138857 0.706371 0.648951
0.0135805 0.706233 0.646891
