luts/翠雨.cube
TITLE "Generated by Resolve"
LUT_3D_SIZE 5
0 0 0
0.0356451 0 0
0.312413 0 0
0.423819 1.5259e-05 0
0.423819 1.5259e-05 0
9.15541e-05 0.0043183 0.000366217
0.000946059 0.000106813 0
0.244114 0 0
0.423819 1.5259e-05 0
0.423819 1.5259e-05 0
0.000198367 0.274372 0.0265812
0.000350958 0.214405 0.0147707
0.338567 0.218204 0
0.423819 1.5259e-05 0
0.423819 1.5259e-05 0
0.00306706 0.678599 0.559228
0.00106813 0.652949 0.500252
0.00047303 0.62562 0.446525
0.813046 0.717327 0.322515
0.423819 1.5259e-05 0
0.108354 0.727214 0.738293
0.081529 0.722927 0.730144
0.0604257 0.719402 0.722362
0.0444038 0.716014 0.713069
0.882918 0.835523 0.74844
0 0.000122072 0.0100099
0.0376135 9.15541e-05 0.00402838
0.385916 0.000106813 3.0518e-05
0.423819 1.5259e-05 0
0.423819 1.5259e-05 0
0 0.00514229 0.0123751
0.00173953 0.00596628 0.0043946
0.363714 3.0518e-05 0
0.423819 1.5259e-05 0
0.423819 1.5259e-05 0
4.57771e-05 0.288411 0.104845
3.0518e-05 0.244678 0.0716411
0.362356 0.271443 0.00584421
0.527733 0.000122072 0
0.423819 1.5259e-05 0
0.0021973 0.670436 0.549126
0.000854505 0.644419 0.494301
0.000396735 0.616464 0.444846
0.805127 0.712047 0.327932
0.423819 1.5259e-05 0
0.0992294 0.725902 0.735836
0.0744488 0.721767 0.727871
0.0550698 0.718395 0.719646
0.0404364 0.715099 0.710124
0.882643 0.834119 0.74136
0.0975357 0.440436 0.6374
0.169833 0.411261 0.63032
0.735882 0.368765 0.619074
0.574472 0.00141909 0.0606699
0.423819 1.5259e-05 0
0.00178531 0.260746 0.486625
0.0231479 0.248402 0.484047
0.602518 0.229633 0.471412
0.574701 0.00114443 0.0201267
0.423819 1.5259e-05 0
4.57771e-05 0.311528 0.366995
0 0.318608 0.363607
0.399802 0.427527 0.416892
0.816175 0.139101 0.18677
0.423819 1.5259e-05 0
0.00215152 0.662974 0.583703
0.0009308 0.637125 0.534615
0.000442512 0.608759 0.488228
0.801129 0.719326 0.407263
0.622293 0.000656138 9.15541e-05
0.0933242 0.724941 0.733898
0.069749 0.721019 0.726116
0.0516213 0.717632 0.717754
0.038056 0.714443 0.707835
0.88249 0.833295 0.736812
0.816342 0.839353 0.818265
0.792233 0.833799 0.814252
0.830549 0.846525 0.806271
0.866972 0.837705 0.807218
0.501549 0.00328069 0.29572
0.678874 0.807187 0.775311
0.634806 0.790829 0.764889
0.693858 0.791959 0.76643
0.857588 0.78497 0.789654
0.501549 0.00328069 0.29572
0.479057 0.750866 0.747662
0.440482 0.731106 0.741894
0.508247 0.726543 0.749966
0.867048 0.729793 0.788006
0.549676 0.00218204 0.194034
0.0525826 0.70132 0.720546
0.0152438 0.668391 0.694301
0.179706 0.716579 0.733532
0.822889 0.799939 0.781292
0.863569 0.584695 0.671046
0.15259 0.734844 0.746593
0.112581 0.727749 0.739284
0.0849775 0.723491 0.731243
0.0630045 0.719875 0.723507
0.885222 0.841077 0.77789
0.896864 0.871763 0.84799
0.896864 0.871763 0.84799
0.896864 0.871763 0.84799
0.896864 0.871763 0.84799
0.896864 0.871763 0.84799
0.896864 0.871763 0.84799
0.896864 0.871763 0.84799
0.896864 0.871763 0.84799
0.896864 0.871763 0.84799
0.896864 0.871763 0.84799
0.896864 0.871763 0.84799
0.896864 0.871763 0.84799
0.896864 0.871763 0.84799
0.896864 0.871763 0.84799
0.896864 0.871763 0.84799
0.891478 0.867704 0.844099
0.874632 0.858946 0.83447
0.856382 0.851118 0.827527
0.888014 0.865873 0.842222
0.896864 0.871763 0.84799
0.163119 0.736599 0.748226
0.163119 0.736599 0.748226
0.163119 0.736599 0.748226
0.643381 0.810422 0.798825
0.896864 0.871763 0.84799
