luts/草萌.cube
TITLE "Generated by Resolve"
LUT_3D_SIZE 9
0 0 0
0.00112917 0 0
0.0728313 0 0
0.320928 0 0
0.526787 0 0
0.657221 0 0
0.709484 0 0
0.709484 0 0
0.709484 0 0
0 1.5259e-05 0
0 0 0
0.0233463 0 0
0.251545 0 0
0.483467 0 0
0.628565 0 0
0.709484 0 0
0.709484 0 0
0.709484 0 0
0 0.0115816 1.5259e-05
0 0.00556954 0
0.000701915 0.000183108 0
0.1393 3.0518e-05 0
0.434928 0 0
0.597025 0 0
0.709484 0 0
0.709484 0 0
0.709484 0 0
0 0.1608 0.00172427
0 0.139864 0.00123598
0 0.0891737 3.0518e-05
0.0261387 0.0250858 0
0.355901 0.0112612 0
0.561791 0 0
0.680919 0 0
0.709484 0 0
0.709484 0 0
0 0.348379 0.0268864
0 0.338552 0.0167544
0 0.320333 0.013901
0.00117494 0.249577 0.000595102
0.220996 0.187701 0
0.608164 0.14519 0
0.657115 0 0
0.709484 0 0
0.709484 0 0
0 0.509941 0.304372
0 0.493172 0.279408
0 0.475257 0.253178
0 0.457115 0.224445
0.0824445 0.496544 0.0905318
0.495201 0.44831 0.00210575
0.803464 0.369879 0
0.732586 0 0
0.709484 0 0
0 0.675029 0.512566
0 0.660731 0.495323
0 0.64651 0.477546
0 0.631937 0.459602
0 0.617166 0.441596
0.370565 0.714366 0.367971
0.71342 0.685084 0.216495
0.964614 0.648661 0.133806
0.78024 0.000808728 0
4.57771e-05 0.843107 0.650095
1.5259e-05 0.841276 0.639857
0 0.835004 0.62945
0 0.808133 0.615854
0 0.785931 0.603174
0 0.766247 0.590585
0.60557 0.861128 0.528038
0.85362 0.840757 0.407279
0.965621 0.798566 0.359243
0.0116121 0.86685 0.762081
0.0075227 0.864607 0.751751
0.00480659 0.862257 0.740978
0.00302129 0.859861 0.730175
0.00187686 0.857633 0.71957
0.00115969 0.855283 0.709041
0.000686656 0.852888 0.698161
0.786999 0.943862 0.644816
0.920546 0.94847 0.560708
0 0 0.0009308
0.000442512 0 0.000244144
0.0492103 0 0
0.317189 0 0
0.533303 0 0
0.654505 0 0
0.709484 0 0
0.709484 0 0
0.709484 0 0
0 0.000198367 0.000640879
0 0 7.62951e-05
0.0180667 0 0
0.244724 0 0
0.487098 0 0
0.625635 0 0
0.709484 0 0
0.709484 0 0
0.709484 0 0
0 0.0113832 0.00143435
0 0.00660716 0.000350958
0.000534066 0.0009308 0
0.137087 0.000213626 0
0.429496 0 0
0.593637 0 0
0.707012 0 0
0.709484 0 0
0.709484 0 0
0 0.133318 0.0121004
0 0.120623 0.00627146
0 0.100206 0.00030518
0.0246586 0.0287022 0
0.348928 0.0125429 0
0.559899 0 0
0.678233 0 0
0.709484 0 0
0.709484 0 0
0 0.316304 0.104372
0 0.299123 0.0643168
0 0.291325 0.0354009
0.00117494 0.24773 0.000869764
0.213046 0.180056 0
0.600763 0.138689 0
0.654078 0 0
0.709484 0 0
0.709484 0 0
0 0.506157 0.306981
0 0.487282 0.270893
0 0.469032 0.243839
0 0.451072 0.214557
0.073106 0.486992 0.0787213
0.486458 0.437568 0.00137331
0.796643 0.360204 0
0.731594 0 0
0.709484 0 0
0 0.67013 0.506798
0 0.655863 0.489372
0 0.641642 0.471473
0 0.6271 0.453574
0 0.612024 0.435492
0.360433 0.708766 0.360464
0.707378 0.67895 0.207523
0.958984 0.6392 0.118196
0.777813 0.000701915 0
3.0518e-05 0.842466 0.646586
1.5259e-05 0.840681 0.636316
0 0.825223 0.624811
0 0.800214 0.611627
0 0.779187 0.598825
0 0.760098 0.586374
0.597848 0.85594 0.523415
0.848417 0.835538 0.40296
0.966323 0.79382 0.353368
0.0100557 0.866209 0.758801
0.00646983 0.863783 0.748028
0.00411994 0.861402 0.737301
0.00256352 0.859113 0.726513
0.0016022 0.856825 0.715923
0.000976577 0.85449 0.705516
0.000564584 0.85211 0.694484
0.782269 0.943664 0.641459
0.920409 0.948409 0.556237
0 0 0.0193942
0.000137331 0 0.00704967
0.0196384 0 0.0034638
0.266529 0 0.000717174
0.531991 0 4.57771e-05
0.689143 0 0
0.709484 0 0
0.709484 0 0
0.709484 0 0
0 0.0015259 0.0248569
0 0.000396735 0.0116732
0.00671397 0.000198367 0.00418097
0.212573 0 0.000442512
0.480247 0 1.5259e-05
0.651896 0 0
0.709484 0 0
0.709484 0 0
0.709484 0 0
0 0.0149233 0.0327916
0 0.00747692 0.0180056
0.000946059 0.00375372 0.00502022
0.167773 0.00106813 0.000274662
0.446326 0 0
0.613626 0 0
0.703868 0 0
0.709484 0 0
0.709484 0 0
0 0.144625 0.0934768
0 0.123674 0.07187
0 0.0970779 0.0266575
0.045243 0.060502 0.00233463
0.416464 0.0280461 0
0.591516 0 0
0.675532 0 0
0.709484 0 0
0.709484 0 0
0 0.332845 0.200198
0 0.313497 0.179477
0 0.293629 0.158862
0.00198367 0.31574 0.0852522
0.262867 0.251148 0.00508125
0.656092 0.184726 0
0.690318 0 0
0.709484 0 0
0.709484 0 0
0 0.509987 0.35906
0 0.493156 0.340963
0 0.476036 0.321492
0 0.458839 0.300618
0.0845502 0.519905 0.215
0.509926 0.481224 0.0528115
0.82948 0.415473 0.00352483
0.762432 0.000259403 0
0.709484 0 0
0 0.668132 0.518593
0 0.653956 0.502968
0 0.639582 0.486168
0 0.624949 0.469184
0 0.610117 0.452155
0.350103 0.70782 0.385519
0.705837 0.678447 0.239399
0.955856 0.639704 0.154025
0.793591 0.00167849 0
3.0518e-05 0.842451 0.646448
1.5259e-05 0.840681 0.636347
0 0.816953 0.62388
0 0.7935 0.611124
0 0.773312 0.598383
0 0.754818 0.585946
0.589395 0.851469 0.522698
0.843549 0.830274 0.400565
0.966949 0.788998 0.347448
0.00895705 0.865614 0.755993
0.00575265 0.863203 0.745266
0.00361639 0.860807 0.73434
0.00222782 0.858442 0.7234
0.00135805 0.856046 0.712489
0.000823987 0.853697 0.7019
0.00047303 0.851286 0.690929
0.777859 0.943465 0.638148
0.920241 0.948287 0.551598
0 0.0373236 0.233371
0.00030518 0.0195621 0.202487
0.0145571 0.00332647 0.138979
0.231388 0.000167849 0.0381933
0.503944 0 0.00741588
0.702098 0 0.002533
0.788159 0 0.000335698
0.709484 0 0
0.709484 0 0
0 0.0405432 0.204532
0 0.0344396 0.19266
0.00341802 0.018143 0.15259
0.229618 0.0195468 0.1075
0.478904 1.5259e-05 0.00610361
0.660014 0 0.00138857
0.783047 0 9.15541e-05
0.709484 0 0
0.709484 0 0
0 0.0518349 0.186755
0 0.0386969 0.161273
0.000656138 0.0367437 0.146426
0.158114 0.0345464 0.100206
0.497536 0.00277714 0.0100404
0.615488 0 0.000671397
0.765774 0 0
0.709484 0 0
0.709484 0 0
0 0.15053 0.23032
0 0.131075 0.207477
0 0.117556 0.171038
0.0835889 0.133074 0.134325
0.471839 0.0802777 0.0288396
0.637827 0.000320439 0.000732433
0.724605 0 0
0.709484 0 0
0.709484 0 0
0 0.336614 0.309026
0 0.31783 0.287938
0 0.299977 0.265095
9.15541e-05 0.305211 0.193179
0.294286 0.300557 0.0884718
0.687388 0.235874 0.0132143
0.749065 9.15541e-05 0
0.709484 0 0
0.709484 0 0
0 0.510414 0.398352
0 0.493599 0.381018
0 0.476066 0.362524
0 0.459373 0.344305
0.0706493 0.52958 0.284871
0.519905 0.49659 0.126467
0.833951 0.437629 0.0325475
0.822065 0.000732433 0
0.709484 0 0
0 0.665461 0.526116
0 0.651331 0.511559
0 0.636759 0.495567
0 0.622126 0.479774
0 0.607401 0.463996
0.338766 0.706096 0.405463
0.704265 0.677073 0.268055
0.952895 0.640192 0.193317
0.817563 0.00547799 0
3.0518e-05 0.842344 0.645838
1.5259e-05 0.835859 0.635782
0 0.809155 0.623026
0 0.787228 0.610986
0 0.767971 0.599298
0 0.750301 0.588022
0.580056 0.847807 0.52784
0.839261 0.826185 0.410193
0.968856 0.785672 0.364645
0.0080415 0.865034 0.753368
0.00518807 0.862638 0.742794
0.00328069 0.860319 0.732036
0.00205997 0.858061 0.721553
0.00128176 0.855741 0.711284
0.00077821 0.853498 0.700725
0.000442512 0.851164 0.690074
0.772534 0.943389 0.638331
0.920226 0.948287 0.551217
0.0588235 0.397986 0.643412
0.103822 0.381552 0.628672
0.160464 0.352163 0.606851
0.307683 0.296635 0.566781
0.690181 0.282399 0.545037
0.68896 0.000167849 0.0685435
0.809812 0.000411994 0.0306096
0.804257 0.000137331 0.00741588
0.709484 0 0
0.00047303 0.299016 0.553414
0.0326848 0.31693 0.560159
0.082475 0.304601 0.543786
0.226993 0.258076 0.499489
0.625666 0.2533 0.477485
0.657847 0.00015259 0.0519875
0.806943 0.000228885 0.0144198
0.800977 6.10361e-05 0.00369268
0.709484 0 0
0 0.217182 0.45568
0.00244144 0.248798 0.480842
0.0231632 0.247333 0.469383
0.154238 0.218692 0.429191
0.546624 0.2168 0.405478
0.715358 0.00717174 0.115785
0.783139 6.10361e-05 0.0074464
0.797314 3.0518e-05 0.00184634
0.709484 0 0
0 0.226474 0.419196
0 0.222004 0.410254
0.00196841 0.238605 0.414801
0.104707 0.254917 0.407355
0.458228 0.244175 0.367819
0.745968 0.12311 0.217563
0.735653 0 0.00428778
0.793088 1.5259e-05 0.000885023
0.709484 0 0
0 0.347631 0.454185
0 0.329198 0.43534
0 0.322301 0.41738
0.0178988 0.35404 0.412314
0.352834 0.37438 0.382712
0.710216 0.324453 0.274861
0.855344 0.049546 0.046891
0.78967 0 0.000457771
0.709484 0 0
0 0.514748 0.498558
0 0.498177 0.481743
0 0.481437 0.465049
0 0.464546 0.447974
0.0571908 0.534737 0.399756
0.550423 0.529671 0.316762
0.841215 0.482811 0.219501
0.932357 0.036286 0.00747692
0.709484 0 0
0 0.667582 0.562051
0 0.653437 0.548852
0 0.638376 0.533578
0 0.623285 0.518791
0 0.608133 0.503212
0.325231 0.708415 0.456565
0.707927 0.68011 0.331456
0.951095 0.645441 0.265278
0.910826 0.0266117 0.000167849
4.57771e-05 0.84329 0.651148
1.5259e-05 0.828 0.640528
0 0.803113 0.628244
0 0.782376 0.616419
0 0.76379 0.604837
0 0.746578 0.594003
0.570291 0.844602 0.536446
0.835172 0.8224 0.420722
0.970321 0.782376 0.377722
0.00758373 0.864652 0.751858
0.00488289 0.862348 0.741344
0.00308232 0.859983 0.730648
0.0019379 0.85771 0.720165
0.00120546 0.855482 0.709834
0.000732433 0.853178 0.699428
0.000411994 0.850858 0.688731
0.766629 0.943252 0.637476
0.920195 0.948272 0.550027
0.421042 0.681682 0.856672
0.417472 0.665599 0.842878
0.42089 0.649638 0.829664
0.487266 0.637278 0.819181
0.621881 0.593317 0.799619
0.874815 0.568627 0.784909
0.801221 0.00270085 0.227756
0.804532 0.00213626 0.193683
0.81062 0.000991836 0.0966201
0.328374 0.625025 0.80766
0.339864 0.61091 0.796094
0.343511 0.595514 0.783658
0.411414 0.583642 0.773068
0.560464 0.541131 0.751858
0.832715 0.519478 0.736324
0.806561 0.00177005 0.167788
0.808637 0.00141909 0.138857
0.811109 0.000656138 0.0561685
0.231464 0.565744 0.760586
0.250172 0.551797 0.748516
0.258762 0.536324 0.735897
0.327504 0.525536 0.724971
0.48716 0.484916 0.700816
0.787503 0.466117 0.685679
0.855406 0.0093843 0.246784
0.810803 0.000946059 0.0911116
0.809735 0.000396735 0.0294194
0.120455 0.515587 0.710979
0.145724 0.502602 0.699794
0.170138 0.488533 0.687404
0.239551 0.478782 0.675868
0.415824 0.448707 0.650858
0.737789 0.42977 0.632578
0.897368 0.148272 0.439399
0.810941 0.00062562 0.0523079
0.806851 0.000228885 0.0139315
0.00689708 0.491295 0.656229
0.0139315 0.482124 0.646235
0.0683299 0.485328 0.642603
0.146181 0.481132 0.633173
0.360967 0.483619 0.620706
0.67953 0.459663 0.590311
0.885298 0.344259 0.491569
0.809445 0.000381476 0.0277867
0.804059 0.000122072 0.00694286
0 0.531289 0.621241
0 0.515389 0.608454
0 0.500114 0.594873
0.00323491 0.532036 0.602029
0.23978 0.578241 0.604959
0.587335 0.574517 0.571939
0.843839 0.531304 0.502785
0.972854 0.289845 0.338689
0.801663 7.62951e-05 0.00422675
0 0.676356 0.64094
0 0.661402 0.629343
0 0.646479 0.617594
0 0.631266 0.605707
0 0.61532 0.592279
0.294148 0.715175 0.558404
0.725978 0.692226 0.490684
0.951812 0.66212 0.432807
0.970764 0.223163 0.198932
0.000244144 0.848814 0.679072
7.62951e-05 0.826688 0.669413
1.5259e-05 0.802945 0.658076
0 0.78291 0.647364
0 0.764508 0.635798
0 0.747875 0.625223
0.550103 0.845167 0.576989
0.83418 0.820905 0.471611
0.97293 0.783246 0.43711
0.00956741 0.865995 0.757687
0.0061799 0.863584 0.747021
0.00395209 0.86125 0.736355
0.00247196 0.85893 0.725673
0.00155642 0.856687 0.715434
0.000961318 0.854398 0.705089
0.000564584 0.852079 0.694347
0.759197 0.943633 0.644953
0.920455 0.948425 0.557824
0.677592 0.869749 0.927932
0.665385 0.857908 0.929305
0.653651 0.846174 0.930327
0.656916 0.835248 0.931609
0.708309 0.825422 0.934386
0.819806 0.781872 0.934676
0.973465 0.751492 0.934524
0.741405 0.0112459 0.496178
0.741405 0.0112459 0.496178
0.621332 0.830915 0.930892
0.610086 0.819684 0.93164
0.597803 0.808454 0.932097
0.599771 0.797986 0.932723
0.650492 0.787945 0.934829
0.753735 0.742123 0.93547
0.973907 0.713359 0.934264
0.75285 0.0105745 0.472953
0.772671 0.00801099 0.410422
0.559838 0.793088 0.931243
0.548287 0.781628 0.931167
0.535332 0.770016 0.930907
0.536339 0.758846 0.93135
0.592706 0.743603 0.916716
0.705379 0.69453 0.895186
0.955489 0.670176 0.871244
0.781888 0.00627146 0.366461
0.78967 0.00476081 0.3187
0.487556 0.754421 0.926131
0.477592 0.736065 0.90396
0.469825 0.718654 0.885008
0.474815 0.70341 0.869215
0.541192 0.692393 0.857496
0.66775 0.651499 0.839353
0.907835 0.627527 0.824414
0.919966 0.100267 0.586191
0.799466 0.00300603 0.244602
0.412482 0.70985 0.86128
0.396902 0.693538 0.846754
0.397208 0.679042 0.833585
0.402197 0.665278 0.821241
0.47155 0.656199 0.811688
0.624552 0.62742 0.796429
0.864256 0.599786 0.779828
0.970657 0.364309 0.686412
0.805386 0.00196841 0.182574
0.296376 0.706111 0.813443
0.268376 0.688991 0.800504
0.289616 0.67805 0.790326
0.29958 0.665461 0.779355
0.38204 0.659449 0.770718
0.580713 0.657603 0.763104
0.81474 0.626902 0.740948
0.977157 0.536782 0.667628
0.809094 0.00134279 0.131182
0.000427253 0.699062 0.743465
0.000167849 0.682139 0.732174
4.57771e-05 0.665492 0.720623
1.5259e-05 0.650034 0.709514
0.167086 0.723247 0.741176
0.458427 0.737133 0.734478
0.739986 0.720012 0.706065
0.950683 0.682567 0.648234
0.977279 0.466545 0.574182
0.00955215 0.86598 0.757595
0.00416571 0.843366 0.74551
0.00169375 0.81912 0.733669
0.000671397 0.797253 0.721736
0.000228885 0.777829 0.710842
6.10361e-05 0.75903 0.699733
0.492378 0.849882 0.665125
0.840833 0.826047 0.610025
0.975601 0.792889 0.582345
0.0274815 0.871519 0.785
0.0196231 0.869596 0.775494
0.0136263 0.867674 0.765988
0.0090486 0.865675 0.756268
0.00582895 0.863279 0.745556
0.00370794 0.860883 0.734859
0.00230411 0.858625 0.724117
0.740566 0.945617 0.676677
0.92224 0.949477 0.599634
0.897459 0.951995 0.905699
0.872908 0.952392 0.907134
0.851575 0.952316 0.908354
0.836332 0.952209 0.909026
0.839139 0.952224 0.908919
0.910033 0.951858 0.905119
0.943175 0.951263 0.905287
0.951232 0.930861 0.912413
0.741405 0.0112459 0.496178
0.820996 0.951995 0.909468
0.803876 0.951782 0.909804
0.787549 0.951553 0.910048
0.775204 0.951217 0.910079
0.777478 0.951308 0.910094
0.83035 0.952148 0.909239
0.953552 0.921294 0.915557
0.962646 0.871565 0.926162
0.741405 0.0112459 0.496178
0.761929 0.95082 0.910079
0.747066 0.950454 0.910216
0.735943 0.946349 0.911376
0.735988 0.924971 0.917311
0.744106 0.908919 0.921843
0.797955 0.897673 0.926543
0.96289 0.865156 0.927077
0.968215 0.825605 0.931487
0.741405 0.0112459 0.496178
0.724941 0.919432 0.918563
0.715343 0.904067 0.922225
0.704036 0.89163 0.924834
0.694362 0.879652 0.926909
0.698131 0.868421 0.928695
0.749706 0.858579 0.931884
0.875456 0.817212 0.933379
0.97145 0.786038 0.933898
0.741405 0.0112459 0.496178
0.678538 0.878798 0.926604
0.663798 0.866835 0.927977
0.651942 0.855192 0.929259
0.640604 0.843687 0.930175
0.643854 0.833005 0.931365
0.695598 0.823804 0.934081
0.80708 0.782788 0.934936
0.973434 0.751842 0.934508
0.935637 0.282475 0.846372
0.616922 0.854154 0.928267
0.600137 0.842344 0.92903
0.589761 0.831037 0.9299
0.577325 0.819837 0.930434
0.580514 0.809476 0.93135
0.63386 0.801236 0.933715
0.751171 0.768109 0.936263
0.974182 0.733593 0.932601
0.971588 0.532494 0.885557
0.522469 0.862623 0.923308
0.502983 0.849943 0.923995
0.493248 0.838529 0.924849
0.482643 0.826993 0.925322
0.489662 0.815244 0.919722
0.560189 0.805081 0.901869
0.719112 0.794354 0.887404
0.935683 0.754025 0.861784
0.977142 0.675425 0.836881
0.180224 0.883009 0.871855
0.177646 0.882963 0.870497
0.130449 0.864012 0.852399
0.0915999 0.842298 0.836881
0.0599985 0.821744 0.822965
0.367269 0.868864 0.846784
0.620462 0.868925 0.833204
0.850767 0.844465 0.807721
0.974655 0.80734 0.776715
0.171756 0.882872 0.867445
0.139528 0.88191 0.852522
0.112703 0.880598 0.839796
0.0895552 0.879133 0.828321
0.0699779 0.877607 0.817929
0.0544747 0.87602 0.808179
0.0420691 0.874235 0.799054
0.658366 0.945571 0.74197
0.928069 0.951141 0.718868
0.943175 0.951263 0.905287
0.943175 0.951263 0.905287
0.943175 0.951263 0.905287
0.943175 0.951263 0.905287
0.943175 0.951263 0.905287
0.943175 0.951263 0.905287
0.943175 0.951263 0.905287
0.943175 0.951263 0.905287
0.943175 0.951263 0.905287
0.943175 0.951263 0.905287
0.943175 0.951263 0.905287
0.943175 0.951263 0.905287
0.943175 0.951263 0.905287
0.943175 0.951263 0.905287
0.943175 0.951263 0.905287
0.943175 0.951263 0.905287
0.943175 0.951263 0.905287
0.943175 0.951263 0.905287
0.943175 0.951263 0.905287
0.943175 0.951263 0.905287
0.943175 0.951263 0.905287
0.943175 0.951263 0.905287
0.943175 0.951263 0.905287
0.943175 0.951263 0.905287
0.943175 0.951263 0.905287
0.943175 0.951263 0.905287
0.943175 0.951263 0.905287
0.943175 0.951263 0.905287
0.943175 0.951263 0.905287
0.943175 0.951263 0.905287
0.920195 0.951812 0.904784
0.898741 0.95198 0.905623
0.902602 0.951949 0.90547
0.943175 0.951263 0.905287
0.943175 0.951263 0.905287
0.943175 0.951263 0.905287
0.905211 0.951904 0.905333
0.878401 0.952316 0.906752
0.856428 0.952331 0.90808
0.836728 0.952209 0.90901
0.822217 0.952026 0.909453
0.825025 0.952056 0.909361
0.890227 0.952132 0.906081
0.943175 0.951263 0.905287
0.953948 0.919676 0.916045
0.824964 0.952041 0.909361
0.806043 0.951827 0.909804
0.789761 0.951598 0.910033
0.774136 0.951171 0.910063
0.76199 0.95082 0.910079
0.764538 0.950896 0.910063
0.818723 0.948501 0.910857
0.954574 0.917296 0.916808
0.96286 0.8701 0.926375
0.758114 0.950713 0.910094
0.741909 0.950317 0.910292
0.727626 0.949859 0.910338
0.713344 0.949264 0.910231
0.702754 0.948837 0.910109
0.719371 0.928054 0.916182
0.775189 0.912047 0.922057
0.935225 0.88455 0.924819
0.965805 0.847974 0.929397
0.670405 0.947768 0.910124
0.655863 0.947204 0.910079
0.643397 0.946746 0.910094
0.632563 0.946365 0.91014
0.624308 0.946136 0.910231
0.63064 0.946334 0.910185
0.694972 0.933883 0.914275
0.848081 0.917525 0.922057
0.961471 0.879103 0.924956
0.180224 0.883009 0.871855
0.180224 0.883009 0.871855
0.180224 0.883009 0.871855
0.180224 0.883009 0.871855
0.180224 0.883009 0.871855
0.180224 0.883009 0.871855
0.52311 0.940948 0.909697
0.731044 0.949981 0.910353
0.943175 0.951263 0.905287
