luts/草萌.cube
TITLE "Generated by Resolve"
LUT_3D_SIZE 5
0 0 0
0.0728313 0 0
0.526787 0 0
0.709484 0 0
0.709484 0 0
0 0.0115816 1.5259e-05
0.000701915 0.000183108 0
0.434928 0 0
0.709484 0 0
0.709484 0 0
0 0.348379 0.0268864
0 0.320333 0.013901
0.220996 0.187701 0
0.657115 0 0
0.709484 0 0
0 0.675029 0.512566
0 0.64651 0.477546
0 0.617166 0.441596
0.71342 0.685084 0.216495
0.78024 0.000808728 0
0.0116121 0.86685 0.762081
0.00480659 0.862257 0.740978
0.00187686 0.857633 0.71957
0.000686656 0.852888 0.698161
0.920546 0.94847 0.560708
0 0 0.0193942
0.0196384 0 0.0034638
0.531991 0 4.57771e-05
0.709484 0 0
0.709484 0 0
0 0.0149233 0.0327916
0.000946059 0.00375372 0.00502022
0.446326 0 0
0.703868 0 0
0.709484 0 0
0 0.332845 0.200198
0 0.293629 0.158862
0.262867 0.251148 0.00508125
0.690318 0 0
0.709484 0 0
0 0.668132 0.518593
0 0.639582 0.486168
0 0.610117 0.452155
0.705837 0.678447 0.239399
0.793591 0.00167849 0
0.00895705 0.865614 0.755993
0.00361639 0.860807 0.73434
0.00135805 0.856046 0.712489
0.00047303 0.851286 0.690929
0.920241 0.948287 0.551598
0.0588235 0.397986 0.643412
0.160464 0.352163 0.606851
0.690181 0.282399 0.545037
0.809812 0.000411994 0.0306096
0.709484 0 0
0 0.217182 0.45568
0.0231632 0.247333 0.469383
0.546624 0.2168 0.405478
0.783139 6.10361e-05 0.0074464
0.709484 0 0
0 0.347631 0.454185
0 0.322301 0.41738
0.352834 0.37438 0.382712
0.855344 0.049546 0.046891
0.709484 0 0
0 0.667582 0.562051
0 0.638376 0.533578
0 0.608133 0.503212
0.707927 0.68011 0.331456
0.910826 0.0266117 0.000167849
0.00758373 0.864652 0.751858
0.00308232 0.859983 0.730648
0.00120546 0.855482 0.709834
0.000411994 0.850858 0.688731
0.920195 0.948272 0.550027
0.677592 0.869749 0.927932
0.653651 0.846174 0.930327
0.708309 0.825422 0.934386
0.973465 0.751492 0.934524
0.741405 0.0112459 0.496178
0.559838 0.793088 0.931243
0.535332 0.770016 0.930907
0.592706 0.743603 0.916716
0.955489 0.670176 0.871244
0.78967 0.00476081 0.3187
0.412482 0.70985 0.86128
0.397208 0.679042 0.833585
0.47155 0.656199 0.811688
0.864256 0.599786 0.779828
0.805386 0.00196841 0.182574
0.000427253 0.699062 0.743465
4.57771e-05 0.665492 0.720623
0.167086 0.723247 0.741176
0.739986 0.720012 0.706065
0.977279 0.466545 0.574182
0.0274815 0.871519 0.785
0.0136263 0.867674 0.765988
0.00582895 0.863279 0.745556
0.00230411 0.858625 0.724117
0.92224 0.949477 0.599634
0.943175 0.951263 0.905287
0.943175 0.951263 0.905287
0.943175 0.951263 0.905287
0.943175 0.951263 0.905287
0.943175 0.951263 0.905287
0.943175 0.951263 0.905287
0.943175 0.951263 0.905287
0.943175 0.951263 0.905287
0.943175 0.951263 0.905287
0.943175 0.951263 0.905287
0.905211 0.951904 0.905333
0.856428 0.952331 0.90808
0.822217 0.952026 0.909453
0.890227 0.952132 0.906081
0.953948 0.919676 0.916045
0.758114 0.950713 0.910094
0.727626 0.949859 0.910338
0.702754 0.948837 0.910109
0.775189 0.912047 0.922057
0.965805 0.847974 0.929397
0.180224 0.883009 0.871855
0.180224 0.883009 0.871855
0.180224 0.883009 0.871855
0.52311 0.940948 0.909697
0.943175 0.951263 0.905287
