luts/草萌.cube
TITLE "Generated by Resolve"
LUT_3D_SIZE 33
0 0 0
0 0 0
1.5259e-05 0 0
0.000228885 0 0
0.00112917 0 0
0.00410468 0 0
0.0130159 0 0
0.0339971 0 0
0.0728313 0 0
0.128405 0 0
0.190646 0 0
0.256352 0 0
0.320928 0 0
0.382712 0 0
0.438712 0 0
0.485084 0 0
0.526787 0 0
0.564889 0 0
0.598856 0 0
0.629404 0 0
0.657221 0 0
0.683192 0 0
0.709484 0 0
0.709484 0 0
0.709484 0 0
0.709484 0 0
0.709484 0 0
0.709484 0 0
0.709484 0 0
0.709484 0 0
0.709484 0 0
0.709484 0 0
0.709484 0 0
0 0 0
0 0 0
0 0 0
9.15541e-05 0 0
0.000610361 0 0
0.002533 0 0
0.00868238 0 0
0.0256809 0 0
0.0586862 0 0
0.111192 0 0
0.172015 0 0
0.237629 0 0
0.303609 0 0
0.3673 0 0
0.424765 0 0
0.473655 0 0
0.516381 0 0
0.5552 0 0
0.590356 0 0
0.622095 0 0
0.65008 0 0
0.676295 0 0
0.704067 0 0
0.709484 0 0
0.709484 0 0
0.709484 0 0
0.709484 0 0
0.709484 0 0
0.709484 0 0
0.709484 0 0
0.709484 0 0
0.709484 0 0
0.709484 0 0
0 0 0
0 0 0
0 0 0
3.0518e-05 0 0
0.00030518 0 0
0.00149538 0 0
0.00564584 0 0
0.0183719 0 0
0.0462806 0 0
0.0947738 0 0
0.15494 0 0
0.219837 0 0
0.286625 0 0
0.350744 0 0
0.409842 0 0
0.462226 0 0
0.505577 0 0
0.545342 0 0
0.581735 0 0
0.614542 0 0
0.642939 0 0
0.669749 0 0
0.696391 0 0
0.709484 0 0
0.709484 0 0
0.709484 0 0
0.709484 0 0
0.709484 0 0
0.709484 0 0
0.709484 0 0
0.709484 0 0
0.709484 0 0
0.709484 0 0
0 0 0
0 0 0
0 0 0
0 0 0
7.62951e-05 0 0
0.00062562 0 0
0.00326543 0 0
0.0125582 0 0
0.036408 0 0
0.0792248 0 0
0.137942 0 0
0.202243 0 0
0.269139 0 0
0.333913 0 0
0.395087 0 0
0.449516 0 0
0.494636 0 0
0.535546 0 0
0.572839 0 0
0.606332 0 0
0.635721 0 0
0.663371 0 0
0.689326 0 0
0.709484 0 0
0.709484 0 0
0.709484 0 0
0.709484 0 0
0.709484 0 0
0.709484 0 0
0.709484 0 0
0.709484 0 0
0.709484 0 0
0.709484 0 0
0 1.5259e-05 0
0 0 0
0 0 0
0 0 0
0 0 0
0.000183108 0 0
0.00141909 0 0
0.00650034 0 0
0.0233463 0 0
0.0595865 0 0
0.118166 0 0
0.185107 0 0
0.251545 0 0
0.317189 0 0
0.37995 0 0
0.436713 0 0
0.483467 0 0
0.525475 0 0
0.563653 0 0
0.597803 0 0
0.628565 0 0
0.656489 0 0
0.682475 0 0
0.709484 0 0
0.709484 0 0
0.709484 0 0
0.709484 0 0
0.709484 0 0
0.709484 0 0
0.709484 0 0
0.709484 0 0
0.709484 0 0
0.709484 0 0
0 0.000106813 0
0 6.10361e-05 0
0 4.57771e-05 0
0 1.5259e-05 0
0 0 0
3.0518e-05 0 0
0.000518807 0 0
0.00311284 0 0
0.0134585 0 0
0.0407111 0 0
0.0921187 0 0
0.157519 0 0
0.229984 0 0
0.300603 0 0
0.364797 0 0
0.422599 0 0
0.47216 0 0
0.515129 0 0
0.554101 0 0
0.589303 0 0
0.621256 0 0
0.649348 0 0
0.675593 0 0
0.703212 0 0
0.709484 0 0
0.709484 0 0
0.709484 0 0
0.709484 0 0
0.709484 0 0
0.709484 0 0
0.709484 0 0
0.709484 0 0
0.709484 0 0
0 0.000656138 0
0 0.000442512 0
0 0.00030518 0
0 0.000228885 0
0 6.10361e-05 0
0 1.5259e-05 0
0.000106813 0 0
0.00132753 0 0
0.00672923 0 0
0.0254978 0 0
0.0663767 0 0
0.130388 0 0
0.200366 0 0
0.276616 0 0
0.34815 0 0
0.407919 0 0
0.460548 0 0
0.504295 0 0
0.544244 0 0
0.580682 0 0
0.613596 0 0
0.642039 0 0
0.6692 0 0
0.695537 0 0
0.709484 0 0
0.709484 0 0
0.709484 0 0
0.709484 0 0
0.709484 0 0
0.709484 0 0
0.709484 0 0
0.709484 0 0
0.709484 0 0
0 0.00329595 0
0 0.00265507 0
0 0.00199893 0
0 0.00157168 0
0 0.000823987 0
0 0.000335698 0
0 0.000122072 0
0.000335698 1.5259e-05 0
0.00291447 0 0
0.0138552 0 0
0.0436255 0 0
0.101396 0 0
0.170077 0 0
0.245106 0 0
0.322866 0 0
0.392966 0 0
0.447837 0 0
0.493217 0 0
0.534279 0 0
0.571908 0 0
0.605402 0 0
0.634867 0 0
0.662669 0 0
0.688624 0 0
0.709484 0 0
0.709484 0 0
0.709484 0 0
0.709484 0 0
0.709484 0 0
0.709484 0 0
0.709484 0 0
0.709484 0 0
0.709484 0 0
0 0.0115816 1.5259e-05
0 0.0102998 1.5259e-05
0 0.00822461 1.5259e-05
0 0.0069276 1.5259e-05
0 0.00556954 0
0 0.00289921 0
0 0.00166323 0
0 0.000732433 0
0.000701915 0.000183108 0
0.00590524 7.62951e-05 0
0.0255589 7.62951e-05 0
0.0717784 6.10361e-05 0
0.1393 3.0518e-05 0
0.211994 0 0
0.291005 0 0
0.367971 0 0
0.434928 0 0
0.482048 0 0
0.524193 0 0
0.562524 0 0
0.597025 0 0
0.627832 0 0
0.655741 0 0
0.681758 0 0
0.709484 0 0
0.709484 0 0
0.709484 0 0
0.709484 0 0
0.709484 0 0
0.709484 0 0
0.709484 0 0
0.709484 0 0
0.709484 0 0
0 0.0304723 9.15541e-05
0 0.0281376 7.62951e-05
0 0.0245212 6.10361e-05
0 0.0217899 4.57771e-05
0 0.019852 3.0518e-05
0 0.0139315 0
0 0.00810254 0
0 0.00537118 0
4.57771e-05 0.00259403 0
0.00155642 0.000900282 0
0.012665 0.000442512 0
0.0458534 0.000411994 0
0.109758 0.000350958 0
0.180774 0.000228885 0
0.259434 9.15541e-05 0
0.338949 0 0
0.411948 0 0
0.470802 0 0
0.513848 0 0
0.55285 0 0
0.588373 0 0
0.620523 0 0
0.6486 0 0
0.674876 0 0
0.702342 0 0
0.709484 0 0
0.709484 0 0
0.709484 0 0
0.709484 0 0
0.709484 0 0
0.709484 0 0
0.709484 0 0
0.709484 0 0
0 0.0636606 0.000274662
0 0.0598611 0.000244144
0 0.0548867 0.000213626
0 0.0502937 0.000183108
0 0.0463111 0.000167849
0 0.0416876 4.57771e-05
0 0.0292058 0
0 0.0203555 0
0 0.0149386 0
0.000244144 0.0080415 0
0.00392157 0.00325017 0
0.0268254 0.00173953 0
0.0803235 0.00151064 0
0.153628 0.00131228 0
0.23035 0.0010071 0
0.312367 0.000549325 0
0.389838 0.000122072 0
0.451713 0 0
0.502739 0 0
0.543008 0 0
0.579629 0 0
0.61268 0 0
0.641291 0 0
0.668528 0 0
0.694835 0 0
0.709484 0 0
0.709484 0 0
0.709484 0 0
0.709484 0 0
0.709484 0 0
0.709484 0 0
0.709484 0 0
0.709484 0 0
0 0.111269 0.000732433
0 0.106691 0.000671397
0 0.101213 0.000610361
0 0.0951553 0.000549325
0 0.0896773 0.000488289
0 0.0874495 0.000320439
0 0.0747234 7.62951e-05
0 0.0541238 1.5259e-05
0 0.0412146 0
4.57771e-05 0.0335241 0
0.000915541 0.0213169 0
0.0106813 0.00996414 0
0.0530556 0.00595102 0
0.128435 0.00488289 0
0.207401 0.00434882 0
0.289204 0.00343328 0
0.369711 0.00210575 0
0.442588 0.000732433 0
0.496239 1.5259e-05 0
0.53312 0 0
0.570733 0 0
0.604486 0 0
0.634165 0 0
0.661982 0 0
0.687922 0 0
0.709484 0 0
0.709484 0 0
0.709484 0 0
0.709484 0 0
0.709484 0 0
0.709484 0 0
0.709484 0 0
0.709484 0 0
0 0.1608 0.00172427
0 0.156054 0.0016022
0 0.151492 0.00149538
0 0.145205 0.00135805
0 0.139864 0.00123598
0 0.134646 0.00112917
0 0.133516 0.000564584
0 0.115862 0.000167849
0 0.0891737 3.0518e-05
0 0.0736553 0
0.00030518 0.0629435 0
0.00289921 0.043534 0
0.0261387 0.0250858 0
0.0974899 0.0174105 0
0.185916 0.0144808 0
0.270588 0.0133669 0
0.355901 0.0112612 0
0.435294 0.00726329 0
0.500328 0.00289921 0
0.542214 0.000183108 0
0.561791 0 0
0.595987 0 0
0.627024 0 0
0.655009 0 0
0.680919 0 0
0.709422 0 0
0.709484 0 0
0.709484 0 0
0.709484 0 0
0.709484 0 0
0.709484 0 0
0.709484 0 0
0.709484 0 0
0 0.21091 0.00358587
0 0.206195 0.00335698
0 0.201495 0.00314336
0 0.195895 0.00289921
0 0.190631 0.00268559
0 0.185611 0.00250248
0 0.1832 0.00210575
0 0.180514 0.0010071
0 0.15613 0.000289921
0 0.127672 6.10361e-05
0.000122072 0.115129 1.5259e-05
0.00135805 0.102876 0
0.00935378 0.0771954 0
0.055848 0.0517128 0
0.152209 0.0399329 0
0.249149 0.0339208 0
0.339651 0.0325475 0
0.425452 0.0291142 0
0.501808 0.0216373 0
0.562249 0.0099794 0
0.592233 0.0011902 0
0.587915 0 0
0.619593 0 0
0.647745 0 0
0.674174 0 0
0.701625 0 0
0.709484 0 0
0.709484 0 0
0.709484 0 0
0.709484 0 0
0.709484 0 0
0.709484 0 0
0.709484 0 0
0 0.260914 0.00686656
0 0.256245 0.00646983
0 0.251728 0.00610361
0 0.246571 0.00570687
0 0.241535 0.00534066
0 0.236393 0.00500496
0 0.231266 0.00469978
0 0.232258 0.00378424
0 0.22887 0.0018616
0 0.192569 0.000457771
6.10361e-05 0.167086 0.000137331
0.000701915 0.157473 6.10361e-05
0.0043946 0.146517 0
0.0245975 0.122057 0
0.103334 0.0929427 0
0.209857 0.0753033 0
0.315755 0.065919 0
0.408881 0.0632029 0
0.491173 0.0584573 0
0.564843 0.0475013 0
0.622232 0.028397 0
0.64535 0.00483711 0
0.61268 0 0
0.640467 0 0
0.66775 0 0
0.694026 0 0
0.709484 0 0
0.709484 0 0
0.709484 0 0
0.709484 0 0
0.709484 0 0
0.709484 0 0
0.709484 0 0
0 0.309728 0.0123445
0 0.305425 0.0117494
0 0.301152 0.0111543
0 0.296483 0.0104982
0 0.291218 0.0099031
0 0.286229 0.00933852
0 0.281407 0.00881971
0 0.2766 0.00833143
0 0.278462 0.00689708
0 0.272679 0.0030518
4.57771e-05 0.225483 0.000656138
0.000350958 0.20795 0.00030518
0.00250248 0.201251 0.000167849
0.0119173 0.19382 3.0518e-05
0.0502632 0.169604 0
0.158083 0.139361 0
0.272053 0.121172 0
0.379294 0.11136 0
0.47248 0.105653 0
0.551186 0.0997024 0
0.621393 0.086244 0
0.676997 0.0598306 0
0.700099 0.0170138 0
0.634867 0 0
0.661067 0 0
0.687114 0 0
0.709484 0 0
0.709484 0 0
0.709484 0 0
0.709484 0 0
0.709484 0 0
0.709484 0 0
0.709484 0 0
0 0.348379 0.0268864
0 0.347051 0.0234226
0 0.345251 0.0204013
0 0.342382 0.0184024
0 0.338552 0.0167544
0 0.333913 0.0160067
0 0.329442 0.0152743
0 0.324819 0.0145571
0 0.320333 0.013901
0 0.322271 0.0118563
0 0.312505 0.00450141
0.00030518 0.26215 0.00102235
0.00117494 0.249577 0.000595102
0.00730907 0.247974 0.000350958
0.0273899 0.242893 6.10361e-05
0.0946822 0.218219 0
0.220996 0.187701 0
0.33666 0.170474 0
0.440253 0.159869 0
0.53257 0.151247 0
0.608164 0.14519 0
0.674296 0.132174 0
0.725368 0.103304 0
0.752514 0.043122 0
0.657115 0 0
0.68014 0 0
0.708461 0 0
0.709484 0 0
0.709484 0 0
0.709484 0 0
0.709484 0 0
0.709484 0 0
0.709484 0 0
0 0.377783 0.0695354
0 0.375128 0.0639506
0 0.372015 0.0587778
0 0.368978 0.0543069
0 0.36582 0.049836
0 0.362509 0.0457313
0 0.35935 0.0419623
0 0.356435 0.0384985
0 0.353597 0.0352483
0 0.350958 0.0322576
0 0.356664 0.0256504
3.0518e-05 0.356374 0.00889601
0.0009308 0.305058 0.00209049
0.00321965 0.294224 0.0011902
0.0189059 0.297337 0.000579843
0.0561837 0.291646 9.15541e-05
0.153841 0.267765 0
0.288304 0.238865 0
0.399023 0.22295 0
0.495674 0.211337 0
0.585824 0.201877 0
0.662104 0.194217 0
0.722637 0.180499 0
0.768734 0.151125 0
0.797589 0.0855268 0
0.679362 0 0
0.700694 0 0
0.709484 0 0
0.709484 0 0
0.709484 0 0
0.709484 0 0
0.709484 0 0
0.709484 0 0
0 0.414496 0.154955
0 0.409445 0.146807
0 0.40415 0.138537
0 0.400916 0.12961
0 0.397772 0.119951
0 0.394629 0.110948
0 0.391394 0.102342
0 0.388266 0.0944076
0 0.385306 0.0867475
0 0.382254 0.0792859
0 0.379339 0.0724956
0 0.38114 0.0640879
0.00015259 0.414862 0.0353704
0.00306706 0.362417 0.00961318
0.0111696 0.356497 0.00575265
0.047303 0.363241 0.00296025
0.112306 0.356603 0.000793469
0.221653 0.330251 1.5259e-05
0.355215 0.298543 0
0.458656 0.278813 0
0.54844 0.265675 0
0.63592 0.256336 0
0.711223 0.246128 0
0.765316 0.232212 0
0.808637 0.202762 0
0.838254 0.136873 0
0.703883 0 0
0.709484 0 0
0.709484 0 0
0.709484 0 0
0.709484 0 0
0.709484 0 0
0.709484 0 0
0 0.46331 0.234714
0 0.45893 0.227588
0 0.454475 0.220508
0 0.450156 0.213214
0 0.445472 0.206165
0 0.440589 0.19884
0 0.435523 0.19147
0 0.430655 0.184085
0 0.425711 0.176425
0 0.421439 0.16817
0 0.417105 0.159686
0 0.41236 0.151095
0 0.409125 0.139849
0.000366217 0.462974 0.105928
0.00869764 0.430625 0.043061
0.0338445 0.425742 0.026978
0.107073 0.435279 0.0174105
0.187076 0.433997 0.00775158
0.296864 0.406256 0.00122072
0.425681 0.370336 1.5259e-05
0.525887 0.347646 0
0.613367 0.332845 0
0.691127 0.318715 0
0.753292 0.301228 0
0.804562 0.287465 0
0.845914 0.259693 0
0.877531 0.195956 0
0.726131 0 0
0.709484 0 0
0.709484 0 0
0.709484 0 0
0.709484 0 0
0.709484 0 0
0 0.509941 0.304372
0 0.50573 0.29836
0 0.501549 0.292149
0 0.497276 0.285817
0 0.493172 0.279408
0 0.488655 0.27277
0 0.484169 0.266407
0 0.479652 0.2598
0 0.475257 0.253178
0 0.470665 0.246143
0 0.466102 0.239048
0 0.461555 0.2318
0 0.457115 0.224445
0 0.452903 0.215747
0.000289921 0.505974 0.176211
0.0200809 0.50071 0.129274
0.0824445 0.496544 0.0905318
0.191287 0.50779 0.0697337
0.276997 0.510109 0.0473793
0.374884 0.483787 0.0163882
0.495201 0.44831 0.00210575
0.594034 0.425147 0.000335698
0.67808 0.407553 1.5259e-05
0.748318 0.390982 0
0.803464 0.369879 0
0.840986 0.344839 0
0.880842 0.322744 0
0.91899 0.273732 0
0.732586 0 0
0.709484 0 0
0.709484 0 0
0.709484 0 0
0.709484 0 0
0 0.555428 0.364446
0 0.551461 0.359258
0 0.547356 0.353964
0 0.543359 0.348684
0 0.539208 0.343252
0 0.534707 0.337438
0 0.530343 0.331518
0 0.525979 0.325643
0 0.521492 0.319738
0 0.517174 0.314092
0 0.512825 0.308232
0 0.508476 0.302174
0 0.504173 0.295949
0 0.499779 0.289464
0 0.49543 0.282673
0.000549325 0.547875 0.24033
0.0374914 0.555611 0.218814
0.147723 0.562417 0.170443
0.277546 0.573343 0.148379
0.360449 0.571923 0.121096
0.445212 0.550683 0.0686351
0.559625 0.518914 0.0206912
0.65478 0.498268 0.00732433
0.734401 0.48368 0.00282292
0.798978 0.467613 0.00077821
0.848844 0.44303 1.5259e-05
0.88484 0.414725 0
0.917189 0.393042 0
0.927596 0.32369 0
0.740764 3.0518e-05 0
0.709484 0 0
0.709484 0 0
0.709484 0 0
0 0.597009 0.417075
0 0.593271 0.412421
0 0.589532 0.40766
0 0.585824 0.40293
0 0.582086 0.398337
0 0.578195 0.393545
0 0.574426 0.388647
0 0.570352 0.383764
0 0.566293 0.378683
0 0.562219 0.373526
0 0.558129 0.368093
0 0.554192 0.362692
0 0.550118 0.357458
0 0.546029 0.351965
0 0.541802 0.34641
0 0.537301 0.340627
0.00109865 0.593561 0.29456
0.0597848 0.6094 0.287587
0.22063 0.62179 0.245899
0.354238 0.628244 0.224567
0.433188 0.624018 0.19762
0.509575 0.607645 0.148669
0.618479 0.582223 0.0728008
0.70634 0.563439 0.0413062
0.779538 0.550622 0.0261234
0.83917 0.536736 0.0148318
0.889967 0.517311 0.00529488
0.929137 0.494026 0.000686656
0.939178 0.454841 0
0.931609 0.368292 0
0.751034 9.15541e-05 0
0.709484 0 0
0.709484 0 0
0 0.636652 0.46537
0 0.633082 0.460975
0 0.62948 0.45655
0 0.625849 0.452033
0 0.622126 0.4477
0 0.618479 0.443336
0 0.614694 0.438849
0 0.610986 0.434333
0 0.607233 0.429801
0 0.603387 0.425193
0 0.599619 0.420371
0 0.59588 0.415595
0 0.59205 0.410849
0 0.588342 0.406058
0 0.584634 0.401297
0 0.580667 0.396429
0 0.576684 0.391348
0.00228885 0.636469 0.342977
0.10135 0.657252 0.345861
0.298161 0.671962 0.312322
0.422858 0.673564 0.292439
0.497169 0.670909 0.269963
0.566064 0.658793 0.227649
0.668315 0.637598 0.147021
0.750256 0.619242 0.108019
0.816632 0.60766 0.0859998
0.874647 0.596338 0.0643778
0.927382 0.583703 0.0421302
0.965606 0.574701 0.0260929
0.950225 0.505547 0.000488289
0.934447 0.411307 0
0.763912 0.000289921 0
0.709484 0 0
0 0.675029 0.512566
0 0.671382 0.508278
0 0.667826 0.50399
0 0.664317 0.499641
0 0.660731 0.495323
0 0.657084 0.490867
0 0.653498 0.486458
0 0.650004 0.482017
0 0.64651 0.477546
0 0.642985 0.473014
0 0.639292 0.468498
0 0.63563 0.464103
0 0.631937 0.459602
0 0.628351 0.455085
0 0.624613 0.450614
0 0.620905 0.446143
0 0.617166 0.441596
0 0.613291 0.436957
0.00503548 0.674647 0.388388
0.163867 0.703227 0.398566
0.370565 0.714366 0.367971
0.484855 0.714717 0.34876
0.551873 0.713146 0.328832
0.616663 0.703853 0.293873
0.71342 0.685084 0.216495
0.78703 0.668101 0.181048
0.850965 0.658244 0.163027
0.910521 0.649744 0.143771
0.964614 0.648661 0.133806
0.969299 0.622202 0.0795605
0.960281 0.560494 0.00766003
0.93637 0.450645 0
0.78024 0.000808728 0
0 0.715236 0.554238
0 0.711192 0.551019
0 0.707286 0.547524
0 0.703441 0.543496
0 0.699672 0.539559
0 0.695842 0.535439
0 0.692088 0.531319
0 0.688441 0.527352
0 0.684764 0.523293
0 0.681163 0.519371
0 0.677607 0.51545
0 0.674006 0.51133
0 0.67039 0.507134
0 0.666819 0.502708
0 0.663188 0.498253
0 0.659602 0.493858
0 0.655879 0.489326
0 0.652354 0.484855
0 0.648707 0.480278
0.0109255 0.713542 0.430426
0.23743 0.74934 0.443046
0.436149 0.754177 0.415198
0.541573 0.753811 0.395193
0.60354 0.75256 0.37731
0.664485 0.743969 0.348516
0.751659 0.72723 0.276677
0.820706 0.712489 0.248951
0.886229 0.705104 0.235676
0.948745 0.700023 0.225086
0.971206 0.69276 0.208408
0.970962 0.665354 0.149401
0.966171 0.611215 0.0418555
0.937743 0.48925 1.5259e-05
0 0.759945 0.586374
0 0.75552 0.583413
0 0.751171 0.580346
0 0.746944 0.577325
0 0.742794 0.574365
0 0.738598 0.571359
0 0.734417 0.568322
0 0.730312 0.565393
0 0.726162 0.562463
0 0.722164 0.559457
0 0.718181 0.556542
0 0.714092 0.553429
0 0.71014 0.550072
0 0.706157 0.546319
0 0.702312 0.542306
0 0.698543 0.538262
0 0.694743 0.534203
0 0.690898 0.529976
0 0.687175 0.525856
0 0.68336 0.521675
0.0238956 0.756649 0.467796
0.306889 0.788846 0.481041
0.494697 0.79115 0.455589
0.59556 0.790814 0.436652
0.652522 0.78912 0.419593
0.705348 0.781674 0.395422
0.785245 0.766201 0.326726
0.855436 0.754086 0.306508
0.924773 0.748486 0.299184
0.970672 0.744564 0.295094
0.970748 0.729335 0.266911
0.970581 0.70489 0.215213
0.968811 0.656931 0.105257
0 0.816007 0.620005
0 0.80972 0.616754
0 0.803845 0.613642
0 0.798123 0.610498
0 0.79266 0.607233
0 0.787381 0.603983
0 0.782361 0.600839
0 0.777447 0.597681
0 0.772564 0.59469
