luts/薫風.cube
TITLE "Generated by Resolve"
LUT_3D_SIZE 33
1.5259e-05 1.5259e-05 3.0518e-05
9.15541e-05 1.5259e-05 0
0.000350958 1.5259e-05 0
0.000946059 0 0
0.00241093 0 0
0.00573739 0 0
0.0136416 0 0
0.0284886 0 0
0.0517281 0 0
0.0859083 0 0
0.127443 0 0
0.171328 0 0
0.217594 0 0
0.261723 0 0
0.303655 0 0
0.342168 0 0
0.37406 0 0
0.405142 0 0
0.43299 0 0
0.457603 0 0
0.478431 0 0
0.496147 0 0
0.509667 0 0
0.520577 0 0
0.525093 0 0
0.525093 0 0
0.525093 0 0
0.525093 0 0
0.525093 0 0
0.525093 0 0
0.525093 0 0
0.525093 0 0
0.525093 0 0
0 4.57771e-05 1.5259e-05
1.5259e-05 1.5259e-05 0
0.000137331 1.5259e-05 0
0.000518807 0 0
0.00146487 0 0
0.00375372 0 0
0.0091249 0 0
0.0215 0 0
0.0426947 0 0
0.074403 0 0
0.115282 0 0
0.159197 0 0
0.205493 0 0
0.250141 0 0
0.292805 0 0
0.333379 0 0
0.366171 0 0
0.397513 0 0
0.425849 0 0
0.451881 0 0
0.473106 0 0
0.492149 0 0
0.5066 0 0
0.517922 0 0
0.525093 0 0
0.525093 0 0
0.525093 0 0
0.525093 0 0
0.525093 0 0
0.525093 0 0
0.525093 0 0
0.525093 0 0
0.525093 0 0
0 7.62951e-05 0
0 4.57771e-05 0
3.0518e-05 1.5259e-05 0
0.000228885 0 0
0.000793469 0 0
0.00224308 0 0
0.00572213 0 0
0.0148623 0 0
0.0320745 0 0
0.0599832 0 0
0.101045 0 0
0.147494 0 0
0.192874 0 0
0.238483 0 0
0.282078 0 0
0.32372 0 0
0.358053 0 0
0.38938 0 0
0.418647 0 0
0.445899 0 0
0.467903 0 0
0.487678 0 0
0.503304 0 0
0.515251 0 0
0.524651 0 0
0.525093 0 0
0.525093 0 0
0.525093 0 0
0.525093 0 0
0.525093 0 0
0.525093 0 0
0.525093 0 0
0.525093 0 0
0 0.000137331 0
0 0.000106813 0
0 4.57771e-05 0
4.57771e-05 1.5259e-05 0
0.000350958 0 0
0.0012665 0 0
0.00363165 0 0
0.00975052 0 0
0.0237278 0 0
0.047715 0 0
0.0841688 0 0
0.129488 0 0
0.179583 0 0
0.227054 0 0
0.271397 0 0
0.312932 0 0
0.349676 0 0
0.381369 0 0
0.41146 0 0
0.438956 0 0
0.462516 0 0
0.482719 0 0
0.499611 0 0
0.512306 0 0
0.522637 0 0
0.525093 0 0
0.525093 0 0
0.525093 0 0
0.525093 0 0
0.525093 0 0
0.525093 0 0
0.525093 0 0
0.525093 0 0
0 0.000274662 0
0 0.000228885 0
0 0.000122072 1.5259e-05
0 6.10361e-05 0
9.15541e-05 1.5259e-05 0
0.000656138 0 0
0.00224308 0 0
0.00637827 0 0
0.0170901 0 0
0.0375067 0 0
0.0695201 0 0
0.113069 0 0
0.160739 0 0
0.213031 0 0
0.259846 0 0
0.301976 0 0
0.340917 0 0
0.373098 0 0
0.404196 0 0
0.43212 0 0
0.456916 0 0
0.477852 0 0
0.49575 0 0
0.50927 0 0
0.520272 0 0
0.525093 0 0
0.525093 0 0
0.525093 0 0
0.525093 0 0
0.525093 0 0
0.525093 0 0
0.525093 0 0
0.525093 0 0
0 0.000640879 1.5259e-05
0 0.000534066 1.5259e-05
0 0.000411994 0
0 0.000198367 0
0 0.000122072 0
0.000183108 3.0518e-05 0
0.00125124 1.5259e-05 0
0.00399786 0 0
0.011841 0 0
0.0287327 0 0
0.0572518 0 0
0.0981613 0 0
0.143877 0 0
0.195026 0 0
0.246174 0 0
0.291203 0 0
0.331991 0 0
0.365026 0 0
0.396368 0 0
0.42501 0 0
0.451255 0 0
0.472557 0 0
0.4916 0 0
0.506203 0 0
0.517632 0 0
0.525093 0 0
0.525093 0 0
0.525093 0 0
0.525093 0 0
0.525093 0 0
0.525093 0 0
0.525093 0 0
0.525093 0 0
0 0.00151064 1.5259e-05
0 0.00131228 1.5259e-05
0 0.00112917 1.5259e-05
0 0.000656138 0
0 0.000442512 0
1.5259e-05 0.000289921 0
0.000366217 9.15541e-05 0
0.00227359 3.0518e-05 0
0.00747692 1.5259e-05 0
0.0209049 1.5259e-05 0
0.0454871 0 0
0.0843519 0 0
0.128191 0 0
0.176989 0 0
0.227375 0 0
0.279057 0 0
0.322148 0 0
0.356847 0 0
0.388312 0 0
0.417884 0 0
0.445014 0 0
0.467201 0 0
0.487068 0 0
0.502876 0 0
0.514809 0 0
0.524407 0 0
0.525093 0 0
0.525093 0 0
0.525093 0 0
0.525093 0 0
0.525093 0 0
0.525093 0 0
0.525093 0 0
0 0.00337224 3.0518e-05
0 0.00296025 3.0518e-05
0 0.00268559 3.0518e-05
0 0.00216678 0
0 0.00129702 0
0 0.0010071 0
3.0518e-05 0.000610361 0
0.000747692 0.000198367 0
0.0043183 9.15541e-05 0
0.0143282 6.10361e-05 0
0.0354314 3.0518e-05 0
0.071458 1.5259e-05 0
0.115282 0 0
0.162066 0 0
0.210483 0 0
0.261448 0 0
0.310765 0 0
0.34844 0 0
0.380179 0 0
0.410498 0 0
0.4383 0 0
0.461845 0 0
0.482307 0 0
0.499184 0 0
0.512032 0 0
0.522255 0 0
0.525093 0 0
0.525093 0 0
0.525093 0 0
0.525093 0 0
0.525093 0 0
0.525093 0 0
0.525093 0 0
0 0.00730907 4.57771e-05
0 0.00650034 4.57771e-05
0 0.00582895 4.57771e-05
0 0.00538643 1.5259e-05
0 0.00366217 0
0 0.00257877 0
0 0.00221256 0
0.000106813 0.00141909 0
0.00157168 0.000579843 0
0.00891127 0.000259403 0
0.0268864 0.000167849 0
0.0597238 0.000106813 0
0.105348 4.57771e-05 0
0.151827 1.5259e-05 0
0.199115 0 0
0.245762 0 0
0.291722 0 0
0.337819 0 0
0.371954 0 0
0.403128 0 0
0.431266 0 0
0.45626 0 0
0.477287 0 0
0.495338 0 0
0.509041 0 0
0.520134 0 0
0.525093 0 0
0.525093 0 0
0.525093 0 0
0.525093 0 0
0.525093 0 0
0.525093 0 0
0.525093 0 0
0 0.0155947 0.000106813
0 0.0140688 9.15541e-05
0 0.0127108 9.15541e-05
0 0.0118715 7.62951e-05
0 0.0101167 1.5259e-05
0 0.00674449 0
0 0.00517281 0
0 0.00474556 0
0.00030518 0.00285344 0
0.0033875 0.00129702 0
0.0180819 0.000686656 0
0.0482795 0.000503548 0
0.0959335 0.000366217 0
0.145937 0.000244144 0
0.196902 0.000122072 0
0.245594 3.0518e-05 0
0.284398 0 0
0.320546 0 0
0.362081 0 0
0.395468 0 0
0.423987 0 0
0.450584 0 0
0.471992 0 0
0.491203 0 0
0.50602 0 0
0.517327 0 0
0.525093 0 0
0.525093 0 0
0.525093 0 0
0.525093 0 0
0.525093 0 0
0.525093 0 0
0.525093 0 0
0 0.0289616 0.000213626
0 0.0266423 0.000183108
0 0.0245518 0.000167849
0 0.0226444 0.000167849
0 0.0217136 9.15541e-05
0 0.0175174 1.5259e-05
0 0.0125124 0
0 0.0112306 0
4.57771e-05 0.0112612 0
0.000839246 0.00761425 0
0.00799573 0.00383001 0
0.0359045 0.00216678 0
0.0849165 0.0015259 0
0.140612 0.00122072 0
0.19472 0.000869764 0
0.248066 0.000503548 0
0.296925 0.000213626 0
0.33167 1.5259e-05 0
0.35082 0 0
0.385916 0 0
0.416922 0 0
0.444297 0 0
0.466651 0 0
0.486488 0 0
0.50248 0 0
0.514534 0 0
0.524193 0 0
0.525093 0 0
0.525093 0 0
0.525093 0 0
0.525093 0 0
0.525093 0 0
0.525093 0 0
0 0.0481422 0.000396735
0 0.0443427 0.000350958
0 0.041886 0.000335698
0 0.0395514 0.00030518
0 0.038529 0.000289921
0 0.0386511 0.000122072
0 0.0307622 3.0518e-05
0 0.0240177 0
0 0.0248875 0
0.000213626 0.0254673 0
0.00250248 0.019089 0
0.0198062 0.0108034 0
0.0677501 0.00668345 0
0.134401 0.00477607 0
0.194476 0.00378424 0
0.252094 0.00277714 0
0.307408 0.00178531 0
0.352972 0.000854505 0
0.385672 0.000213626 0
0.390158 0 0
0.408743 0 0
0.437446 0 0
0.461189 0 0
0.481743 0 0
0.498772 0 0
0.511635 0 0
0.522164 0 0
0.525093 0 0
0.525093 0 0
0.525093 0 0
0.525093 0 0
0.525093 0 0
0.525093 0 0
0 0.0745708 0.000732433
0 0.0707713 0.000686656
0 0.0675212 0.000640879
0 0.0645457 0.000595102
0 0.061799 0.000579843
0 0.0627604 0.000411994
0 0.0597086 0.000167849
0 0.0476387 3.0518e-05
0 0.043534 0
3.0518e-05 0.0473793 0
0.00077821 0.0489662 0
0.0068513 0.0390631 0
0.0419623 0.0260014 0
0.117357 0.0183566 0
0.192966 0.0136416 0
0.256626 0.0110628 0
0.318196 0.00860609 0
0.3729 0.00584421 0
0.415686 0.00303655 0
0.441627 0.000946059 0
0.439277 3.0518e-05 0
0.431586 0 0
0.455634 0 0
0.476555 0 0
0.494789 0 0
0.508644 0 0
0.51986 0 0
0.525093 0 0
0.525093 0 0
0.525093 0 0
0.525093 0 0
0.525093 0 0
0.525093 0 0
0 0.10808 0.00128176
0 0.104356 0.00120546
0 0.100801 0.00114443
0 0.0973526 0.00108339
0 0.0939803 0.00102235
0 0.0914626 0.00102235
0 0.0945449 0.00062562
0 0.0872206 0.000198367
0 0.0698558 3.0518e-05
0 0.0724041 1.5259e-05
0.000259403 0.0801709 1.5259e-05
0.00271611 0.0832837 0
0.0186923 0.0698863 0
0.0819715 0.0523995 0
0.173861 0.0400702 0
0.25568 0.0314946 0
0.326497 0.0271 0
0.388144 0.0225681 0
0.440284 0.0167086 0
0.481987 0.00981155 0
0.503166 0.00344854 0
0.491081 0.000320439 0
0.452918 0 0
0.471321 0 0
0.490684 0 0
0.505638 0 0
0.517052 0 0
0.525093 0 0
0.525093 0 0
0.525093 0 0
0.525093 0 0
0.525093 0 0
0.525093 0 0
0 0.141802 0.00204471
0 0.138506 0.00196841
0 0.135073 0.00187686
0 0.131563 0.00178531
0 0.128176 0.00170901
0 0.124804 0.00163272
0 0.124331 0.00151064
0 0.128985 0.000915541
0 0.113191 0.000213626
0 0.0997482 4.57771e-05
6.10361e-05 0.108049 3.0518e-05
0.00115969 0.120211 1.5259e-05
0.00808728 0.125597 0
0.0418708 0.113588 0
0.135103 0.0927596 0
0.23415 0.0750896 0
0.323613 0.0616464 0
0.396719 0.0532845 0
0.455604 0.046067 0
0.50695 0.0371099 0
0.5458 0.0251926 0
0.565408 0.0114748 0
0.546105 0.00144961 0
0.475425 0 0
0.485969 0 0
0.501945 0 0
0.514321 0 0
0.523995 0 0
0.525093 0 0
0.525093 0 0
0.525093 0 0
0.525093 0 0
0.525093 0 0
0 0.17525 0.00300603
0 0.171954 0.00291447
0 0.168353 0.00280766
0 0.165042 0.00270085
0 0.16173 0.00260929
0 0.158434 0.00250248
0 0.155138 0.00241093
0 0.155886 0.00216678
0 0.15906 0.00109865
0 0.134981 0.000183108
1.5259e-05 0.133776 7.62951e-05
0.000427253 0.146563 4.57771e-05
0.0037232 0.163073 3.0518e-05
0.0199741 0.17113 0
0.0786908 0.159899 0
0.193698 0.138628 0
0.30106 0.120775 0
0.391501 0.105577 0
0.465461 0.0924697 0
0.521706 0.0818341 0
0.56907 0.0674144 0
0.604212 0.0498207 0
0.622095 0.028275 0
0.603693 0.00544747 0
0.500069 0 0
0.498314 0 0
0.511452 0 0
0.52192 0 0
0.525093 0 0
0.525093 0 0
0.525093 0 0
0.525093 0 0
0.525093 0 0
0 0.205234 0.00483711
0 0.202762 0.00451667
0 0.19939 0.00430304
0 0.19617 0.00408942
0 0.193194 0.00389105
0 0.190417 0.00369268
0 0.187655 0.00349432
0 0.184848 0.00334173
0 0.187152 0.00289921
0 0.188952 0.0011902
0 0.159823 0.000167849
0.00015259 0.169131 9.15541e-05
0.00154116 0.187137 6.10361e-05
0.0102388 0.208515 3.0518e-05
0.0421302 0.217899 0
0.132738 0.208453 0
0.263371 0.187304 0
0.370703 0.170596 0
0.456992 0.154009 0
0.527749 0.137728 0
0.581094 0.124834 0
0.624826 0.108659 0
0.657221 0.0864118 0
0.672801 0.05449 0
0.66125 0.0175021 0
0.529397 0 0
0.508354 0 0
0.519432 0 0
0.525093 0 0
0.525093 0 0
0.525093 0 0
0.525093 0 0
0.525093 0 0
0 0.224369 0.0150301
0 0.222049 0.0139162
0 0.219501 0.0127565
0 0.217716 0.0113985
0 0.216648 0.00970474
0 0.215549 0.00831617
0 0.214038 0.00733959
0 0.212345 0.00663767
0 0.210559 0.00598154
0 0.21619 0.00462348
0 0.214481 0.00103761
6.10361e-05 0.190982 0.000183108
0.000564584 0.206256 0.000137331
0.00434882 0.229923 9.15541e-05
0.0246586 0.25539 1.5259e-05
0.0819867 0.26598 0
0.198291 0.259129 0
0.333288 0.240513 0
0.437507 0.223529 0
0.516243 0.206104 0
0.583154 0.187915 0
0.636744 0.171527 0
0.676722 0.15404 0
0.704997 0.129366 0
0.718791 0.0929427 0
0.711559 0.0393378 0
0.567681 0 0
0.516701 0 0
0.525093 0 0
0.525093 0 0
0.525093 0 0
0.525093 0 0
0.525093 0 0
0 0.252003 0.0367132
0 0.248661 0.0333867
0 0.246174 0.0305028
0 0.243565 0.0277867
0 0.241093 0.0255436
0 0.238666 0.0234836
0 0.23624 0.0215915
0 0.233814 0.0198062
0 0.231296 0.0181582
0 0.228473 0.0167849
0 0.231601 0.0139925
0 0.257832 0.00407416
0.00030518 0.232731 0.000427253
0.00164797 0.251713 0.000274662
0.0131075 0.281956 0.000183108
0.0520485 0.312276 3.0518e-05
0.13904 0.323033 0
0.267491 0.316075 0
0.401816 0.296239 0
0.497841 0.278233 0
0.571832 0.260761 0
0.634424 0.241596 0
0.687495 0.221729 0
0.723095 0.203204 0
0.745907 0.175952 0
0.759701 0.137331 0
0.75552 0.0728008 0
0.617517 0.000228885 0
0.523842 0 0
0.525093 0 0
0.525093 0 0
0.525093 0 0
0.525093 0 0
0 0.300999 0.088014
0 0.295552 0.0827497
0 0.289769 0.077348
0 0.283497 0.0719463
0 0.27892 0.0665293
0 0.274662 0.0612345
0 0.270237 0.0561685
0 0.265599 0.0512398
0 0.261204 0.0465858
0 0.25742 0.0422675
0 0.253651 0.0382696
0 0.255711 0.0315251
0 0.292927 0.0148623
0.000885023 0.280568 0.00187686
0.00448615 0.3028 0.00111391
0.032105 0.340017 0.00077821
0.102678 0.375662 0.000350958
0.206027 0.391226 4.57771e-05
0.345922 0.381689 0
0.473777 0.360037 0
0.562112 0.3393 0
0.628382 0.318486 0
0.684184 0.29752 0
0.730388 0.276585 0
0.762448 0.254292 0
0.7832 0.226352 0
0.796201 0.186145 0
0.795605 0.1187 0
0.679744 0.00199893 0
0.525093 0 0
0.525093 0 0
0.525093 0 0
0.525093 0 0
0 0.357214 0.141299
0 0.35259 0.136141
0 0.347814 0.130938
0 0.342657 0.125353
0 0.337057 0.120653
0 0.331365 0.115877
0 0.325765 0.110979
0 0.320256 0.106218
0 0.314626 0.101244
0 0.309239 0.0961776
0 0.303838 0.0908064
0 0.298405 0.0853285
0 0.294301 0.0739757
0 0.330602 0.0366064
0.00158694 0.339605 0.0108949
0.0123598 0.358144 0.0047303
0.0658122 0.398611 0.00364691
0.171054 0.441032 0.00236515
0.282963 0.462409 0.000991836
0.418738 0.451499 1.5259e-05
0.539834 0.427054 0
0.6224 0.403128 0
0.685374 0.380987 0
0.734981 0.358419 0
0.772595 0.33434 0
0.797757 0.306935 0
0.816342 0.279637 0
0.829129 0.239353 0
0.833158 0.172946 0
0.737591 0.0112306 0
0.525093 0 0
0.525093 0 0
0.525093 0 0
0 0.406577 0.19646
0 0.401862 0.191272
0 0.397208 0.186114
0 0.392416 0.180529
0 0.387717 0.175311
0 0.3832 0.170245
0 0.378592 0.165209
0 0.374105 0.160159
0 0.369421 0.154971
0 0.364858 0.149691
0 0.360082 0.14432
0 0.355322 0.139025
0 0.350271 0.133562
0 0.344808 0.123156
0 0.372122 0.0654459
0.00297551 0.395682 0.0366522
0.0271458 0.413977 0.0189364
0.12314 0.457298 0.0161898
0.251194 0.503319 0.0130159
0.357778 0.52607 0.00823987
0.482063 0.519768 0.00170901
0.598123 0.496193 9.15541e-05
0.677806 0.470558 0
0.734905 0.445838 0
0.777798 0.418921 0
0.809476 0.390982 0
0.832502 0.361379 0
0.844587 0.332418 0
0.859648 0.296498 0
0.870726 0.24332 0
0.767224 0.0263218 0
0.525093 0 0
0.525093 0 0
0 0.455573 0.249912
0 0.450919 0.245106
0 0.446403 0.240146
0 0.441825 0.235142
0 0.437079 0.229892
0 0.432654 0.224796
0 0.428061 0.219547
0 0.42356 0.214603
0 0.419211 0.20972
0 0.41445 0.204685
0 0.409674 0.199573
0 0.404807 0.194354
0 0.399985 0.189044
0 0.395087 0.183627
0 0.389944 0.17406
0 0.411749 0.103792
0.00550851 0.441215 0.079057
0.0531319 0.466819 0.0483864
0.191455 0.514748 0.0440528
0.322637 0.55848 0.0403296
0.423835 0.58117 0.0327764
0.539361 0.578698 0.0135653
0.649348 0.557336 0.00271611
0.722622 0.531777 0.000686656
0.773693 0.505821 0.000183108
0.810361 0.478492 1.5259e-05
0.83949 0.447929 0
0.862882 0.416236 0
0.876585 0.386374 0
0.889479 0.360021 0
0.880934 0.285771 0
0.790997 0.0480201 0
0.525093 0 0
0 0.502983 0.300572
0 0.499001 0.296132
0 0.494972 0.291493
0 0.490776 0.286839
0 0.486549 0.282002
0 0.482185 0.277302
0 0.47747 0.272496
0 0.472892 0.267643
0 0.468162 0.262852
0 0.463416 0.257923
0 0.458671 0.253025
0 0.453864 0.248127
0 0.449241 0.243259
0 0.444617 0.238132
0 0.439887 0.232944
0 0.434867 0.224079
0 0.454353 0.141176
0.007187 0.488228 0.124453
0.0974441 0.522042 0.0950637
0.25565 0.566781 0.0914015
0.3832 0.605386 0.0878157
0.483803 0.628351 0.0801556
0.590173 0.629633 0.0480659
0.692378 0.612177 0.0186618
0.758404 0.586831 0.00843824
0.802319 0.55993 0.00462348
0.836057 0.532372 0.00241093
0.865278 0.502419 0.000869764
0.89134 0.471214 0.000106813
0.908812 0.444053 0
0.904067 0.410468 0
0.889906 0.32784 0
0.810956 0.0769513 0
0 0.545022 0.351446
0 0.541283 0.346624
0 0.537453 0.341878
0 0.533593 0.337194
0 0.529686 0.332204
0 0.525795 0.327413
0 0.521965 0.322408
0 0.517784 0.317678
0 0.513787 0.313191
0 0.509758 0.308537
0 0.505699 0.303731
0 0.501656 0.299031
0 0.497658 0.294499
0 0.493507 0.289784
0 0.489296 0.284932
0 0.484916 0.279973
0 0.480125 0.27274
0 0.497566 0.176394
0.0117647 0.529564 0.164309
0.152728 0.570947 0.144381
0.3178 0.61088 0.143481
0.441901 0.646693 0.144839
0.537545 0.669764 0.141085
0.633677 0.674647 0.110185
0.729 0.658396 0.0581064
0.786526 0.634623 0.0375219
0.825711 0.608469 0.0273442
0.858656 0.580591 0.0190738
0.889509 0.551171 0.0116274
0.916793 0.522866 0.00656138
0.932158 0.500221 0.00343328
0.916228 0.451469 0
0.897108 0.368795 0
0 0.581872 0.402182
0 0.578439 0.397345
0 0.575082 0.392523
0 0.571694 0.387747
0 0.568353 0.383078
0 0.564965 0.378271
0 0.561624 0.37348
0 0.558083 0.368948
0 0.554665 0.364218
0 0.55111 0.359503
0 0.547524 0.354818
0 0.543984 0.349935
0 0.540078 0.345129
0 0.536233 0.340322
0 0.532235 0.335378
0 0.528359 0.330465
0 0.52433 0.325429
0 0.520363 0.319509
0 0.53666 0.210925
0.0252232 0.57026 0.203983
0.212528 0.614267 0.192142
0.378912 0.64828 0.194888
0.49601 0.683543 0.198413
0.586069 0.707668 0.199741
0.673304 0.714107 0.177478
0.75848 0.700191 0.12314
0.807996 0.676646 0.0955673
0.846525 0.651423 0.0778058
0.880644 0.624445 0.0623026
0.913298 0.595331 0.0501717
0.93431 0.573739 0.0530404
0.934051 0.542885 0.0198367
0.927199 0.493675 0.000503548
0 0.617288 0.453101
0 0.614008 0.448478
0 0.610758 0.443687
0 0.607569 0.438849
0 0.604379 0.434073
0 0.601144 0.429328
0 0.597803 0.424613
0 0.59443 0.419867
0 0.590997 0.415137
0 0.58764 0.410391
0 0.584283 0.405646
0 0.580835 0.400687
0 0.577417 0.395895
0 0.574075 0.391135
0 0.570596 0.386267
0 0.567239 0.38146
0 0.563867 0.376577
0 0.560265 0.371603
0 0.556619 0.366751
0 0.570947 0.246342
0.0541543 0.612451 0.245243
0.26865 0.652003 0.235996
0.431281 0.684123 0.241352
0.545068 0.717617 0.248844
0.628412 0.74168 0.255604
0.706905 0.748196 0.240818
0.78024 0.735378 0.189395
0.827665 0.714809 0.165606
0.867033 0.690974 0.148486
0.903243 0.664195 0.132982
0.936065 0.637613 0.128679
0.936339 0.616617 0.109071
0.935149 0.585977 0.0560769
0 0.653758 0.487922
0 0.650614 0.485145
0 0.647303 0.482078
0 0.643961 0.479042
0 0.640558 0.475929
0 0.637232 0.472816
0 0.633707 0.46952
0 0.630274 0.466346
0 0.626627 0.463004
