luts/薫風.cube
TITLE "Generated by Resolve"
LUT_3D_SIZE 9
1.5259e-05 1.5259e-05 3.0518e-05
0.00241093 0 0
0.0517281 0 0
0.217594 0 0
0.37406 0 0
0.478431 0 0
0.525093 0 0
0.525093 0 0
0.525093 0 0
0 0.000274662 0
9.15541e-05 1.5259e-05 0
0.0170901 0 0
0.160739 0 0
0.340917 0 0
0.456916 0 0
0.520272 0 0
0.525093 0 0
0.525093 0 0
0 0.00730907 4.57771e-05
0 0.00366217 0
0.00157168 0.000579843 0
0.105348 4.57771e-05 0
0.291722 0 0
0.431266 0 0
0.509041 0 0
0.525093 0 0
0.525093 0 0
0 0.0745708 0.000732433
0 0.061799 0.000579843
0 0.043534 0
0.0419623 0.0260014 0
0.318196 0.00860609 0
0.439277 3.0518e-05 0
0.494789 0 0
0.525093 0 0
0.525093 0 0
0 0.205234 0.00483711
0 0.193194 0.00389105
0 0.187152 0.00289921
0.00154116 0.187137 6.10361e-05
0.263371 0.187304 0
0.581094 0.124834 0
0.66125 0.0175021 0
0.525093 0 0
0.525093 0 0
0 0.357214 0.141299
0 0.337057 0.120653
0 0.314626 0.101244
0 0.294301 0.0739757
0.0658122 0.398611 0.00364691
0.539834 0.427054 0
0.772595 0.33434 0
0.833158 0.172946 0
0.525093 0 0
0 0.545022 0.351446
0 0.529686 0.332204
0 0.513787 0.313191
0 0.497658 0.294499
0 0.480125 0.27274
0.3178 0.61088 0.143481
0.729 0.658396 0.0581064
0.889509 0.551171 0.0116274
0.897108 0.368795 0
0 0.690776 0.519982
0 0.676417 0.508095
0 0.662745 0.496162
0 0.649668 0.484215
0 0.636194 0.471717
0 0.621653 0.45832
0.534859 0.748684 0.32697
0.81854 0.796658 0.31078
0.938506 0.714244 0.24715
0 0.793652 0.635019
0 0.789181 0.62298
0 0.784558 0.611276
0 0.780011 0.599634
0 0.775357 0.587549
0 0.770779 0.575769
0 0.76611 0.563897
0.702632 0.856855 0.482689
0.891005 0.917449 0.516167
0 1.5259e-05 0.000595102
0.000488289 0 0.000183108
0.0267948 0 0
0.213504 0 0
0.3953 0 0
0.491691 0 0
0.525093 0 0
0.525093 0 0
0.525093 0 0
0 0.000396735 0.000701915
1.5259e-05 0.000106813 7.62951e-05
0.0207218 0 0
0.179416 0 0
0.354284 0 0
0.470283 0 0
0.51928 0 0
0.525093 0 0
0.525093 0 0
0 0.00683604 0.00122072
0 0.00440986 0.000137331
0.00154116 0.00157168 0
0.133272 0.000259403 0
0.321889 0 0
0.441917 0 0
0.507744 0 0
0.525093 0 0
0.525093 0 0
0 0.0667887 0.00787366
0 0.0520333 0.0043183
0 0.0634012 9.15541e-05
0.0483711 0.0359045 0
0.344427 0.012192 0
0.466285 0.000183108 0
0.493172 0 0
0.525093 0 0
0.525093 0 0
0 0.210269 0.0597696
0 0.187366 0.0438087
0 0.167971 0.0266575
0.00192264 0.200641 0.000701915
0.278508 0.2056 0
0.593759 0.12784 0
0.661997 0.0194553 0
0.525093 0 0
0.525093 0 0
0 0.380514 0.196948
0 0.362066 0.175662
0 0.343145 0.153109
0 0.32253 0.120928
0.066331 0.404517 0.0152743
0.542214 0.442786 6.10361e-05
0.775311 0.331441 0
0.828107 0.164828 0
0.525093 0 0
0 0.546487 0.363363
0 0.530617 0.342168
0 0.513436 0.3196
0 0.493217 0.290822
0 0.473976 0.266239
0.310033 0.605127 0.136477
0.72398 0.652216 0.0509041
0.886091 0.54464 0.00875868
0.896147 0.36321 0
0 0.68574 0.516075
0 0.671763 0.504143
0 0.658274 0.49218
0 0.645151 0.480232
0 0.631418 0.46743
0 0.617136 0.452659
0.526787 0.744564 0.321172
0.815793 0.792752 0.30309
0.93904 0.708537 0.239445
0 0.792172 0.630823
0 0.787579 0.618997
0 0.783001 0.607401
0 0.778408 0.595453
0 0.773816 0.583673
0 0.769253 0.571817
0 0.764584 0.559915
0.698344 0.86392 0.477195
0.900511 0.911391 0.507088
0 0.000106813 0.00816358
0 0 0.0037995
0.0140688 3.0518e-05 0.00178531
0.176822 0 0.000106813
0.400717 0 0
0.54258 0 0
0.540352 0 0
0.525093 0 0
0.525093 0 0
0 0.0011902 0.011841
0 0.000686656 0.00872816
0.00914015 0.000564584 0.00337224
0.175998 1.5259e-05 3.0518e-05
0.351263 0 0
0.506905 0 0
0.539834 0 0
0.525093 0 0
0.525093 0 0
0 0.0124819 0.0230869
0 0.00798047 0.0131838
0.00132753 0.00552377 0.00393683
0.171496 0.000961318 1.5259e-05
0.366049 0 0
0.46923 0 0
0.531533 0 0
0.525093 0 0
0.525093 0 0
0 0.100328 0.0566262
0 0.0835279 0.0420844
0 0.072694 0.00987259
0.0621653 0.0603342 0.000518807
0.400595 0.0207675 0
0.534829 0.000259403 0
0.522698 0 0
0.525093 0 0
0.525093 0 0
0 0.239734 0.117891
0 0.221973 0.101259
0 0.20383 0.0751812
0.0015259 0.241199 0.0196994
0.29691 0.244083 0.00047303
0.632715 0.150637 0
0.710185 0.0246281 0
0.525093 0 0
0.525093 0 0
0 0.392386 0.232837
0 0.375418 0.216159
0 0.35935 0.200137
0 0.342901 0.172015
0.066392 0.420645 0.0592508
0.546944 0.470283 0.00872816
0.796078 0.357397 9.15541e-05
0.851331 0.173938 0
0.525093 0 0
0 0.54995 0.380819
0 0.53547 0.363958
0 0.520806 0.347127
0 0.505806 0.330236
0 0.490883 0.305226
0.301289 0.604715 0.185153
0.721172 0.658793 0.116976
0.887495 0.547921 0.0400702
0.911269 0.364034 0
0 0.685084 0.523049
0 0.671717 0.512169
0 0.658717 0.501045
0 0.646082 0.489525
0 0.632624 0.477348
0 0.61854 0.464149
0.520241 0.741955 0.334005
0.81294 0.790372 0.318486
0.937804 0.704265 0.252384
0 0.791821 0.629938
0 0.787259 0.618204
0 0.782712 0.606683
0 0.778195 0.594949
0 0.773617 0.583108
0 0.769085 0.571435
0 0.764385 0.559396
0.693049 0.870039 0.47631
0.908339 0.905684 0.503441
0 0.0243839 0.171023
0 0.0187381 0.173495
0.00682078 0.00772107 0.14287
0.283436 0.00820935 0.0996872
0.397971 9.15541e-05 0.00218204
0.564248 1.5259e-05 0.000396735
0.662409 0 0
0.536095 0 0
0.525093 0 0
0 0.018967 0.120699
0 0.0199588 0.143252
0.00125124 0.0103456 0.120241
0.226307 0.0159762 0.0928359
0.420218 0.000244144 0.00259403
0.524239 0 0.00015259
0.63389 0 0
0.544076 0 0
0.525093 0 0
0 0.033814 0.12459
0 0.0310216 0.126619
0.00015259 0.0317082 0.126833
0.1617 0.0306096 0.0871595
0.457588 0.00332647 0.00495918
0.482017 0 4.57771e-05
0.60412 0 0
0.549279 0 0
0.525093 0 0
0 0.124743 0.184878
0 0.111467 0.165743
0 0.116686 0.149828
0.0829328 0.13341 0.112184
0.456397 0.0616922 0.0130465
0.610941 0.00311284 0.000106813
0.572946 0 0
0.559777 0 0
0.525093 0 0
0 0.272297 0.238972
0 0.254505 0.219623
0 0.242313 0.191409
0 0.263523 0.116182
0.309865 0.287724 0.0441291
0.657603 0.188739 0.00224308
0.761532 0.0377661 0
0.584253 0 0
0.525093 0 0
0 0.412665 0.29691
0 0.395102 0.279301
0 0.377951 0.261128
0 0.362524 0.22855
0.0558938 0.437903 0.136248
0.547616 0.483757 0.0473335
0.797818 0.370062 0.00497444
0.872724 0.190112 0
0.525093 0 0
0 0.554635 0.401877
0 0.539925 0.38529
0 0.525368 0.368627
0 0.510765 0.35198
0 0.496513 0.32398
0.290852 0.603693 0.211276
0.717403 0.659052 0.151797
0.885893 0.547494 0.0660868
0.919448 0.37023 0.00164797
0 0.683009 0.526192
0 0.669963 0.515618
0 0.657481 0.505028
0 0.64509 0.493706
0 0.631785 0.482246
0 0.61857 0.467094
0.513298 0.738994 0.341619
0.810224 0.787717 0.328405
0.936339 0.699748 0.261646
0 0.791058 0.627924
0 0.786542 0.616464
0 0.782071 0.605081
0 0.777661 0.593576
0 0.77319 0.581979
0 0.768841 0.570825
0 0.762707 0.560159
0.688151 0.866651 0.47628
0.905791 0.901091 0.503456
0.00271611 0.280217 0.544701
0.00924697 0.267781 0.53579
0.049897 0.253315 0.525429
0.23444 0.215778 0.505684
0.666087 0.217395 0.509773
0.648936 0.00167849 0.0852522
0.696818 0.000198367 0.00425727
0.690303 9.15541e-05 0.00161746
0.525093 0 0
0 0.214572 0.462348
0.00103761 0.215122 0.467628
0.0154421 0.208362 0.461311
0.154803 0.171557 0.432303
0.603845 0.18584 0.438178
0.680613 0.00943008 0.133684
0.662425 9.15541e-05 0.00277714
0.683986 4.57771e-05 0.00062562
0.536675 0 0
0 0.149569 0.351186
0 0.17612 0.396811
0.00209049 0.178134 0.398978
0.0919814 0.151492 0.368322
0.530419 0.165362 0.369772
0.678141 0.0234226 0.135302
0.628779 6.10361e-05 0.00151064
0.677317 1.5259e-05 0.000213626
0.543755 0 0
0 0.178256 0.333455
0 0.189227 0.352422
0 0.203265 0.367269
0.0573281 0.2215 0.367544
0.445121 0.214557 0.336828
0.70013 0.101869 0.173724
0.593683 3.0518e-05 0.000793469
0.670481 0 4.57771e-05
0.554513 0 0
0 0.309529 0.396094
0 0.290288 0.375708
0 0.300267 0.372107
0.00361639 0.347234 0.380591
0.337346 0.364996 0.344961
0.679072 0.273732 0.205432
0.802502 0.109148 0.0540322
0.661936 0 0
0.577661 0 0
0 0.452323 0.429114
0 0.434852 0.411276
0 0.417777 0.393896
0 0.413748 0.36434
0.027924 0.482353 0.296849
0.557061 0.515679 0.252232
0.798505 0.407858 0.129778
0.892744 0.226749 0.0420386
0.618753 0 0
0 0.574639 0.47277
0 0.560662 0.455817
0 0.546181 0.439109
0 0.531044 0.421592
0 0.520394 0.385763
0.270726 0.616861 0.293065
0.715038 0.66482 0.249149
0.884062 0.55491 0.150759
0.91162 0.38555 0.0519417
0 0.686488 0.544381
0 0.673915 0.53402
0 0.661585 0.523491
0 0.649378 0.512261
0 0.636591 0.500832
0 0.62504 0.47982
0.506645 0.738048 0.364889
0.807248 0.785855 0.353094
0.934173 0.695949 0.28098
0 0.791684 0.629541
0 0.787198 0.618006
0 0.782757 0.606821
0 0.778317 0.595209
0 0.773816 0.583627
0 0.769467 0.572412
0 0.756771 0.565133
0.683696 0.86247 0.478218
0.901518 0.896651 0.503883
0.164034 0.540169 0.747143
0.167468 0.526513 0.737789
0.193668 0.514412 0.73019
0.303777 0.505547 0.724971
0.524285 0.483314 0.725109
0.831067 0.480415 0.734539
0.898924 0.155474 0.500237
0.713542 0.00137331 0.0802014
0.711437 0.000885023 0.0440375
0.0966049 0.488334 0.708568
0.108141 0.474784 0.699718
0.131685 0.462379 0.691112
0.238849 0.455344 0.68629
0.461875 0.430182 0.683436
0.797864 0.430655 0.694911
0.877058 0.140963 0.472526
0.711635 0.000900282 0.0459449
0.707607 0.000549325 0.0218051
0.0287022 0.435492 0.663371
0.0503548 0.425528 0.657511
0.0698253 0.412039 0.648341
0.168078 0.40502 0.643305
0.387152 0.376883 0.63389
0.759548 0.381323 0.647776
0.846723 0.127733 0.42739
0.707897 0.000564584 0.0229648
0.701976 0.000320439 0.00907912
0.0009308 0.397757 0.611566
0.0122377 0.399207 0.617426
0.0243076 0.387839 0.609628
0.0995193 0.383703 0.605676
0.320272 0.360327 0.58735
0.713954 0.36321 0.597589
0.835142 0.169909 0.411856
0.702464 0.000335698 0.00975052
0.695445 0.000167849 0.00349432
0 0.391867 0.55761
4.57771e-05 0.421881 0.583093
0.00187686 0.42388 0.584039
0.0335393 0.428321 0.583902
0.277348 0.435401 0.572824
0.655543 0.423545 0.555947
0.82826 0.284581 0.413077
0.690501 0.000183108 0.00422675
0.689586 9.15541e-05 0.00148013
0 0.497246 0.575265
0 0.479744 0.559915
0 0.47805 0.554452
4.57771e-05 0.51989 0.570993
0.142473 0.563455 0.571527
0.570123 0.569497 0.542046
0.799573 0.47657 0.428565
0.90428 0.28957 0.26714
0.684764 4.57771e-05 0.000701915
0 0.61265 0.587854
0 0.598978 0.575341
0 0.58468 0.562325
0 0.570306 0.548409
0 0.583062 0.521813
0.228351 0.659098 0.466468
0.720851 0.680644 0.455573
0.88191 0.578347 0.332815
0.903212 0.401007 0.241276
0 0.704768 0.601373
0 0.692042 0.590646
0 0.68011 0.580423
0 0.668238 0.570169
0 0.656107 0.559121
0 0.651698 0.521584
0.492576 0.750072 0.444968
0.804349 0.78793 0.437293
0.929534 0.696056 0.349432
0 0.797299 0.645197
0 0.79295 0.633234
0 0.78854 0.621347
0 0.78407 0.610025
0 0.779629 0.598566
0 0.775097 0.586923
0 0.758358 0.575265
0.679561 0.860059 0.498527
0.896895 0.893599 0.52047
0.404776 0.733166 0.824948
0.384192 0.716426 0.824048
0.372656 0.700679 0.822766
0.392538 0.687922 0.821439
0.487037 0.679698 0.821378
0.652598 0.650004 0.846708
0.919799 0.673472 0.876158
0.92047 0.414343 0.818479
0.694591 0.0065156 0.297566
0.319677 0.677348 0.821637
0.306554 0.661234 0.820584
0.302144 0.655055 0.843122
0.335103 0.649378 0.83743
0.449531 0.645548 0.829297
0.636973 0.623667 0.828702
0.918212 0.634409 0.828901
0.912093 0.364858 0.748333
0.705501 0.00424201 0.225498
0.257023 0.640787 0.826169
0.260639 0.630014 0.813703
0.261341 0.617838 0.801999
0.293507 0.608881 0.79382
0.413169 0.606012 0.789578
0.610147 0.586938 0.790097
0.884565 0.593179 0.798596
0.905776 0.319158 0.677974
0.711055 0.00282292 0.165484
0.199222 0.606195 0.785779
0.20856 0.595331 0.777691
0.209018 0.582971 0.768872
0.238392 0.573434 0.761776
0.357931 0.570809 0.758007
0.568566 0.552193 0.755367
0.85333 0.553536 0.766995
0.901656 0.30016 0.608164
0.713252 0.00189212 0.116136
0.127993 0.594202 0.757794
0.1393 0.58294 0.750439
0.144305 0.570443 0.742214
0.172671 0.559823 0.734783
0.293812 0.557137 0.730022
0.526436 0.545174 0.723857
0.819837 0.543526 0.731929
0.910353 0.336065 0.567956
0.713268 0.00128176 0.0728466
0.035172 0.63035 0.738689
0.0434272 0.621393 0.733013
0.0574807 0.612634 0.726818
0.0840467 0.604288 0.720439
0.209384 0.60383 0.715923
0.499184 0.613748 0.708202
0.775998 0.601617 0.700664
0.91252 0.448722 0.568048
0.711284 0.000854505 0.042359
0 0.651194 0.699336
0 0.637415 0.689113
0 0.623865 0.678691
0 0.638514 0.684962
0.0463111 0.698405 0.710185
0.37232 0.7122 0.696361
0.724544 0.717464 0.684215
0.881102 0.634653 0.588907
0.901854 0.445014 0.44033
0 0.743435 0.69453
0 0.729717 0.686213
0 0.716258 0.677211
0 0.703868 0.668025
0 0.691859 0.658656
0.00172427 0.729397 0.637385
0.444556 0.782467 0.593759
0.807797 0.799359 0.604013
0.92224 0.714992 0.500679
0.000808728 0.815198 0.694102
0.000396735 0.811093 0.682597
0.000167849 0.806897 0.671
4.57771e-05 0.802548 0.659449
0 0.798245 0.647654
0 0.793851 0.635615
0 0.78645 0.569512
0.670481 0.866606 0.562707
0.893553 0.894667 0.583001
0.753933 0.909163 0.837003
0.739406 0.914183 0.835081
0.723735 0.916655 0.83241
0.718273 0.899626 0.833814
0.736233 0.887175 0.834516
0.811948 0.887129 0.839979
0.905852 0.871702 0.854139
0.906828 0.834516 0.853162
0.924239 0.610513 0.87747
0.695537 0.892927 0.833234
0.676127 0.877501 0.832975
0.654551 0.864729 0.832517
0.641413 0.852811 0.832212
0.658549 0.844068 0.831708
0.745388 0.843687 0.834989
0.905699 0.828687 0.850538
0.909133 0.794934 0.854734
0.925353 0.575982 0.880842
0.608972 0.846143 0.832044
0.585214 0.832578 0.831037
0.560037 0.818036 0.829725
0.544915 0.803861 0.82826
0.56376 0.793133 0.826947
0.661921 0.792203 0.828534
0.817914 0.76994 0.843549
0.912886 0.75555 0.858518
0.925566 0.538842 0.88365
0.507179 0.797665 0.828489
0.484459 0.781964 0.827497
0.45951 0.765805 0.826658
0.444938 0.750332 0.825559
0.465126 0.738384 0.824033
0.566751 0.734722 0.824948
0.728923 0.709957 0.833432
0.917784 0.716594 0.863066
0.925231 0.50869 0.885985
0.404639 0.751049 0.826703
0.384939 0.734661 0.825605
0.365133 0.718196 0.824598
0.35404 0.7028 0.823331
0.374533 0.690379 0.821851
0.469749 0.683696 0.82826
0.649439 0.665324 0.860929
0.931502 0.682383 0.865064
0.920394 0.480674 0.82031
0.308827 0.724544 0.826947
0.293126 0.708019 0.825544
0.283879 0.698924 0.838804
0.284962 0.693584 0.844144
0.321492 0.687205 0.832135
0.446479 0.688136 0.825284
0.647883 0.677241 0.821866
0.906126 0.679728 0.821576
0.914107 0.508461 0.762524
0.21355 0.763684 0.845548
0.198795 0.753216 0.83267
0.209644 0.745983 0.822599
0.212299 0.73753 0.813733
0.25098 0.73135 0.80647
0.394858 0.731228 0.800275
0.649165 0.742947 0.796155
0.863523 0.729656 0.793149
0.910582 0.601923 0.711528
0.0128481 0.798016 0.793591
0.00724804 0.785626 0.78584
0.0033875 0.771374 0.777203
0.00137331 0.756436 0.768353
0.0211337 0.785977 0.782452
0.21117 0.811658 0.788205
0.57026 0.820066 0.772717
0.815534 0.821225 0.773648
0.916869 0.756542 0.702602
0.0220645 0.843687 0.775937
0.0170596 0.84094 0.767376
0.0129854 0.838193 0.759014
0.00946059 0.835233 0.750088
0.00677501 0.832074 0.740948
0.00474556 0.828809 0.73167
0.0286107 0.844465 0.657557
0.610498 0.884916 0.650217
0.893858 0.902846 0.699596
0.912032 0.933028 0.862928
0.912032 0.933028 0.862928
0.912032 0.933028 0.862928
0.912032 0.933028 0.862928
0.916884 0.932128 0.86157
0.912032 0.933028 0.862928
0.912032 0.933028 0.862928
0.912032 0.933028 0.862928
0.912032 0.933028 0.862928
0.921126 0.931136 0.860075
0.908675 0.928527 0.854841
0.890303 0.925597 0.85127
0.873686 0.923919 0.848508
0.867185 0.923156 0.847562
0.887984 0.925368 0.850858
0.912032 0.933028 0.862928
0.912032 0.933028 0.862928
0.912032 0.933028 0.862928
0.861738 0.922438 0.846845
0.845869 0.920394 0.845136
0.830762 0.91841 0.844129
0.81825 0.916655 0.843076
0.81268 0.915953 0.842466
0.829114 0.918181 0.843992
0.908568 0.928512 0.85481
0.912032 0.933028 0.862928
0.907134 0.910262 0.855467
0.807675 0.915312 0.841932
0.794186 0.91371 0.840528
0.780331 0.912016 0.839139
0.767788 0.910582 0.838026
0.762325 0.909987 0.837552
0.776913 0.922423 0.836255
0.848646 0.922988 0.842618
0.906981 0.906859 0.855497
0.905852 0.868635 0.853986
0.756146 0.909377 0.83714
0.742351 0.90811 0.836316
0.725551 0.919341 0.832654
0.712154 0.908476 0.833036
0.70486 0.892348 0.833509
0.72195 0.880842 0.833967
0.799573 0.881285 0.838972
0.905867 0.867231 0.85391
0.906981 0.831159 0.853193
0.695674 0.912657 0.831922
0.679072 0.894942 0.832944
0.659419 0.87895 0.833082
0.637476 0.865629 0.832822
0.623804 0.853315 0.832334
0.641199 0.844419 0.831678
0.730312 0.844709 0.834073
0.886702 0.829679 0.849073
0.908721 0.800778 0.854261
0.618769 0.888823 0.834058
0.592859 0.872435 0.834623
0.569284 0.858 0.83444
0.543908 0.844282 0.833936
0.528618 0.831724 0.832715
0.547662 0.821103 0.830442
0.648081 0.820188 0.829618
0.804776 0.807004 0.840238
0.90927 0.793088 0.854887
0.520317 0.901427 0.836789
0.488807 0.902113 0.838285
0.468986 0.884993 0.840726
0.442634 0.868147 0.841505
0.424659 0.852628 0.840696
0.448096 0.840314 0.837568
0.558663 0.836667 0.832395
0.759319 0.848219 0.836194
0.906996 0.830854 0.853193
0.102876 0.859281 0.836011
0.102876 0.859281 0.836011
0.102876 0.859281 0.836011
0.102876 0.859281 0.836011
0.102876 0.859281 0.836011
0.186236 0.889799 0.854734
0.444663 0.893904 0.841382
0.676204 0.917647 0.852232
0.90576 0.923858 0.860151
