luts/薫風.cube
TITLE "Generated by Resolve"
LUT_3D_SIZE 5
1.5259e-05 1.5259e-05 3.0518e-05
0.0517281 0 0
0.37406 0 0
0.525093 0 0
0.525093 0 0
0 0.00730907 4.57771e-05
0.00157168 0.000579843 0
0.291722 0 0
0.509041 0 0
0.525093 0 0
0 0.205234 0.00483711
0 0.187152 0.00289921
0.263371 0.187304 0
0.66125 0.0175021 0
0.525093 0 0
0 0.545022 0.351446
0 0.513787 0.313191
0 0.480125 0.27274
0.729 0.658396 0.0581064
0.897108 0.368795 0
0 0.793652 0.635019
0 0.784558 0.611276
0 0.775357 0.587549
0 0.76611 0.563897
0.891005 0.917449 0.516167
0 0.000106813 0.00816358
0.0140688 3.0518e-05 0.00178531
0.400717 0 0
0.540352 0 0
0.525093 0 0
0 0.0124819 0.0230869
0.00132753 0.00552377 0.00393683
0.366049 0 0
0.531533 0 0
0.525093 0 0
0 0.239734 0.117891
0 0.20383 0.0751812
0.29691 0.244083 0.00047303
0.710185 0.0246281 0
0.525093 0 0
0 0.54995 0.380819
0 0.520806 0.347127
0 0.490883 0.305226
0.721172 0.658793 0.116976
0.911269 0.364034 0
0 0.791821 0.629938
0 0.782712 0.606683
0 0.773617 0.583108
0 0.764385 0.559396
0.908339 0.905684 0.503441
0.00271611 0.280217 0.544701
0.049897 0.253315 0.525429
0.666087 0.217395 0.509773
0.696818 0.000198367 0.00425727
0.525093 0 0
0 0.149569 0.351186
0.00209049 0.178134 0.398978
0.530419 0.165362 0.369772
0.628779 6.10361e-05 0.00151064
0.543755 0 0
0 0.309529 0.396094
0 0.300267 0.372107
0.337346 0.364996 0.344961
0.802502 0.109148 0.0540322
0.577661 0 0
0 0.574639 0.47277
0 0.546181 0.439109
0 0.520394 0.385763
0.715038 0.66482 0.249149
0.91162 0.38555 0.0519417
0 0.791684 0.629541
0 0.782757 0.606821
0 0.773816 0.583627
0 0.756771 0.565133
0.901518 0.896651 0.503883
0.404776 0.733166 0.824948
0.372656 0.700679 0.822766
0.487037 0.679698 0.821378
0.919799 0.673472 0.876158
0.694591 0.0065156 0.297566
0.257023 0.640787 0.826169
0.261341 0.617838 0.801999
0.413169 0.606012 0.789578
0.884565 0.593179 0.798596
0.711055 0.00282292 0.165484
0.127993 0.594202 0.757794
0.144305 0.570443 0.742214
0.293812 0.557137 0.730022
0.819837 0.543526 0.731929
0.713268 0.00128176 0.0728466
0 0.651194 0.699336
0 0.623865 0.678691
0.0463111 0.698405 0.710185
0.724544 0.717464 0.684215
0.901854 0.445014 0.44033
0.000808728 0.815198 0.694102
0.000167849 0.806897 0.671
0 0.798245 0.647654
0 0.78645 0.569512
0.893553 0.894667 0.583001
0.912032 0.933028 0.862928
0.912032 0.933028 0.862928
0.916884 0.932128 0.86157
0.912032 0.933028 0.862928
0.912032 0.933028 0.862928
0.861738 0.922438 0.846845
0.830762 0.91841 0.844129
0.81268 0.915953 0.842466
0.908568 0.928512 0.85481
0.907134 0.910262 0.855467
0.756146 0.909377 0.83714
0.725551 0.919341 0.832654
0.70486 0.892348 0.833509
0.799573 0.881285 0.838972
0.906981 0.831159 0.853193
0.618769 0.888823 0.834058
0.569284 0.858 0.83444
0.528618 0.831724 0.832715
0.648081 0.820188 0.829618
0.90927 0.793088 0.854887
0.102876 0.859281 0.836011
0.102876 0.859281 0.836011
0.102876 0.859281 0.836011
0.444663 0.893904 0.841382
0.90576 0.923858 0.860151
