luts/錦秋.cube
TITLE "Generated by Resolve"
LUT_3D_SIZE 33
0 0 0
0 0 0
0 0 0
0.000381476 0 0
0.00228885 0 0
0.00814832 0 0
0.023331 0 0
0.052842 0 0
0.102922 0 0
0.162448 0 0
0.227619 0 0
0.296391 0 0
0.364416 0 0
0.427482 0 0
0.48423 0 0
0.532189 0 0
0.574075 0 0
0.610559 0 0
0.641978 0 0
0.668055 0 0
0.689662 0 0
0.706081 0 0
0.717098 0 0
0.717098 0 0
0.717098 0 0
0.717098 0 0
0.717098 0 0
0.717098 0 0
0.717098 0 0
0.717098 0 0
0.717098 0 0
0.717098 0 0
0.717098 0 0
0 0 0
0 0 0
0 0 0
0.000213626 0 0
0.00172427 0 0
0.00634775 0 0
0.0189975 0 0
0.0444343 0 0
0.090013 0 0
0.148104 0 0
0.211154 0 0
0.279332 0 0
0.347601 0 0
0.411719 0 0
0.469978 0 0
0.52079 0 0
0.563775 0 0
0.601572 0 0
0.63476 0 0
0.661662 0 0
0.684642 0 0
0.702281 0 0
0.715358 0 0
0.717098 0 0
0.717098 0 0
0.717098 0 0
0.717098 0 0
0.717098 0 0
0.717098 0 0
0.717098 0 0
0.717098 0 0
0.717098 0 0
0.717098 0 0
0 0 0
0 0 0
0 0 0
6.10361e-05 0 0
0.00106813 0 0
0.005066 0 0
0.0155947 0 0
0.0370947 0 0
0.0766613 0 0
0.132662 0 0
0.194354 0 0
0.261662 0 0
0.330083 0 0
0.395636 0 0
0.455528 0 0
0.508812 0 0
0.55317 0 0
0.592432 0 0
0.626932 0 0
0.6551 0 0
0.679377 0 0
0.698253 0 0
0.712566 0 0
0.717098 0 0
0.717098 0 0
0.717098 0 0
0.717098 0 0
0.717098 0 0
0.717098 0 0
0.717098 0 0
0.717098 0 0
0.717098 0 0
0.717098 0 0
0 0 0
0 0 0
0 0 0
0 0 0
0.000350958 0 0
0.00221256 0 0
0.00830091 0 0
0.0251011 0 0
0.0589761 0 0
0.115251 0 0
0.178805 0 0
0.24419 0 0
0.312535 0 0
0.379431 0 0
0.440879 0 0
0.49659 0 0
0.542184 0 0
0.583047 0 0
0.618524 0 0
0.648295 0 0
0.673579 0 0
0.693935 0 0
0.709361 0 0
0.717098 0 0
0.717098 0 0
0.717098 0 0
0.717098 0 0
0.717098 0 0
0.717098 0 0
0.717098 0 0
0.717098 0 0
0.717098 0 0
0.717098 0 0
0 9.15541e-05 0
0 3.0518e-05 0
0 1.5259e-05 0
0 0 0
6.10361e-05 0 0
0.000900282 0 0
0.00393683 0 0
0.0140383 0 0
0.0379797 0 0
0.0843519 0 0
0.147951 0 0
0.219821 0 0
0.295674 0 0
0.362921 0 0
0.426169 0 0
0.482902 0 0
0.53109 0 0
0.573114 0 0
0.609628 0 0
0.641352 0 0
0.66743 0 0
0.689204 0 0
0.705684 0 0
0.717098 0 0
0.717098 0 0
0.717098 0 0
0.717098 0 0
0.717098 0 0
0.717098 0 0
0.717098 0 0
0.717098 0 0
0.717098 0 0
0.717098 0 0
0 0.000595102 0
0 0.000381476 0
0 0.000259403 0
0 0.000106813 0
0 3.0518e-05 0
0.000320439 0 0
0.0019379 0 0
0.00747692 0 0
0.0233616 0 0
0.057557 0 0
0.116274 0 0
0.185183 0 0
0.261753 0 0
0.34255 0 0
0.410178 0 0
0.468544 0 0
0.519631 0 0
0.562661 0 0
0.600641 0 0
0.634028 0 0
0.661036 0 0
0.684092 0 0
0.701869 0 0
0.715084 0 0
0.717098 0 0
0.717098 0 0
0.717098 0 0
0.717098 0 0
0.717098 0 0
0.717098 0 0
0.717098 0 0
0.717098 0 0
0.717098 0 0
0 0.00250248 0
0 0.00195315 0
0 0.00149538 0
0 0.000976577 0
0 0.000411994 0
4.57771e-05 0.000213626 0
0.000839246 9.15541e-05 0
0.00416571 3.0518e-05 0
0.0144198 1.5259e-05 0
0.0384527 1.5259e-05 0
0.0873884 0 0
0.154009 0 0
0.227649 0 0
0.309117 0 0
0.388617 0 0
0.454078 0 0
0.507652 0 0
0.552071 0 0
0.591501 0 0
0.626154 0 0
0.654383 0 0
0.678798 0 0
0.697841 0 0
0.712276 0 0
0.717098 0 0
0.717098 0 0
0.717098 0 0
0.717098 0 0
0.717098 0 0
0.717098 0 0
0.717098 0 0
0.717098 0 0
0.717098 0 0
0 0.00791943 0
0 0.00688182 0
0 0.00556954 0
0 0.00459297 0
0 0.00248722 0
0 0.0016022 0
0.000198367 0.00105287 0
0.00187686 0.000549325 0
0.00843824 0.00030518 0
0.0255589 0.000213626 0
0.0615702 0.000137331 0
0.12343 7.62951e-05 0
0.194095 1.5259e-05 0
0.273548 0 0
0.356817 0 0
0.434852 0 0
0.495293 0 0
0.54107 0 0
0.582101 0 0
0.617609 0 0
0.647593 0 0
0.672984 0 0
0.693477 0 0
0.708965 0 0
0.717098 0 0
0.717098 0 0
0.717098 0 0
0.717098 0 0
0.717098 0 0
0.717098 0 0
0.717098 0 0
0.717098 0 0
0.717098 0 0
0 0.0207218 0
0 0.0191653 0
0 0.0163119 0
0 0.0143587 0
0 0.0102388 0
0 0.00640879 0
4.57771e-05 0.005066 0
0.000610361 0.00354009 0
0.00399786 0.00201419 0
0.0166476 0.00123598 0
0.0443427 0.0009308 0
0.0973678 0.000701915 0
0.163684 0.000457771 0
0.237675 0.000213626 0
0.320211 3.0518e-05 0
0.403586 0 0
0.477913 0 0
0.529976 0 0
0.572122 0 0
0.608804 0 0
0.64062 0 0
0.666819 0 0
0.688655 0 0
0.705272 0 0
0.717067 0 0
0.717098 0 0
0.717098 0 0
0.717098 0 0
0.717098 0 0
0.717098 0 0
0.717098 0 0
0.717098 0 0
0.717098 0 0
0 0.0434119 0
0 0.0407874 0
0 0.0367437 0
0 0.0335088 0
0 0.0297551 0
0 0.0201724 0
0 0.0159304 0
0.000228885 0.0137789 0
0.00158694 0.00984207 0
0.00842298 0.00596628 0
0.0308995 0.00381476 0
0.0757458 0.00296025 0
0.141054 0.00236515 0
0.210559 0.00167849 0
0.287098 0.000961318 0
0.369299 0.000320439 0
0.449317 0 0
0.516564 0 0
0.561669 0 0
0.599725 0 0
0.63328 0 0
0.66041 0 0
0.683528 0 0
0.701457 0 0
0.714794 0 0
0.717098 0 0
0.717098 0 0
0.717098 0 0
0.717098 0 0
0.717098 0 0
0.717098 0 0
0.717098 0 0
0.717098 0 0
0 0.0799268 0
0 0.0758526 0
0 0.0706035 0
0 0.0655528 0
0 0.0621347 0
0 0.0485237 0
0 0.0379797 0
7.62951e-05 0.0340429 0
0.000747692 0.0304875 0
0.00383001 0.0237583 0
0.0181735 0.015671 0
0.0567025 0.0105592 0
0.122179 0.00819409 0
0.192798 0.00675975 0
0.266865 0.00502022 0
0.343252 0.00309758 0
0.421515 0.00131228 0
0.494865 0.000122072 0
0.552499 0 0
0.590585 0 0
0.625254 0 0
0.653742 0 0
0.678233 0 0
0.697444 0 0
0.711971 0 0
0.717098 0 0
0.717098 0 0
0.717098 0 0
0.717098 0 0
0.717098 0 0
0.717098 0 0
0.717098 0 0
0.717098 0 0
0 0.126772 0
0 0.122332 0
0 0.117433 0
0 0.111498 0
0 0.108675 0
0 0.096788 0
0 0.0771649 0
1.5259e-05 0.0684215 0
0.000366217 0.06392 0
0.00199893 0.0589609 0
0.00909438 0.0482643 0
0.0369879 0.0346227 0
0.100237 0.0255589 0
0.177661 0.0206912 0
0.253956 0.0177005 0
0.331899 0.013901 0
0.406867 0.00903334 0
0.477577 0.00421149 0
0.543496 0.000732433 0
0.58587 0 0
0.616785 0 0
0.646967 0 0
0.672374 0 0
0.693034 0 0
0.708568 0 0
0.717098 0 0
0.717098 0 0
0.717098 0 0
0.717098 0 0
0.717098 0 0
0.717098 0 0
0.717098 0 0
0.717098 0 0
0 0.176455 0
0 0.171649 0
0 0.166995 0
0 0.1608 0
0 0.157565 0
0 0.151751 0
0 0.130694 0
1.5259e-05 0.1178 0
0.000183108 0.111391 0
0.00120546 0.107637 0
0.00515755 0.102281 0
0.0209506 0.0877241 0
0.0711681 0.0666514 0
0.155978 0.0528878 0
0.241901 0.0442664 0
0.322438 0.0389563 0
0.402014 0.0324712 0
0.47541 0.0236057 0
0.53875 0.0122835 0
0.592416 0.00273136 0
0.618021 0 0
0.639902 0 0
0.666102 0 0
0.688197 0 0
0.704967 0 0
0.716869 0 0
0.717098 0 0
0.717098 0 0
0.717098 0 0
0.717098 0 0
0.717098 0 0
0.717098 0 0
0.717098 0 0
0 0.228717 0
0 0.223819 0
0 0.218936 0
0 0.213046 0
0 0.208377 0
0 0.208408 0
0 0.187457 0
1.5259e-05 0.170825 0
0.00015259 0.162783 0
0.000808728 0.158175 0
0.00360113 0.156161 0
0.0134432 0.151095 0
0.043946 0.136095 0
0.1234 0.114809 0
0.21799 0.0974746 0
0.309224 0.0843366 0
0.394156 0.0753796 0
0.473457 0.0654307 0
0.544167 0.0505226 0
0.601648 0.0301823 0
0.641794 0.00823987 0
0.64947 0 0
0.659678 0 0
0.68307 0 0
0.70106 0 0
0.714504 0 0
0.717098 0 0
0.717098 0 0
0.717098 0 0
0.717098 0 0
0.717098 0 0
0.717098 0 0
0.717098 0 0
0 0.281987 0
0 0.276967 0
0 0.272084 0
0 0.26656 0
0 0.261082 0
0 0.265614 0
0 0.246632 0
1.5259e-05 0.225727 0
0.000167849 0.215671 0
0.000701915 0.209888 0
0.00267033 0.207889 0
0.00987259 0.207172 0
0.0304265 0.203143 0
0.0847944 0.188525 0
0.18204 0.168124 0
0.282414 0.150088 0
0.379248 0.13579 0
0.465171 0.124941 0
0.540963 0.112764 0
0.608362 0.0934157 0
0.660899 0.0621347 0
0.692195 0.0222171 0
0.680873 0 0
0.677653 0 0
0.697032 0 0
0.711589 0 0
0.717098 0 0
0.717098 0 0
0.717098 0 0
0.717098 0 0
0.717098 0 0
0.717098 0 0
0.717098 0 0
0 0.334325 7.62951e-05
0 0.329534 6.10361e-05
0 0.324941 4.57771e-05
0 0.320165 3.0518e-05
0 0.314763 3.0518e-05
0 0.321187 0
0 0.305989 0
1.5259e-05 0.282597 0
0.000213626 0.271015 0
0.000732433 0.263828 0
0.00227359 0.260243 0
0.00759899 0.260151 0
0.0239414 0.26157 0
0.0609445 0.258335 0
0.138582 0.245121 0
0.246418 0.224765 0
0.351522 0.206821 0
0.44741 0.191989 0
0.532357 0.178439 0
0.603738 0.164279 0
0.665797 0.143175 0
0.714382 0.108873 0
0.742199 0.0493019 0
0.714519 0.000122072 0
0.6925 0 0
0.708247 0 0
0.717098 0 0
0.717098 0 0
0.717098 0 0
0.717098 0 0
0.717098 0 0
0.717098 0 0
0.717098 0 0
0 0.386282 0.00030518
0 0.381567 0.000274662
0 0.376791 0.000244144
0 0.372137 0.000213626
0 0.366979 0.000198367
0 0.374166 7.62951e-05
0 0.363104 0
3.0518e-05 0.339666 0
0.00030518 0.327062 0
0.000869764 0.31931 0
0.00224308 0.314427 0
0.00607309 0.312795 0
0.0191043 0.315038 0
0.0492561 0.318547 0
0.108568 0.316258 0
0.199573 0.303655 0
0.316915 0.283955 0
0.421881 0.266575 0
0.512215 0.251545 0
0.594995 0.235401 0
0.662409 0.219928 0
0.719753 0.197482 0
0.762509 0.160143 0
0.78822 0.0933242 0
0.750973 0.00077821 0
0.704555 0 0
0.71667 0 0
0.717098 0 0
0.717098 0 0
0.717098 0 0
0.717098 0 0
0.717098 0 0
0.717098 0 0
0 0.436072 0.000808728
0 0.431525 0.000747692
0 0.42707 0.000686656
0 0.422538 0.000640879
0 0.417823 0.000579843
0 0.423453 0.000350958
0 0.418524 4.57771e-05
6.10361e-05 0.396368 0
0.000457771 0.38352 0
0.00111391 0.376059 0
0.00248722 0.37052 0
0.00567636 0.367559 0
0.0152132 0.368475 0
0.0427253 0.374014 0
0.091783 0.378759 0
0.163836 0.375967 0
0.267887 0.363684 0
0.38909 0.34432 0
0.487938 0.327611 0
0.572763 0.312306 0
0.650645 0.296117 0
0.716793 0.278431 0
0.767941 0.255451 0
0.805585 0.216175 0
0.829511 0.144793 0
0.790753 0.00367742 0
0.71429 0 0
0.717098 0 0
0.717098 0 0
0.717098 0 0
0.717098 0 0
0.717098 0 0
0.717098 0 0
0 0.483116 0.00175479
0 0.478828 0.00163272
0 0.474418 0.00151064
0 0.4701 0.00141909
0 0.465599 0.00132753
0 0.469108 0.000976577
0 0.470085 0.000274662
0.000122072 0.451682 3.0518e-05
0.000732433 0.439155 0
0.00157168 0.432273 0
0.00309758 0.427146 0
0.00622568 0.423682 0
0.0139162 0.423041 0
0.0363775 0.428138 0
0.0835279 0.435203 0
0.143999 0.440055 0
0.22739 0.436591 0
0.341436 0.423453 0
0.456107 0.404044 0
0.548882 0.387976 0
0.628946 0.373495 0
0.702358 0.358419 0
0.764797 0.340078 0
0.80943 0.316197 0
0.844099 0.276509 0
0.867094 0.202655 0
0.833432 0.0150912 0
0.717098 0 0
0.717098 0 0
0.717098 0 0
0.717098 0 0
0.717098 0 0
0.717098 0 0
0 0.528313 0.0034638
0 0.524102 0.00328069
0 0.519905 0.00309758
0 0.515801 0.00292973
0 0.511574 0.00274662
0 0.513512 0.00215152
0 0.518181 0.000793469
0.000259403 0.503136 0.000198367
0.00123598 0.491417 4.57771e-05
0.00234989 0.486442 1.5259e-05
0.00416571 0.482414 1.5259e-05
0.0075227 0.47921 0
0.0147097 0.478172 0
0.0324712 0.481315 0
0.0757305 0.488014 0
0.135149 0.496071 0
0.203876 0.500725 0
0.299809 0.496193 0
0.413291 0.480629 0
0.518029 0.462654 0
0.605081 0.447608 0
0.681773 0.434653 0
0.748867 0.421012 0
0.804395 0.402747 0
0.845945 0.378119 0
0.877638 0.34081 0
0.901793 0.268742 0
0.872847 0.0473182 0
0.717098 0 0
0.717098 0 0
0.717098 0 0
0.717098 0 0
0.717098 0 0
0 0.569787 0.013901
0 0.56527 0.011902
0 0.561715 0.00979629
0 0.558129 0.00810254
0 0.554452 0.00669871
0 0.557656 0.00428778
1.5259e-05 0.563699 0.00177005
0.000564584 0.550744 0.000564584
0.00199893 0.542077 0.000213626
0.00369268 0.537331 0.000137331
0.00587472 0.534463 9.15541e-05
0.00967422 0.532341 7.62951e-05
0.0166934 0.531365 4.57771e-05
0.0308537 0.532891 3.0518e-05
0.0657511 0.539132 1.5259e-05
0.128206 0.547112 1.5259e-05
0.193744 0.556573 0
0.272923 0.560479 0
0.369589 0.552621 0
0.478096 0.537057 0
0.57557 0.520104 0
0.658335 0.506371 0
0.729564 0.494224 0
0.789929 0.480766 0
0.838331 0.463142 0
0.877501 0.439368 0
0.908217 0.406943 0
0.935729 0.350317 0
0.886366 0.079942 0
0.717098 0 0
0.717098 0 0
0.717098 0 0
0.717098 0 0
0 0.617319 0.0567178
0 0.61294 0.0503395
0 0.608606 0.0445716
0 0.604166 0.0394598
0 0.599802 0.0348974
0 0.597864 0.0282902
1.5259e-05 0.618982 0.0140536
0.000885023 0.61146 0.00576791
0.00291447 0.600504 0.00244144
0.00535592 0.592874 0.00132753
0.00819409 0.587716 0.000823987
0.0126802 0.58436 0.000534066
0.0195926 0.5823 0.000335698
0.031632 0.582147 0.000213626
0.0594492 0.585931 0.000137331
0.119478 0.593698 0.000122072
0.189624 0.605097 7.62951e-05
0.261555 0.614649 4.57771e-05
0.342565 0.615488 0
0.433982 0.606302 0
0.537682 0.591501 0
0.630045 0.576013 0
0.707591 0.563531 0
0.772702 0.552285 0
0.824842 0.538949 0
0.868284 0.522179 0
0.906096 0.500511 0
0.938247 0.476997 0
0.944289 0.406897 0
0.898054 0.119722 0
0.717098 0 0
0.717098 0 0
0.717098 0 0
0 0.659968 0.150652
0 0.656275 0.142336
0 0.652445 0.133913
0 0.648569 0.125307
0 0.644709 0.116457
0 0.642878 0.103624
1.5259e-05 0.665034 0.0692149
0.00146487 0.67332 0.0485389
0.00366217 0.667277 0.0303807
0.00636301 0.659175 0.0198672
0.00944533 0.651438 0.0129397
0.0143893 0.644587 0.00794995
0.0216983 0.639307 0.00497444
0.0320439 0.637613 0.00341802
0.0526894 0.638407 0.00228885
0.103563 0.643778 0.00148013
0.181247 0.652934 0.000915541
0.258396 0.663584 0.000457771
0.329427 0.668421 0.000198367
0.407218 0.666636 7.62951e-05
0.494102 0.656931 0
0.59411 0.643442 0
0.681132 0.629801 0
0.75285 0.618738 0
0.8094 0.607935 0
0.855772 0.595544 0
0.896406 0.580972 0
0.934218 0.56466 1.5259e-05
0.954803 0.540185 0.000289921
0.948531 0.456184 1.5259e-05
0.90808 0.160555 0
0.717098 0 0
0.717098 0 0
0 0.704875 0.233371
0 0.70042 0.226123
0 0.695918 0.218875
0 0.6916 0.211444
0 0.68748 0.203922
0 0.683207 0.196246
0 0.711223 0.150866
0.00115969 0.722072 0.130724
0.00419623 0.722484 0.116762
0.0087129 0.717449 0.102739
0.0132296 0.711955 0.0871901
0.0151064 0.708415 0.0657359
0.0218051 0.702373 0.0496681
0.0325322 0.69659 0.0354467
0.0517586 0.69427 0.0251164
0.0905623 0.696696 0.0174868
0.160632 0.703883 0.0118257
0.251255 0.713512 0.00766003
0.328756 0.721569 0.00434882
0.394629 0.723629 0.00228885
0.467704 0.71722 0.000671397
0.551812 0.705287 0.000122072
0.647532 0.693446 0
0.728496 0.681071 0
0.791623 0.670588 0
0.841306 0.660639 0
0.88455 0.65037 1.5259e-05
0.924544 0.639765 0.000167849
0.959365 0.631434 0.00198367
0.957702 0.587381 0.000823987
0.952285 0.504601 0.000106813
0.917372 0.205097 0
0.717098 0 0
0 0.758022 0.291203
0 0.753201 0.286503
0 0.748119 0.281651
0 0.742977 0.276692
0 0.737774 0.271641
0 0.73257 0.266545
9.15541e-05 0.758587 0.218616
0.00173953 0.767147 0.199252
0.00434882 0.768566 0.187137
0.00767529 0.766354 0.176349
0.0117342 0.762509 0.165957
0.0171511 0.758221 0.154757
0.0256504 0.753201 0.140902
0.0354467 0.749142 0.121309
0.0497444 0.747616 0.0983444
0.0852064 0.747509 0.0784161
0.14757 0.75198 0.0623941
0.227543 0.759136 0.0509651
0.322484 0.767361 0.0413977
0.395575 0.772503 0.0292058
0.459449 0.774441 0.0171664
0.52546 0.769848 0.00663767
0.607507 0.754681 0.00112917
0.698619 0.741024 7.62951e-05
0.771313 0.729671 4.57771e-05
0.825483 0.719814 6.10361e-05
0.871321 0.711879 0.000183108
0.913161 0.704692 0.000747692
0.955566 0.702815 0.00538643
0.960327 0.679286 0.00482185
0.959457 0.635248 0.00215152
0.955535 0.552254 0.000381476
0.92578 0.252934 0
0 0.817075 0.336355
0 0.811307 0.332662
0 0.805386 0.328786
0 0.799481 0.324773
0 0.793912 0.320806
0 0.788769 0.316915
0.00062562 0.806394 0.280003
0.00344854 0.811963 0.262165
0.00650034 0.81181 0.250858
0.00968948 0.810224 0.241291
0.0131533 0.807416 0.232334
0.0169833 0.803922 0.223331
0.023209 0.800183 0.213016
0.0337835 0.796353 0.200671
0.0513619 0.79263 0.185641
0.0783551 0.793484 0.163165
0.134112 0.796918 0.143069
0.212253 0.801709 0.124636
0.297505 0.806928 0.111452
0.382879 0.812482 0.100984
0.457374 0.817319 0.0846723
0.523018 0.820066 0.0645304
0.585443 0.818692 0.0398718
0.660639 0.805631 0.0103609
0.745556 0.785977 0.000793469
0.808148 0.775265 0.000671397
0.857023 0.767193 0.000946059
0.900526 0.761624 0.00228885
0.944045 0.759899 0.0091249
0.961059 0.75079 0.0164034
0.960769 0.725307 0.0106355
0.960357 0.683085 0.00514229
0.958236 0.599435 0.00105287
0.00209049 0.880293 0.384512
0.00163272 0.874479 0.379416
0.00123598 0.868772 0.37435
0.000915541 0.862928 0.369421
0.000640879 0.857053 0.364477
0.000457771 0.85124 0.359823
0.00228885 0.855009 0.341405
0.0071107 0.857618 0.324239
0.0109712 0.856107 0.313573
0.0143282 0.853697 0.304417
0.01738 0.850767 0.295903
0.0205692 0.847425 0.287709
0.0254063 0.844144 0.278706
0.0334478 0.84097 0.268574
0.0482948 0.838132 0.257069
0.0801404 0.836561 0.243717
0.125643 0.838956 0.223682
0.196353 0.843061 0.204746
0.279713 0.845792 0.18645
0.363897 0.848569 0.173404
0.444556 0.852766 0.164309
0.516625 0.857084 0.149783
0.582879 0.859754 0.131441
0.644785 0.860227 0.105684
0.71107 0.853361 0.0558633
0.786908 0.831754 0.00650034
0.841459 0.819074 0.00407416
0.887175 0.812802 0.00628672
0.931716 0.810742 0.0169223
0.961242 0.808576 0.0392157
0.961334 0.792889 0.031281
0.961181 0.769116 0.0218662
0.9608 0.728893 0.0114137
0.0179294 0.941253 0.457328
0.0150912 0.937911 0.451057
0.0118563 0.932021 0.441871
0.00962844 0.925704 0.433845
0.00794995 0.919631 0.426246
0.0065919 0.913573 0.418845
0.00541695 0.907622 0.412268
0.0157015 0.909163 0.392691
0.0200809 0.906218 0.382025
