luts/錦秋.cube
TITLE "Generated by Resolve"
LUT_3D_SIZE 5
0 0 0
0.102922 0 0
0.574075 0 0
0.717098 0 0
0.717098 0 0
0 0.0207218 0
0.00399786 0.00201419 0
0.477913 0 0
0.717067 0 0
0.717098 0 0
0 0.386282 0.00030518
0.00030518 0.327062 0
0.316915 0.283955 0
0.750973 0.00077821 0
0.717098 0 0
0 0.758022 0.291203
0.00434882 0.768566 0.187137
0.14757 0.75198 0.0623941
0.771313 0.729671 4.57771e-05
0.92578 0.252934 0
0.253376 0.962341 0.625238
0.229328 0.96054 0.597864
0.271107 0.960739 0.569268
0.672724 0.973556 0.523629
0.962585 0.980087 0.29575
0 0 0.0442664
0.0367437 0 0.0180819
0.602167 0 4.57771e-05
0.717098 0 0
0.717098 0 0
0 0.0160983 0.0222324
0.00231937 0.00367742 0.00321965
0.498741 0 0
0.715312 0 0
0.717098 0 0
0 0.364752 0.0699779
0 0.3467 0.018555
0.312398 0.285801 0
0.747463 0.000991836 0
0.717098 0 0
0 0.752987 0.347158
0.000656138 0.752682 0.244022
0.111742 0.745846 0.136065
0.75993 0.716945 1.5259e-05
0.923842 0.241001 0
0.234653 0.961456 0.619272
0.210864 0.959686 0.591546
0.257954 0.95996 0.559991
0.657206 0.972747 0.511452
0.962341 0.979889 0.297597
0 0.0540017 0.494285
0 0.00450141 0.397238
0.502632 0 0.266285
0.846052 0 0.0493477
0.717098 0 0
0 0.0767987 0.410086
0 0.0447242 0.36202
0.507042 0.012253 0.333288
0.82652 0 0.019379
0.717098 0 0
0 0.40589 0.472831
0 0.365545 0.429191
0.360098 0.367864 0.356939
0.856321 0.00387579 0.0128481
0.717098 0 0
0 0.763699 0.485008
0 0.744244 0.399802
0.0413367 0.746258 0.298695
0.772152 0.749142 0.120256
0.922789 0.23476 0
0.206485 0.960479 0.6224
0.178576 0.958587 0.596475
0.228779 0.959503 0.568582
0.634241 0.972473 0.523522
0.964843 0.9823 0.321019
0.00158694 0.644297 0.894316
0.000991836 0.604562 0.887877
0.00317388 0.580697 0.906676
0.98027 0.323522 0.95198
0.828565 0.00169375 0.473396
0.000366217 0.526452 0.872755
0.000198367 0.485588 0.863859
0.000564584 0.45687 0.873289
0.954131 0.26186 0.910002
0.846372 0.000518807 0.319036
0 0.504067 0.831922
0 0.462455 0.801511
0 0.432029 0.793057
0.895293 0.372229 0.844358
0.852338 0.00015259 0.200381
0.000137331 0.790768 0.815152
0 0.758694 0.790295
0.00486763 0.76556 0.787884
0.782361 0.775265 0.755962
0.982467 0.336645 0.472923
0.162646 0.964324 0.758419
0.114687 0.961227 0.728649
0.131258 0.960021 0.690303
0.550988 0.97377 0.647898
0.967254 0.986419 0.561135
0.174884 0.944167 0.937163
0.174884 0.944167 0.937163
0.174884 0.944167 0.937163
0.317861 0.974441 0.963485
0.9906 0.795285 0.976242
0.174884 0.944167 0.937163
0.174884 0.944167 0.937163
0.16669 0.939895 0.936416
0.199893 0.930312 0.963287
0.991333 0.688914 0.976822
0.0916609 0.895293 0.928923
0.0526894 0.861219 0.92369
0.0307469 0.827497 0.918837
0.0719615 0.826017 0.952499
0.989822 0.606622 0.975677
0.0660868 0.875349 0.925841
0.0385443 0.841733 0.920821
0.021973 0.807828 0.916091
0.0644083 0.810529 0.951614
0.991653 0.74667 0.976669
0.174884 0.944167 0.937163
0.174884 0.944167 0.937163
0.174884 0.944167 0.937163
0.354543 0.975662 0.964004
0.979782 0.98706 0.965057
