luts/錦秋.cube
TITLE "Generated by Resolve"
LUT_3D_SIZE 9
0 0 0
0.00228885 0 0
0.102922 0 0
0.364416 0 0
0.574075 0 0
0.689662 0 0
0.717098 0 0
0.717098 0 0
0.717098 0 0
0 9.15541e-05 0
6.10361e-05 0 0
0.0379797 0 0
0.295674 0 0
0.53109 0 0
0.66743 0 0
0.717098 0 0
0.717098 0 0
0.717098 0 0
0 0.0207218 0
0 0.0102388 0
0.00399786 0.00201419 0
0.163684 0.000457771 0
0.477913 0 0
0.64062 0 0
0.717067 0 0
0.717098 0 0
0.717098 0 0
0 0.176455 0
0 0.157565 0
0.000183108 0.111391 0
0.0711681 0.0666514 0
0.402014 0.0324712 0
0.618021 0 0
0.704967 0 0
0.717098 0 0
0.717098 0 0
0 0.386282 0.00030518
0 0.366979 0.000198367
0.00030518 0.327062 0
0.0191043 0.315038 0
0.316915 0.283955 0
0.662409 0.219928 0
0.750973 0.00077821 0
0.717098 0 0
0.717098 0 0
0 0.569787 0.013901
0 0.554452 0.00669871
0.00199893 0.542077 0.000213626
0.0166934 0.531365 4.57771e-05
0.193744 0.556573 0
0.57557 0.520104 0
0.838331 0.463142 0
0.886366 0.079942 0
0.717098 0 0
0 0.758022 0.291203
0 0.737774 0.271641
0.00434882 0.768566 0.187137
0.0256504 0.753201 0.140902
0.14757 0.75198 0.0623941
0.459449 0.774441 0.0171664
0.771313 0.729671 4.57771e-05
0.955566 0.702815 0.00538643
0.92578 0.252934 0
0.0374762 0.945983 0.486778
0.0282139 0.944183 0.475334
0.0579385 0.946731 0.456733
0.0884871 0.946624 0.433738
0.171237 0.933135 0.38761
0.418479 0.930007 0.316564
0.696498 0.933135 0.267597
0.904799 0.900069 0.0616159
0.960952 0.868711 0.0924086
0.253376 0.962341 0.625238
0.231098 0.961089 0.611765
0.229328 0.96054 0.597864
0.242512 0.960479 0.583856
0.271107 0.960739 0.569268
0.392218 0.96495 0.544228
0.672724 0.973556 0.523629
0.859449 0.981979 0.478935
0.962585 0.980087 0.29575
0 0 0.00151064
0.000564584 0 0.000320439
0.0744335 0 0
0.366598 0 0
0.569696 0 0
0.687648 0 0
0.717098 0 0
0.717098 0 0
0.717098 0 0
0 0.000122072 0.000137331
0 0 0
0.0320897 0 0
0.293767 0 0
0.526192 0 0
0.664775 0 0
0.717098 0 0
0.717098 0 0
0.717098 0 0
0 0.0156252 0
0 0.0115816 0
0.00256352 0.00256352 0
0.155184 0.000564584 0
0.46981 0 0
0.637598 0 0
0.716274 0 0
0.717098 0 0
0.717098 0 0
0 0.168582 1.5259e-05
0 0.152514 0
0.000106813 0.108064 0
0.0614481 0.0643015 0
0.392111 0.0305943 0
0.614298 0 0
0.703441 0 0
0.717098 0 0
0.717098 0 0
0 0.376394 0.00108339
0 0.361227 0.000167849
0.000198367 0.320989 0
0.0165408 0.307179 0
0.307378 0.275502 0
0.654337 0.211887 0
0.745571 0.000610361 0
0.717098 0 0
0.717098 0 0
0 0.563958 0.0111849
0 0.549935 0.00509651
0.00166323 0.536202 0.000198367
0.0151522 0.524468 4.57771e-05
0.185122 0.548012 0
0.567452 0.512215 0
0.833799 0.454734 0
0.884672 0.0748608 0
0.717098 0 0
0 0.7514 0.284779
0 0.730678 0.264698
0.0037995 0.762325 0.179416
0.0246433 0.746868 0.131975
0.1393 0.74464 0.0546273
0.450141 0.767559 0.0132753
0.765896 0.72311 3.0518e-05
0.950912 0.693446 0.00344854
0.924681 0.246098 0
0.0338293 0.945357 0.482811
0.0258488 0.943587 0.471611
0.0533761 0.946105 0.452613
0.0682536 0.939422 0.419944
0.155169 0.925765 0.376364
0.408347 0.923919 0.306661
0.68864 0.928023 0.257496
0.900282 0.894408 0.0524605
0.960998 0.863645 0.0864118
0.245899 0.961929 0.620691
0.223819 0.960662 0.607141
0.221576 0.960128 0.593439
0.237125 0.960159 0.579309
0.264408 0.960342 0.564614
0.384527 0.964523 0.539361
0.664958 0.973159 0.517449
0.854932 0.981689 0.473289
0.962341 0.979889 0.297597
0 0 0.0442664
1.5259e-05 0 0.024445
0.0367437 0 0.0180819
0.325307 0 0.00463874
0.602167 0 4.57771e-05
0.685618 0 0
0.717098 0 0
0.717098 0 0
0.717098 0 0
0 0.000213626 0.0243534
0 0 0.0165713
0.0131075 0 0.00808728
0.257099 0 0.00177005
0.547784 0 0
0.662181 0 0
0.717098 0 0
0.717098 0 0
0.717098 0 0
0 0.0160983 0.0222324
0 0.00923171 0.0133059
0.00231937 0.00367742 0.00321965
0.18761 0.000564584 9.15541e-05
0.498741 0 0
0.634577 0 0
0.715312 0 0
0.717098 0 0
0.717098 0 0
0 0.160006 0.0322576
0 0.137087 0.0208286
0 0.118013 0.00355535
0.06804 0.0727855 3.0518e-05
0.419165 0.0313878 0
0.611429 0 0
0.701793 0 0
0.717098 0 0
0.717098 0 0
0 0.364752 0.0699779
0 0.340856 0.0528115
0 0.3467 0.018555
0.015259 0.317296 0.00196841
0.312398 0.285801 0
0.646418 0.20676 0
0.747463 0.000991836 0
0.717098 0 0
0.717098 0 0
0 0.573632 0.181582
0 0.554086 0.16173
0 0.563882 0.0952163
0.00987259 0.559716 0.0412909
0.187106 0.559228 0.00863661
0.565835 0.515007 0
0.82919 0.447181 0
0.884916 0.0754559 0
0.717098 0 0
0 0.752987 0.347158
0 0.734386 0.331197
0.000656138 0.752682 0.244022
0.00982681 0.752056 0.205371
0.111742 0.745846 0.136065
0.454902 0.770687 0.0748302
0.75993 0.716945 1.5259e-05
0.94638 0.684443 0.00224308
0.923842 0.241001 0
0.0257572 0.944472 0.492439
0.0192721 0.942718 0.482017
0.0428016 0.945571 0.462837
0.0502632 0.932342 0.423239
0.128588 0.919249 0.381796
0.39118 0.918547 0.314137
0.681437 0.923308 0.261738
0.895827 0.888823 0.0446479
0.961074 0.858549 0.0803845
0.234653 0.961456 0.619272
0.213352 0.96022 0.6056
0.210864 0.959686 0.591546
0.229572 0.959838 0.576547
0.257954 0.95996 0.559991
0.377203 0.96408 0.534676
0.657206 0.972747 0.511452
0.850446 0.981414 0.467643
0.962341 0.979889 0.297597
0 0 0.171954
0 0 0.147829
0.00999466 0 0.123476
0.247303 0 0.104768
0.588159 0 0.0514382
0.766735 0 0.00674449
0.717098 0 0
0.717098 0 0
0.717098 0 0
0 0.00291447 0.175006
0 0.00109865 0.157351
0.00106813 0 0.117586
0.196399 0 0.0877852
0.527764 0 0.0332799
0.729747 0 0.00314336
0.717098 0 0
0.717098 0 0
0.717098 0 0
0 0.0229648 0.172763
0 0.0148165 0.149157
6.10361e-05 0.00730907 0.131426
0.144915 0.0040589 0.0834821
0.501091 0 0.0204623
0.688502 0 0.00125124
0.714229 0 0
0.717098 0 0
0.717098 0 0
0 0.168109 0.214496
0 0.145464 0.189029
0 0.120836 0.151537
0.08925 0.114092 0.101976
0.48864 0.0466316 0.0138857
0.677012 0 0.000259403
0.700175 0 0
0.717098 0 0
0.717098 0 0
0 0.390982 0.237583
0 0.367956 0.213596
0 0.345113 0.158801
0.00434882 0.340871 0.0896468
0.334401 0.321996 0.0184176
0.696849 0.22208 4.57771e-05
0.747295 0.00132753 0
0.717098 0 0
0.717098 0 0
0 0.586618 0.273518
0 0.566796 0.252384
0 0.551415 0.19205
0.00227359 0.564416 0.137942
0.181949 0.563943 0.0642405
0.575753 0.539315 0.00454719
0.824475 0.439536 0
0.884855 0.075288 0
0.717098 0 0
0 0.752255 0.384878
0 0.735744 0.36585
6.10361e-05 0.741848 0.284245
0.0047303 0.746273 0.244785
0.0924849 0.741161 0.195422
0.451499 0.767758 0.133608
0.768261 0.733959 0.00767529
0.941955 0.675868 0.00144961
0.923156 0.236912 0
0.0198062 0.943587 0.499886
0.0141756 0.941817 0.490852
0.0289921 0.942351 0.466865
0.0367437 0.925353 0.429343
0.101656 0.913314 0.393256
0.369345 0.913863 0.334936
0.675654 0.919203 0.291081
0.900694 0.894545 0.0831617
0.961074 0.853574 0.074876
0.222675 0.960998 0.618647
0.201068 0.959762 0.605814
0.196277 0.959182 0.592752
0.215808 0.959472 0.579019
0.24271 0.959747 0.564935
0.364645 0.963531 0.542046
0.645518 0.972641 0.518868
0.84683 0.981292 0.477272
0.96437 0.981552 0.296056
0 0.0540017 0.494285
0 0.0263523 0.44651
0 0.00450141 0.397238
0.13611 0 0.374517
0.502632 0 0.266285
0.762829 0 0.178195
0.846052 0 0.0493477
0.717098 0 0
0.717098 0 0
0 0.0632181 0.45069
0 0.0449226 0.416907
0 0.0317845 0.401648
0.0780499 0.0080415 0.418952
0.513313 0.000213626 0.292454
0.724056 0 0.141192
0.842603 0 0.0305028
0.717098 0 0
0.717098 0 0
0 0.0767987 0.410086
0 0.0584115 0.379248
0 0.0447242 0.36202
0.0305943 0.0171359 0.360571
0.507042 0.012253 0.333288
0.680766 0 0.104875
0.82652 0 0.019379
0.717098 0 0
0.717098 0 0
0 0.18201 0.425254
0 0.160235 0.398642
0 0.141497 0.380423
0.0191043 0.140734 0.398291
0.458396 0.124575 0.361349
0.733913 0.00341802 0.142748
0.794415 0 0.0121157
0.717098 0 0
0.717098 0 0
0 0.40589 0.472831
0 0.382391 0.449332
0 0.365545 0.429191
0.00404364 0.363806 0.402197
0.360098 0.367864 0.356939
0.73547 0.274418 0.21529
0.856321 0.00387579 0.0128481
0.717098 0 0
0.717098 0 0
0 0.610773 0.472313
0 0.592004 0.451942
0 0.580713 0.419715
9.15541e-05 0.564752 0.353796
0.130983 0.58143 0.288487
0.595346 0.571206 0.198688
0.867445 0.47538 0.0390784
0.887892 0.0851911 0
0.717098 0 0
0 0.763699 0.485008
0 0.748012 0.465507
0 0.744244 0.399802
0.000411994 0.734508 0.349126
0.0413367 0.746258 0.298695
0.445975 0.763806 0.241932
0.772152 0.749142 0.120256
0.937606 0.667842 0.0009308
0.922789 0.23476 0
0.0100099 0.942214 0.527901
0.00662242 0.940398 0.519158
0.0139925 0.934493 0.487663
0.0224002 0.918303 0.453086
0.0703593 0.908339 0.419409
0.342733 0.909636 0.368231
0.670756 0.915221 0.324193
0.900587 0.897169 0.164996
0.961074 0.848524 0.0696574
0.206485 0.960479 0.6224
0.184833 0.959228 0.609583
0.178576 0.958587 0.596475
0.20119 0.959075 0.582544
0.228779 0.959503 0.568582
0.354452 0.962875 0.54815
0.634241 0.972473 0.523522
0.842985 0.98114 0.483345
0.964843 0.9823 0.321019
0 0.357794 0.793027
0 0.327947 0.774182
0 0.296696 0.754421
0 0.276692 0.756283
0.475929 0.243442 0.841123
0.72369 0.000457771 0.504265
0.845029 0.000595102 0.33521
0.852125 0.000183108 0.210941
0.717098 0 0
0 0.304753 0.742535
0 0.280369 0.724269
0 0.256428 0.705242
0 0.237766 0.705516
0.394537 0.207294 0.784176
0.810147 0.0302434 0.684825
0.849744 0.000335698 0.271427
0.852506 9.15541e-05 0.158282
0.717098 0 0
0 0.260014 0.691325
0 0.237232 0.671656
0 0.215274 0.651026
0 0.198627 0.649454
0.302815 0.166415 0.720073
0.785245 0.065095 0.66923
0.82826 7.62951e-05 0.235706
0.850965 3.0518e-05 0.111467
0.717098 0 0
0 0.278233 0.658518
0 0.255558 0.638331
0 0.233219 0.617136
0 0.216587 0.612848
0.220462 0.192096 0.667414
0.750988 0.160327 0.652399
0.791455 0 0.206607
0.848463 1.5259e-05 0.0720378
0.717098 0 0
0 0.415549 0.660471
0 0.392798 0.641428
0 0.368948 0.621317
0 0.35288 0.614679
0.208835 0.38349 0.657542
0.703014 0.354208 0.629221
0.902602 0.113161 0.45864
0.845609 0 0.0457465
0.717098 0 0
0 0.619776 0.674403
0 0.601877 0.658854
0 0.582864 0.642084
0 0.578317 0.633997
0.146029 0.61004 0.623224
0.608957 0.597574 0.579293
0.876478 0.511879 0.474876
0.976425 0.153643 0.204379
0.717098 0 0
0 0.781796 0.656336
0 0.767147 0.640787
0 0.753902 0.624506
4.57771e-05 0.759854 0.591043
0.0254826 0.759808 0.535714
0.399344 0.773144 0.49276
0.777996 0.762692 0.422324
0.974624 0.690135 0.277028
0.924941 0.247578 0
0.00282292 0.944503 0.624018
0.00161746 0.941665 0.615778
0.00254826 0.927611 0.580652
0.00526436 0.912062 0.549233
0.025391 0.902434 0.51519
0.281712 0.907134 0.484962
0.671855 0.913207 0.443839
0.901488 0.901061 0.336431
0.961074 0.843778 0.0651408
0.170428 0.959838 0.651652
0.150256 0.958587 0.638636
0.138476 0.95761 0.625025
0.159258 0.958083 0.609583
0.188464 0.958953 0.594949
0.324681 0.962554 0.578714
0.613046 0.972915 0.55581
0.841123 0.981277 0.518395
0.965621 0.983871 0.396017
0.00158694 0.644297 0.894316
0.00123598 0.623941 0.891127
0.000991836 0.604562 0.887877
0.000762951 0.583902 0.884199
0.00317388 0.580697 0.906676
0.788586 0.579232 0.97052
0.98027 0.323522 0.95198
0.782177 0.00418097 0.618082
0.828565 0.00169375 0.473396
0.000793469 0.586252 0.884657
0.00062562 0.566293 0.880964
0.00047303 0.545953 0.876799
0.000350958 0.524376 0.872297
0.00163272 0.518425 0.893156
0.696605 0.511955 0.967376
0.978714 0.307912 0.948837
0.803433 0.00340276 0.577295
0.839902 0.0009308 0.389929
0.000366217 0.526452 0.872755
0.000274662 0.505943 0.86836
0.000198367 0.485588 0.863859
0.000137331 0.464134 0.859022
0.000564584 0.45687 0.873289
0.605524 0.437385 0.949447
0.954131 0.26186 0.910002
0.827955 0.00173953 0.477333
0.846372 0.000518807 0.319036
0.000183108 0.484611 0.863645
3.0518e-05 0.463981 0.849088
0 0.442176 0.832471
0 0.41973 0.816434
0 0.4094 0.823545
0.544396 0.39324 0.898863
0.924651 0.265446 0.872786
0.839567 0.000961318 0.393332
0.850538 0.000289921 0.256703
0 0.504067 0.831922
0 0.483818 0.816938
0 0.462455 0.801511
0 0.440406 0.786084
0 0.432029 0.793057
0.474601 0.426184 0.856275
0.895293 0.372229 0.844358
0.846128 0.000534066 0.321981
0.852338 0.00015259 0.200381
0 0.623682 0.821149
0 0.6056 0.808148
0 0.586603 0.794507
0 0.56759 0.78088
0 0.567041 0.789212
0.46392 0.605417 0.828351
0.852049 0.569284 0.808591
0.983581 0.329656 0.688304
0.852384 7.62951e-05 0.149905
0.000137331 0.790768 0.815152
1.5259e-05 0.774609 0.802686
0 0.758694 0.790295
0 0.742901 0.777783
0.00486763 0.76556 0.787884
0.390906 0.78854 0.780987
0.782361 0.775265 0.755962
0.977569 0.705837 0.674693
0.982467 0.336645 0.472923
0.0119936 0.936736 0.806439
0.00766003 0.932921 0.794522
0.00230411 0.911971 0.779583
0.00167849 0.90753 0.760571
0.0246433 0.91281 0.72491
0.181949 0.910964 0.679606
0.637888 0.919539 0.66981
0.902937 0.905531 0.611749
0.990112 0.86247 0.50811
0.162646 0.964324 0.758419
0.136126 0.962737 0.743755
0.114687 0.961227 0.728649
0.123842 0.960693 0.709133
0.131258 0.960021 0.690303
0.221042 0.962264 0.663783
0.550988 0.97377 0.647898
0.846067 0.982132 0.63093
0.967254 0.986419 0.561135
0.0743267 0.88249 0.92697
0.0561837 0.865232 0.9243
0.0428016 0.848264 0.921782
0.0326238 0.831189 0.919356
0.024094 0.813123 0.916808
0.0739605 0.829038 0.952743
0.989639 0.836286 0.97557
0.988891 0.570703 0.974838
0.782177 0.00418097 0.618082
0.0304417 0.826917 0.918776
0.0227665 0.809903 0.916381
0.0167849 0.792569 0.914061
0.0125582 0.775555 0.911818
0.0090486 0.757321 0.909529
0.0361028 0.770886 0.94342
0.983764 0.785214 0.976318
0.987488 0.519493 0.973678
0.782177 0.00418097 0.618082
0.0116274 0.771221 0.911238
0.00852979 0.75407 0.909133
0.00634775 0.736996 0.906966
0.00474556 0.719539 0.904784
0.00354009 0.700999 0.902358
0.0154421 0.709285 0.932174
0.924025 0.718685 0.975021
0.986435 0.474952 0.972778
0.782177 0.00418097 0.618082
0.00469978 0.718883 0.904707
0.00355535 0.701427 0.902419
0.00273136 0.683787 0.900008
0.00215152 0.665843 0.897597
0.00164797 0.646815 0.894682
0.0069276 0.650126 0.920974
0.853437 0.654414 0.9729
0.985229 0.444694 0.970016
0.782177 0.00418097 0.618082
0.00268559 0.682383 0.89984
0.00210575 0.664729 0.897459
0.00164797 0.64654 0.894667
0.00131228 0.628061 0.891768
0.00103761 0.608576 0.888563
0.00453193 0.609888 0.91342
0.772686 0.612863 0.970916
0.986328 0.47245 0.972564
0.782177 0.00418097 0.618082
0.00340276 0.698573 0.902022
0.00262455 0.681041 0.899657
0.00205997 0.663096 0.8972
0.0016022 0.644953 0.894408
0.0012665 0.626047 0.891432
0.00614939 0.631769 0.918837
0.687541 0.637125 0.970062
0.989288 0.585061 0.975174
0.810529 0.00296025 0.555688
0.0185397 0.798077 0.914763
0.0138399 0.781155 0.912551
0.0102235 0.764248 0.910384
0.00755322 0.747066 0.908263
0.00529488 0.730098 0.904967
0.0246281 0.751171 0.927581
0.662028 0.783032 0.95697
0.964111 0.747005 0.939544
0.987716 0.523629 0.888304
0.174884 0.944167 0.937163
0.162982 0.942519 0.933349
0.102861 0.923384 0.917418
0.0614481 0.906508 0.903563
0.0379492 0.89102 0.891081
0.142443 0.914031 0.907439
0.607828 0.924102 0.903197
0.903044 0.908125 0.884703
0.99057 0.868086 0.846433
0.121447 0.944167 0.914504
0.0989853 0.943801 0.903334
0.0799268 0.943389 0.892744
0.0648508 0.942901 0.882582
0.0827955 0.962875 0.879652
0.225727 0.970428 0.860548
0.449897 0.975433 0.824323
0.825589 0.984024 0.815686
0.971023 0.98793 0.779156
0.174884 0.944167 0.937163
0.174884 0.944167 0.937163
0.174884 0.944167 0.937163
0.174884 0.944167 0.937163
0.174884 0.944167 0.937163
0.174884 0.944167 0.937163
0.317861 0.974441 0.963485
0.979782 0.98706 0.965057
0.9906 0.795285 0.976242
0.174884 0.944167 0.937163
0.174884 0.944167 0.937163
0.174884 0.944167 0.937163
0.174884 0.944167 0.937163
0.174884 0.944167 0.937163
0.174884 0.944167 0.937163
0.285435 0.973281 0.962905
0.982681 0.969589 0.968002
0.991684 0.742596 0.976699
0.174884 0.944167 0.937163
0.174884 0.944167 0.937163
0.174884 0.944167 0.937163
0.174884 0.944167 0.937163
0.16669 0.939895 0.936416
0.128237 0.918593 0.932769
0.199893 0.930312 0.963287
0.986084 0.922255 0.972839
0.991333 0.688914 0.976822
0.174884 0.944167 0.937163
0.155779 0.934112 0.935439
0.121263 0.914504 0.932052
0.0930037 0.896254 0.929076
0.0700389 0.878859 0.92639
0.0524453 0.860945 0.923659
0.123537 0.877272 0.959243
0.988312 0.877272 0.97467
0.990448 0.637476 0.976318
0.0916609 0.895293 0.928923
0.0692302 0.878157 0.926284
0.0526894 0.861219 0.92369
0.040238 0.84445 0.921218
0.0307469 0.827497 0.918837
0.0226139 0.809567 0.916335
0.0719615 0.826017 0.952499
0.98967 0.834989 0.975601
0.989822 0.606622 0.975677
0.0514992 0.85977 0.923506
0.0393683 0.843091 0.921019
0.0301518 0.826276 0.918669
0.0225071 0.809293 0.916289
0.0166018 0.791913 0.913985
0.0122835 0.774289 0.911665
0.048127 0.790814 0.947509
0.972808 0.8047 0.975952
0.990402 0.634958 0.976272
0.0660868 0.875349 0.925841
0.0504463 0.858488 0.923293
0.0385443 0.841733 0.920821
0.0294804 0.824903 0.918486
0.021973 0.807828 0.916091
0.0160678 0.790112 0.913741
0.0644083 0.810529 0.951614
0.9066 0.824002 0.97464
0.991653 0.74667 0.976669
0.174884 0.944167 0.937163
0.174884 0.944167 0.937163
0.174884 0.944167 0.937163
0.140398 0.925872 0.933959
0.108797 0.906935 0.930846
0.0829023 0.889006 0.927962
0.178363 0.909804 0.963775
0.85124 0.925856 0.973159
0.987839 0.888167 0.974334
0.174884 0.944167 0.937163
0.174884 0.944167 0.937163
0.174884 0.944167 0.937163
0.174884 0.944167 0.937163
0.174884 0.944167 0.937163
0.174884 0.944167 0.937163
0.354543 0.975662 0.964004
0.775708 0.984833 0.966461
0.979782 0.98706 0.965057
