luts/黎明.cube
TITLE "Generated by Resolve"
LUT_3D_SIZE 9
0.00750744 0.0234379 0.0162661
0.0972457 0.0165255 0.00433356
0.232624 0.0127413 0.000808728
0.361151 0.0118105 0.000137331
0.475425 0.012604 1.5259e-05
0.572366 0.0155642 0
0.658824 0.021622 0
0.749645 0.0341192 0
0.884428 0.0984054 0.000198367
0.0052491 0.101503 0.0226444
0.0731823 0.0874342 0.00885023
0.222797 0.0632334 0.00114443
0.356222 0.057969 0.00015259
0.474723 0.0567178 0
0.575021 0.0580301 0
0.656062 0.06009 0
0.721126 0.0623484 0
0.856275 0.119127 0
0.00801099 0.195666 0.0282444
0.0644694 0.192782 0.0152438
0.187411 0.175235 0.00265507
0.322301 0.12253 0
0.446143 0.10576 0
0.544045 0.104158 0
0.637308 0.10898 0
0.726314 0.120867 0
0.837491 0.158923 0
0.00442512 0.237018 0.00802625
0.057084 0.262592 0.00349432
0.147555 0.268513 0.000961318
0.298344 0.240162 0
0.441138 0.21471 0
0.556695 0.200641 0
0.657115 0.196872 0
0.743984 0.202792 0
0.837751 0.22649 0
0.0132296 0.312367 0.0136263
0.0830091 0.344915 0.00968948
0.165743 0.368734 0.00665293
0.277241 0.373419 0.00263981
0.431373 0.352117 0.00015259
0.558801 0.327184 0
0.666133 0.311696 0
0.761837 0.302632 0
0.844297 0.308858 0
0.0368048 0.39826 0.033753
0.121614 0.426703 0.0287785
0.197238 0.449439 0.0253452
0.291325 0.473091 0.0208286
0.404807 0.477546 0.0109407
0.550256 0.457893 0.00183108
0.666087 0.434485 0.000503548
0.764797 0.415152 0.000289921
0.85182 0.398505 0.000457771
0.0757 0.483772 0.0707408
0.1608 0.506447 0.0640421
0.233112 0.524453 0.0609598
0.316884 0.548592 0.0576181
0.404929 0.570687 0.0538491
0.517372 0.575357 0.0369421
0.656443 0.557351 0.0114443
0.762707 0.531441 0.00633249
0.853513 0.500511 0.00727855
0.132784 0.570535 0.119951
0.16965 0.574899 0.112566
0.260166 0.596155 0.111559
0.331258 0.61355 0.110506
0.414893 0.636622 0.110765
0.503471 0.658351 0.11043
0.614771 0.667994 0.0902419
0.75201 0.650553 0.0426337
0.850782 0.61416 0.0394293
0.199298 0.664179 0.174426
0.216831 0.65893 0.16582
0.289693 0.670054 0.161715
0.34403 0.67895 0.161868
0.414557 0.698329 0.164721
0.497002 0.722377 0.169055
0.586343 0.748959 0.177462
0.700328 0.765438 0.175998
0.840681 0.743267 0.123201
0.00476081 0.0481575 0.116518
0.0800793 0.0521401 0.0988327
0.241199 0.0527962 0.061677
0.390372 0.0454566 0.0291905
0.515953 0.0409705 0.0131533
0.614893 0.0400092 0.00604257
0.696086 0.0428168 0.00334173
0.780285 0.0534829 0.00236515
0.89369 0.115023 0.00767529
0.00834669 0.138582 0.143664
0.093019 0.143999 0.123064
0.241978 0.125444 0.0730449
0.386496 0.111376 0.0353094
0.514977 0.102983 0.0176852
0.616953 0.0992142 0.00883497
0.700801 0.101778 0.00515755
0.780148 0.113176 0.0037995
0.897337 0.164416 0.0090486
0.00476081 0.231098 0.148348
0.0726024 0.242771 0.13225
0.21883 0.232425 0.0962997
0.369543 0.203555 0.0441444
0.501671 0.189593 0.0223392
0.609155 0.182177 0.012253
0.698131 0.178332 0.00708019
0.775479 0.181109 0.00497444
0.873472 0.208118 0.00737011
0.000411994 0.295262 0.145815
0.0795911 0.329992 0.13933
0.209049 0.335012 0.118349
0.338811 0.321981 0.0698405
0.482383 0.29218 0.0325322
0.602213 0.274495 0.0176852
0.696559 0.265461 0.0110018
0.773831 0.259922 0.00773632
0.861479 0.271412 0.009308
0.00335698 0.380636 0.155352
0.100832 0.406668 0.147738
0.212802 0.415839 0.13286
0.326925 0.426627 0.116579
0.458549 0.414084 0.0651865
0.586206 0.386206 0.0337377
0.693767 0.365743 0.0206912
0.777401 0.348547 0.0138399
0.856245 0.343038 0.0133516
0.0223239 0.453834 0.17261
0.130556 0.472145 0.159274
0.220493 0.482368 0.148409
0.327642 0.501015 0.141024
0.435523 0.512352 0.124712
0.566033 0.499214 0.0653849
0.68098 0.471031 0.0330205
0.771878 0.434897 0.00836194
0.853361 0.411795 0.00660716
0.0631113 0.517845 0.18674
0.157717 0.533547 0.171099
0.238636 0.543496 0.158938
0.328099 0.559533 0.143999
0.418723 0.577585 0.112184
0.523156 0.585657 0.0890669
0.659205 0.569207 0.0369879
0.764019 0.541726 0.0226596
0.854124 0.506828 0.0209964
0.122988 0.580316 0.169512
0.160739 0.581521 0.154208
0.257191 0.599908 0.147097
0.331395 0.614786 0.145235
0.418479 0.637613 0.145113
0.508858 0.659983 0.145129
0.614816 0.671977 0.129091
0.750378 0.655467 0.0706951
0.849531 0.618006 0.0611582
0.188952 0.666636 0.197009
0.206912 0.660899 0.187869
0.283146 0.670665 0.181384
0.34049 0.678233 0.179828
0.413413 0.696559 0.183322
0.49749 0.720851 0.187732
0.587976 0.747997 0.196399
0.698955 0.765866 0.198871
0.837705 0.744564 0.144259
0.0049897 0.0918135 0.236027
0.0509499 0.0863661 0.221378
0.218769 0.110811 0.224262
0.399527 0.11902 0.198367
0.53959 0.110613 0.152255
0.639857 0.102296 0.109071
0.720134 0.0990158 0.0732128
0.800366 0.101976 0.0480812
0.893095 0.146868 0.0537728
0.0106203 0.175082 0.26865
0.0829023 0.182605 0.258915
0.224567 0.183978 0.240314
0.391928 0.182345 0.205035
0.529915 0.16965 0.157794
0.635721 0.157336 0.113878
0.718181 0.149203 0.0789197
0.795331 0.148959 0.0551614
0.902083 0.187121 0.0596017
0.0195468 0.271138 0.291295
0.101549 0.283543 0.279438
0.236881 0.282399 0.259861
0.387579 0.264363 0.215717
0.520714 0.247013 0.16762
0.628504 0.232258 0.125963
0.714122 0.219669 0.0922408
0.78938 0.215076 0.0683604
0.884978 0.23093 0.0623178
0.00418097 0.347112 0.293614
0.0817273 0.371893 0.274968
0.215793 0.376043 0.262119
0.365347 0.365515 0.22826
0.50634 0.338796 0.176501
0.617044 0.321202 0.135103
0.707713 0.306065 0.102617
0.783383 0.293172 0.0778668
0.869642 0.294133 0.0682536
0.00415045 0.412695 0.26891
0.0784314 0.442664 0.259297
0.206668 0.450843 0.254994
0.346731 0.453681 0.2421
0.475639 0.444144 0.198611
0.599573 0.418463 0.149523
0.704067 0.396963 0.114351
0.781338 0.378088 0.0890669
0.861616 0.364309 0.0761273
0.0133211 0.478492 0.252552
0.110277 0.499763 0.255421
0.215427 0.508217 0.248463
0.340459 0.517662 0.242786
0.454322 0.527977 0.2336
0.574304 0.521935 0.183215
0.689494 0.497261 0.138796
0.78201 0.469612 0.110689
0.858915 0.442771 0.0945907
0.0450752 0.54377 0.254414
0.146044 0.553979 0.255421
0.235584 0.563317 0.246937
0.337331 0.57258 0.240162
0.445655 0.591272 0.241596
0.544396 0.605814 0.235523
0.666773 0.599176 0.180331
0.771115 0.570977 0.143893
0.859678 0.530266 0.123232
0.103182 0.605936 0.260746
0.143664 0.605859 0.255314
0.246296 0.620035 0.245762
0.331991 0.628321 0.242634
0.431647 0.645457 0.245243
0.527611 0.669413 0.251942
0.623606 0.686976 0.252567
0.751995 0.676356 0.195224
0.853452 0.636133 0.168856
0.163012 0.68603 0.261097
0.180926 0.679515 0.255497
0.261097 0.685939 0.250629
0.326329 0.689815 0.246525
0.410468 0.702068 0.249775
0.504021 0.72549 0.256687
0.600366 0.752697 0.268605
0.700938 0.774914 0.282918
0.837736 0.757076 0.228412
0.00813306 0.142885 0.348928
0.0470283 0.132952 0.333318
0.171786 0.143938 0.339727
0.371252 0.174594 0.356802
0.544396 0.18613 0.341054
0.656687 0.176776 0.295811
0.738247 0.16492 0.242649
0.816144 0.159228 0.188922
0.892622 0.188067 0.157046
0.0148623 0.21532 0.378393
0.0754711 0.219028 0.37026
0.186587 0.214115 0.355718
0.362539 0.233616 0.360235
0.529305 0.239902 0.339834
0.646891 0.226566 0.294545
0.73164 0.211078 0.243458
0.808011 0.201587 0.193545
0.897566 0.225345 0.160678
0.0285191 0.300908 0.403418
0.107149 0.30782 0.395407
0.223362 0.311147 0.383062
0.36965 0.312215 0.370184
0.520073 0.30898 0.342535
0.636301 0.291402 0.296071
0.72369 0.27039 0.246571
0.798962 0.253025 0.199359
0.895811 0.25362 0.162768
0.0232395 0.388098 0.423148
0.136858 0.401114 0.410651
0.24123 0.405249 0.397772
0.378546 0.402731 0.381872
0.514778 0.38912 0.347845
0.626963 0.37055 0.303044
0.716701 0.347829 0.258579
0.792111 0.3252 0.21416
0.879561 0.313848 0.178424
0.0299535 0.467109 0.415671
0.126116 0.477974 0.398825
0.216846 0.482673 0.386786
0.356222 0.485817 0.379355
0.494926 0.479881 0.354177
0.613306 0.457221 0.308644
0.708949 0.436866 0.265232
0.785931 0.410864 0.222721
0.868299 0.386618 0.187076
0.0284276 0.518746 0.377554
0.109102 0.53164 0.36669
0.199664 0.537911 0.363714
0.339269 0.546105 0.363088
0.471901 0.552529 0.356603
0.584482 0.54786 0.319005
0.696986 0.524376 0.27274
0.783444 0.496056 0.231342
0.862257 0.463249 0.194949
0.0385748 0.571405 0.343175
0.120699 0.583795 0.343633
0.216739 0.591302 0.347036
0.332631 0.597009 0.34316
0.455451 0.607675 0.34023
0.55697 0.621057 0.337972
0.670405 0.616297 0.292439
0.774014 0.589014 0.250004
0.860731 0.547601 0.210498
0.0796674 0.633692 0.324376
0.118578 0.632624 0.323522
0.234516 0.640604 0.326162
0.321355 0.647776 0.319875
0.434409 0.657526 0.320424
0.537591 0.677592 0.326024
0.632364 0.694881 0.33315
0.752636 0.687877 0.280964
0.855268 0.647181 0.241886
0.149096 0.701152 0.313024
0.165896 0.694286 0.307515
0.241413 0.700679 0.30132
0.308431 0.702007 0.297993
0.40032 0.711543 0.298131
0.506584 0.729809 0.30602
0.608362 0.756344 0.32105
0.70425 0.779965 0.341558
0.837324 0.766171 0.291127
0.0137484 0.197681 0.466209
0.0508583 0.188632 0.456687
0.13373 0.179599 0.449088
0.302678 0.207843 0.472114
0.507973 0.240406 0.489021
0.660883 0.252384 0.477073
0.753643 0.238972 0.42565
0.832654 0.221103 0.346273
0.892042 0.227222 0.262501
0.022034 0.256382 0.481636
0.0732891 0.256977 0.476631
0.161471 0.247898 0.464546
0.298085 0.256306 0.467536
0.49424 0.286152 0.48101
0.6477 0.294621 0.46656
0.741283 0.277501 0.416114
0.819745 0.257511 0.345022
0.894041 0.262135 0.259724
0.0343481 0.330282 0.499474
0.100969 0.33463 0.495674
0.200046 0.335897 0.487358
0.319417 0.332723 0.476066
0.486442 0.348745 0.47747
0.632944 0.350866 0.458152
0.729488 0.329244 0.409873
0.807935 0.303334 0.344564
0.907897 0.287526 0.266087
0.0339818 0.410697 0.515938
0.13933 0.419059 0.509972
0.236316 0.422919 0.502556
0.359731 0.427344 0.493828
0.492927 0.427329 0.482414
0.624949 0.422217 0.457237
0.72047 0.398123 0.410529
0.798962 0.36553 0.349523
0.889204 0.336904 0.278798
0.0704051 0.501198 0.52929
0.178378 0.506218 0.519066
0.26389 0.507912 0.50985
0.375448 0.511727 0.501228
0.501961 0.511742 0.490181
0.620081 0.500084 0.461295
0.713924 0.477745 0.41622
0.791943 0.445716 0.361563
0.876463 0.40734 0.294942
0.0876631 0.572885 0.517723
0.172595 0.575067 0.503975
0.241245 0.575814 0.493324
0.34255 0.579538 0.484474
0.476417 0.581903 0.479042
0.601663 0.577752 0.457053
0.706401 0.556023 0.416785
0.786206 0.530022 0.370169
0.868055 0.48629 0.305562
0.0693828 0.618372 0.469276
0.132555 0.621073 0.457908
0.202548 0.62414 0.451118
0.310292 0.62948 0.449683
0.449897 0.63563 0.451133
0.574639 0.642527 0.45069
0.680278 0.638071 0.419745
0.779599 0.611505 0.376043
0.863752 0.569863 0.316518
0.0623636 0.664424 0.405859
0.0933394 0.662669 0.403677
0.201495 0.670893 0.408698
0.30367 0.673686 0.413718
0.426047 0.682322 0.415396
0.552499 0.692775 0.421485
0.648997 0.707225 0.43006
0.755215 0.702602 0.386831
0.859739 0.662943 0.336538
0.122789 0.729152 0.365637
0.138903 0.719676 0.36434
0.219409 0.720287 0.365988
0.282734 0.722393 0.363363
0.381003 0.729458 0.366018
0.507271 0.741527 0.375402
0.622049 0.764508 0.391394
0.711757 0.788495 0.416022
0.837949 0.778439 0.368734
0.0209964 0.247166 0.57055
0.0554818 0.241535 0.567971
0.108415 0.222171 0.556878
0.222293 0.230564 0.56614
0.417044 0.267872 0.594293
0.61706 0.300633 0.615137
0.758206 0.316335 0.603891
0.846708 0.292576 0.523262
0.893202 0.265141 0.38735
0.0288548 0.294163 0.576257
0.0714885 0.293446 0.575036
0.141588 0.284001 0.567071
0.236393 0.277577 0.562417
0.41062 0.305455 0.58053
0.606821 0.336996 0.598199
0.742473 0.348363 0.586114
0.830777 0.323247 0.51397
0.894682 0.302159 0.374762
0.0399634 0.355718 0.586419
0.094728 0.358465 0.584405
0.176989 0.359152 0.579507
0.273442 0.351827 0.568978
0.413489 0.361364 0.573114
0.597345 0.387778 0.584619
0.727779 0.392462 0.569894
0.816724 0.363088 0.504189
0.915267 0.326345 0.375433
0.04094 0.427008 0.597406
0.128817 0.43476 0.595651
0.211414 0.43772 0.589563
0.322164 0.442023 0.582391
0.439811 0.440681 0.574304
0.593515 0.453864 0.576226
0.716579 0.452201 0.559258
0.805158 0.419379 0.49781
0.90016 0.372076 0.391379
0.0837873 0.515435 0.613367
0.178576 0.519005 0.606317
0.25565 0.519951 0.598123
0.362219 0.525551 0.59086
0.479545 0.530541 0.584054
0.601297 0.529824 0.574578
0.711009 0.522026 0.553307
0.796109 0.488411 0.497993
0.885725 0.433326 0.404318
0.143847 0.604212 0.622415
0.23032 0.603861 0.611688
0.295705 0.601099 0.601251
0.385092 0.602289 0.591943
0.493095 0.605997 0.58352
0.609552 0.604227 0.57406
0.710094 0.59202 0.550195
0.790433 0.56405 0.503502
0.876143 0.512383 0.4224
0.145495 0.667491 0.59968
0.204685 0.66482 0.587884
0.265095 0.662837 0.577173
0.343893 0.663188 0.566323
0.449561 0.665599 0.558175
0.581399 0.667033 0.558602
0.694881 0.662531 0.541146
0.784054 0.640024 0.501778
0.869581 0.598413 0.433021
0.0950637 0.706538 0.522057
0.117556 0.701305 0.516152
0.197024 0.703548 0.509178
0.277287 0.705211 0.507164
0.404227 0.709743 0.51252
0.550729 0.717021 0.523384
0.67274 0.725978 0.530083
0.760235 0.72224 0.498222
0.865232 0.685435 0.442191
0.0937209 0.765484 0.418479
0.10428 0.751904 0.422324
0.180301 0.750469 0.430869
0.251514 0.74847 0.438285
0.352819 0.754604 0.44448
0.490944 0.76437 0.459144
0.636637 0.779385 0.478126
0.724422 0.800229 0.498589
0.840558 0.795468 0.458549
0.023682 0.286244 0.668971
0.047303 0.282078 0.668956
0.0832685 0.266972 0.663935
0.132555 0.248814 0.657526
0.262028 0.266697 0.676905
0.466606 0.306676 0.710231
0.690196 0.349767 0.732738
0.857069 0.377874 0.716274
0.900206 0.331136 0.579721
0.0335699 0.323659 0.663417
0.0645304 0.322637 0.6645
0.119783 0.317998 0.662821
0.17351 0.299001 0.65478
0.282704 0.303304 0.66421
0.482109 0.342275 0.693538
0.686702 0.382406 0.714992
0.838361 0.402853 0.695232
0.899611 0.35877 0.545754
0.0457923 0.374655 0.66566
0.0882124 0.376791 0.666651
0.150454 0.377081 0.665629
0.224903 0.369528 0.660853
0.315297 0.3608 0.658366
0.493706 0.38938 0.678691
0.680705 0.424079 0.696651
0.82182 0.434531 0.675868
0.899306 0.376257 0.510964
0.0483558 0.434455 0.669825
0.116915 0.441733 0.672358
0.180621 0.445121 0.67068
0.269734 0.448005 0.666804
0.367361 0.443061 0.660609
0.50547 0.45243 0.666697
0.675639 0.480858 0.680415
0.807111 0.481147 0.657832
0.914992 0.41825 0.533303
0.0839857 0.514977 0.683406
0.156466 0.520043 0.682017
0.219135 0.521279 0.677119
0.312215 0.526528 0.67219
0.421851 0.531441 0.666819
0.53637 0.531579 0.662593
0.676051 0.546166 0.667247
0.795392 0.539223 0.642817
0.897261 0.474845 0.538705
0.143481 0.605875 0.698543
0.214466 0.605982 0.692454
0.274113 0.604456 0.684703
0.359533 0.605905 0.677363
0.464881 0.611612 0.671199
0.577844 0.61709 0.666789
0.685405 0.617578 0.661067
0.789059 0.604852 0.633692
0.885435 0.544579 0.544686
0.212009 0.69691 0.705379
0.266773 0.69247 0.696849
0.325704 0.688014 0.68748
0.39762 0.684871 0.678416
0.48925 0.685588 0.670329
0.593927 0.689479 0.664271
0.696941 0.688762 0.657267
0.786084 0.673182 0.629206
0.87805 0.628229 0.558328
0.174517 0.758907 0.664515
0.195773 0.752209 0.658778
0.268223 0.749706 0.649042
0.331273 0.746578 0.63949
0.418051 0.745785 0.630091
0.533089 0.747616 0.625116
0.675532 0.751202 0.634028
0.769207 0.748974 0.615808
0.871061 0.71693 0.561913
0.0771344 0.788403 0.475105
0.0700999 0.796536 0.483207
0.128191 0.789487 0.495659
0.186984 0.784466 0.507881
0.296483 0.786999 0.523491
0.454246 0.794598 0.544717
0.627588 0.806088 0.572473
0.744595 0.818799 0.590372
0.846403 0.818906 0.56054
0.0331731 0.33135 0.74966
0.0493019 0.32813 0.758038
0.072282 0.318563 0.763226
0.0885176 0.294484 0.764019
0.110521 0.272892 0.762783
0.200061 0.28661 0.776165
0.403357 0.323201 0.80827
0.700679 0.372015 0.84863
0.923568 0.4598 0.883162
0.0377661 0.357229 0.758938
0.0536202 0.35433 0.765896
0.0802472 0.349645 0.772396
0.10367 0.332815 0.776013
0.118517 0.304631 0.769543
0.179782 0.302144 0.774731
0.358038 0.335149 0.802182
0.623774 0.37995 0.84181
0.92517 0.492729 0.886625
0.0475013 0.394369 0.770809
0.0666361 0.391394 0.777279
0.0942855 0.3879 0.78378
0.126375 0.378927 0.786465
0.147265 0.355169 0.781369
0.196826 0.336522 0.78613
0.415473 0.375021 0.798535
0.703227 0.427924 0.82356
0.915328 0.469459 0.77586
0.0559701 0.436728 0.781918
0.0884565 0.436469 0.791165
0.118715 0.435233 0.78999
0.172549 0.435065 0.776898
0.233936 0.426963 0.766888
0.307973 0.409277 0.757519
0.495537 0.439521 0.771038
0.737057 0.488411 0.792828
0.927977 0.48864 0.733639
0.0809796 0.490227 0.782238
0.123964 0.496742 0.773251
0.162341 0.500023 0.7664
0.221897 0.504005 0.761578
0.308843 0.508324 0.757397
0.405631 0.502922 0.751171
0.542199 0.513161 0.754467
0.747433 0.552132 0.76936
0.91313 0.537285 0.722637
0.118227 0.571283 0.773693
0.16286 0.576715 0.769116
0.204852 0.579889 0.763149
0.270954 0.584558 0.758343
0.365454 0.592264 0.753597
0.482612 0.601007 0.749386
0.592371 0.601205 0.743542
0.752728 0.621668 0.751461
0.895933 0.594018 0.704967
0.178378 0.677653 0.781048
0.211429 0.676585 0.774151
0.268742 0.676875 0.76701
0.334554 0.677302 0.760342
0.425818 0.68014 0.75256
0.538354 0.688304 0.746868
0.649821 0.696056 0.742168
0.76318 0.69604 0.740887
0.886046 0.663706 0.693462
0.276158 0.795575 0.786954
0.292576 0.786694 0.778576
0.35552 0.781231 0.769055
0.409445 0.775753 0.759991
0.488197 0.772747 0.750439
0.580102 0.772824 0.741329
0.677134 0.775692 0.736706
0.776532 0.773678 0.733974
0.881346 0.749264 0.693431
0.121126 0.83975 0.629999
0.112673 0.834089 0.607263
0.134127 0.829816 0.58584
0.175555 0.842557 0.604562
0.265431 0.834882 0.621241
0.385031 0.833799 0.629602
0.564401 0.838987 0.647944
0.751781 0.845914 0.688212
0.856275 0.850462 0.676677
0.0594949 0.37882 0.772702
0.0802777 0.375723 0.778073
0.109209 0.36968 0.783978
0.131899 0.350622 0.780468
0.153994 0.326482 0.77554
0.246113 0.332876 0.785367
0.456077 0.368231 0.81677
0.766323 0.41471 0.855955
0.925032 0.495186 0.88571
0.065156 0.400473 0.778393
0.0855421 0.397589 0.783505
0.115541 0.393957 0.788724
0.145953 0.382361 0.787503
0.164813 0.356268 0.781765
0.225376 0.347021 0.783948
0.407416 0.377462 0.810132
0.687663 0.426032 0.84715
0.925414 0.524468 0.884413
0.0715343 0.431113 0.785687
0.0979477 0.429129 0.792233
0.126864 0.426413 0.793637
0.16286 0.420706 0.794507
0.190738 0.4009 0.79115
0.226215 0.376806 0.787335
0.370092 0.393561 0.805203
0.615671 0.434211 0.840696
0.925597 0.543038 0.883421
0.0838636 0.470649 0.795605
0.117754 0.469764 0.79826
0.142977 0.466133 0.798993
0.179355 0.462654 0.800397
0.224994 0.454368 0.800946
0.260609 0.430106 0.797055
0.352056 0.423087 0.803418
0.57351 0.458091 0.833036
0.925444 0.569253 0.881422
0.1093 0.517205 0.803449
0.141299 0.517067 0.804501
0.164019 0.513527 0.804883
0.19855 0.509972 0.805676
0.25008 0.506722 0.807843
0.307591 0.496696 0.808454
0.36466 0.472709 0.806287
0.545403 0.49305 0.826871
0.918929 0.586908 0.875135
0.137606 0.576364 0.811566
0.165454 0.573205 0.81149
0.187121 0.569131 0.811368
0.220722 0.566567 0.811872
0.271366 0.564675 0.813184
0.338399 0.5617 0.814755
0.406638 0.54696 0.812894
0.531929 0.540078 0.821805
0.872251 0.60798 0.863081
0.173083 0.659007 0.82269
0.183627 0.649622 0.821073
0.213321 0.644175 0.819959
0.244678 0.638941 0.819165
0.293172 0.636469 0.81912
0.359533 0.636133 0.818723
0.449882 0.634852 0.818906
0.553017 0.618341 0.820783
0.837873 0.657496 0.852888
0.233219 0.785443 0.839948
0.230594 0.7673 0.836805
0.258015 0.755367 0.833555
0.28307 0.74345 0.83061
0.327306 0.735988 0.827634
0.393225 0.732631 0.825177
0.488991 0.734829 0.823606
0.62414 0.742351 0.826688
0.845273 0.756954 0.875212
0.394644 0.8925 0.841627
0.399222 0.892638 0.841428
0.431022 0.893553 0.840146
0.454627 0.894224 0.839185
0.490578 0.895201 0.837873
0.525689 0.907774 0.835492
0.603891 0.892561 0.855131
0.721736 0.887755 0.835111
0.875563 0.890806 0.831586
