luts/黎明.cube
TITLE "Generated by Resolve"
LUT_3D_SIZE 5
0.00750744 0.0234379 0.0162661
0.232624 0.0127413 0.000808728
0.475425 0.012604 1.5259e-05
0.658824 0.021622 0
0.884428 0.0984054 0.000198367
0.00801099 0.195666 0.0282444
0.187411 0.175235 0.00265507
0.446143 0.10576 0
0.637308 0.10898 0
0.837491 0.158923 0
0.0132296 0.312367 0.0136263
0.165743 0.368734 0.00665293
0.431373 0.352117 0.00015259
0.666133 0.311696 0
0.844297 0.308858 0
0.0757 0.483772 0.0707408
0.233112 0.524453 0.0609598
0.404929 0.570687 0.0538491
0.656443 0.557351 0.0114443
0.853513 0.500511 0.00727855
0.199298 0.664179 0.174426
0.289693 0.670054 0.161715
0.414557 0.698329 0.164721
0.586343 0.748959 0.177462
0.840681 0.743267 0.123201
0.0049897 0.0918135 0.236027
0.218769 0.110811 0.224262
0.53959 0.110613 0.152255
0.720134 0.0990158 0.0732128
0.893095 0.146868 0.0537728
0.0195468 0.271138 0.291295
0.236881 0.282399 0.259861
0.520714 0.247013 0.16762
0.714122 0.219669 0.0922408
0.884978 0.23093 0.0623178
0.00415045 0.412695 0.26891
0.206668 0.450843 0.254994
0.475639 0.444144 0.198611
0.704067 0.396963 0.114351
0.861616 0.364309 0.0761273
0.0450752 0.54377 0.254414
0.235584 0.563317 0.246937
0.445655 0.591272 0.241596
0.666773 0.599176 0.180331
0.859678 0.530266 0.123232
0.163012 0.68603 0.261097
0.261097 0.685939 0.250629
0.410468 0.702068 0.249775
0.600366 0.752697 0.268605
0.837736 0.757076 0.228412
0.0137484 0.197681 0.466209
0.13373 0.179599 0.449088
0.507973 0.240406 0.489021
0.753643 0.238972 0.42565
0.892042 0.227222 0.262501
0.0343481 0.330282 0.499474
0.200046 0.335897 0.487358
0.486442 0.348745 0.47747
0.729488 0.329244 0.409873
0.907897 0.287526 0.266087
0.0704051 0.501198 0.52929
0.26389 0.507912 0.50985
0.501961 0.511742 0.490181
0.713924 0.477745 0.41622
0.876463 0.40734 0.294942
0.0693828 0.618372 0.469276
0.202548 0.62414 0.451118
0.449897 0.63563 0.451133
0.680278 0.638071 0.419745
0.863752 0.569863 0.316518
0.122789 0.729152 0.365637
0.219409 0.720287 0.365988
0.381003 0.729458 0.366018
0.622049 0.764508 0.391394
0.837949 0.778439 0.368734
0.023682 0.286244 0.668971
0.0832685 0.266972 0.663935
0.262028 0.266697 0.676905
0.690196 0.349767 0.732738
0.900206 0.331136 0.579721
0.0457923 0.374655 0.66566
0.150454 0.377081 0.665629
0.315297 0.3608 0.658366
0.680705 0.424079 0.696651
0.899306 0.376257 0.510964
0.0839857 0.514977 0.683406
0.219135 0.521279 0.677119
0.421851 0.531441 0.666819
0.676051 0.546166 0.667247
0.897261 0.474845 0.538705
0.212009 0.69691 0.705379
0.325704 0.688014 0.68748
0.48925 0.685588 0.670329
0.696941 0.688762 0.657267
0.87805 0.628229 0.558328
0.0771344 0.788403 0.475105
0.128191 0.789487 0.495659
0.296483 0.786999 0.523491
0.627588 0.806088 0.572473
0.846403 0.818906 0.56054
0.0594949 0.37882 0.772702
0.109209 0.36968 0.783978
0.153994 0.326482 0.77554
0.456077 0.368231 0.81677
0.925032 0.495186 0.88571
0.0715343 0.431113 0.785687
0.126864 0.426413 0.793637
0.190738 0.4009 0.79115
0.370092 0.393561 0.805203
0.925597 0.543038 0.883421
0.1093 0.517205 0.803449
0.164019 0.513527 0.804883
0.25008 0.506722 0.807843
0.36466 0.472709 0.806287
0.918929 0.586908 0.875135
0.173083 0.659007 0.82269
0.213321 0.644175 0.819959
0.293172 0.636469 0.81912
0.449882 0.634852 0.818906
0.837873 0.657496 0.852888
0.394644 0.8925 0.841627
0.431022 0.893553 0.840146
0.490578 0.895201 0.837873
0.603891 0.892561 0.855131
0.875563 0.890806 0.831586
