luts/黎明.cube
TITLE "Generated by Resolve"
LUT_3D_SIZE 33
0.00750744 0.0234379 0.0162661
0.0174868 0.0218051 0.0130465
0.0367285 0.0199283 0.00946059
0.0629892 0.0181125 0.0065919
0.0972457 0.0165255 0.00433356
0.132372 0.0151522 0.00282292
0.166964 0.0141756 0.0018616
0.20029 0.0133974 0.00123598
0.232624 0.0127413 0.000808728
0.265095 0.0123598 0.000518807
0.297429 0.0121614 0.000335698
0.328649 0.0118563 0.000213626
0.361151 0.0118105 0.000137331
0.391455 0.0119326 7.62951e-05
0.420874 0.0120241 4.57771e-05
0.448981 0.012253 3.0518e-05
0.475425 0.012604 1.5259e-05
0.500816 0.0131075 0
0.525856 0.0136721 0
0.548562 0.0146029 0
0.572366 0.0155642 0
0.594537 0.0166323 0
0.616236 0.0180056 0
0.637919 0.0197757 0
0.658824 0.021622 0
0.680201 0.0237888 0
0.7028 0.0267338 0
0.725536 0.0301366 0
0.749645 0.0341192 0
0.776272 0.0397192 0
0.808255 0.0484779 0
0.851881 0.0685588 1.5259e-05
0.884428 0.0984054 0.000198367
0.00688182 0.0366827 0.0178683
0.0164797 0.0343938 0.014725
0.034226 0.0318456 0.0104067
0.0611582 0.0282139 0.00737011
0.095552 0.0256504 0.00476081
0.130709 0.0237583 0.0030518
0.165484 0.0225528 0.00204471
0.199115 0.0217136 0.00138857
0.232105 0.0208438 0.000900282
0.264576 0.0203403 0.000595102
0.297017 0.0199893 0.000381476
0.328557 0.0195315 0.000244144
0.360861 0.0194553 0.00015259
0.391943 0.0195621 9.15541e-05
0.421424 0.0197452 4.57771e-05
0.449973 0.0199283 3.0518e-05
0.476814 0.0204318 1.5259e-05
0.502724 0.0211337 0
0.528084 0.0218357 0
0.55198 0.0229496 0
0.576211 0.0243381 0
0.599298 0.0257877 0
0.620905 0.0274968 0
0.642481 0.0295415 0
0.662867 0.031693 0
0.683482 0.0339818 0
0.704952 0.0370947 0
0.726909 0.0408026 0
0.750484 0.0453498 0
0.776501 0.0515602 0
0.807279 0.0616007 0
0.846464 0.0799878 0
0.887861 0.116579 0.000167849
0.00593576 0.0547646 0.0196841
0.0149996 0.05243 0.0166323
0.0304417 0.0491951 0.0126802
0.0555276 0.0447242 0.00868238
0.090013 0.0399329 0.00570687
0.127123 0.0363928 0.00361639
0.162951 0.0342412 0.00233463
0.196643 0.0327916 0.00151064
0.230243 0.031632 0.000976577
0.26334 0.0309606 0.000640879
0.296254 0.0303655 0.000411994
0.328054 0.0298772 0.000259403
0.360204 0.0296788 0.00015259
0.39173 0.0297246 9.15541e-05
0.420981 0.0297551 6.10361e-05
0.449821 0.0297704 3.0518e-05
0.476783 0.0302434 1.5259e-05
0.502739 0.0308232 0
0.527947 0.0314031 0
0.552193 0.0323796 0
0.576318 0.0336156 0
0.599542 0.0348211 0
0.620386 0.0363012 0
0.642267 0.0383459 0
0.662577 0.0406195 0
0.682765 0.0428321 0
0.703807 0.0461128 0
0.725383 0.0498817 0
0.748455 0.0545968 0
0.773236 0.0605478 0
0.801556 0.069688 0
0.833997 0.0826276 0
0.879118 0.119036 0
0.00543221 0.0770733 0.0213474
0.0138399 0.0753643 0.0183413
0.0281682 0.0712139 0.0151369
0.0493782 0.0669871 0.0112154
0.0813153 0.0609445 0.00689708
0.119417 0.0547036 0.00440986
0.157168 0.0505226 0.00274662
0.192538 0.047425 0.00167849
0.226841 0.0455177 0.00103761
0.260349 0.0443885 0.000656138
0.293538 0.0433661 0.000411994
0.325826 0.0426184 0.000259403
0.357534 0.0422065 0.00015259
0.389349 0.0421302 9.15541e-05
0.418936 0.0418708 4.57771e-05
0.447974 0.0417639 3.0518e-05
0.475196 0.0419776 1.5259e-05
0.501518 0.0424506 0
0.526757 0.0428779 0
0.551705 0.0437324 0
0.575784 0.0448768 0
0.599847 0.0460975 0
0.620203 0.0472267 0
0.642283 0.049012 0
0.662287 0.0513313 0
0.681758 0.0531777 0
0.70135 0.0558175 0
0.72076 0.0585031 0
0.730297 0.0560006 0
0.751827 0.0600595 0
0.778759 0.0670939 0
0.814176 0.0813001 0
0.868788 0.118837 0
0.0052491 0.101503 0.0226444
0.0134279 0.100801 0.0198215
0.0268711 0.0969711 0.0168917
0.0460517 0.0931716 0.0136721
0.0731823 0.0874342 0.00885023
0.109957 0.0799573 0.00540169
0.148119 0.0730144 0.00335698
0.186297 0.0672618 0.00196841
0.222797 0.0632334 0.00114443
0.257588 0.0611124 0.000701915
0.291234 0.059617 0.000427253
0.323812 0.0585184 0.000259403
0.356222 0.057969 0.00015259
0.388708 0.0576486 9.15541e-05
0.418082 0.0571298 4.57771e-05
0.447211 0.056733 1.5259e-05
0.474723 0.0567178 0
0.500938 0.0569772 0
0.526314 0.0571145 0
0.551186 0.0572824 0
0.575021 0.0580301 0
0.598978 0.0589303 0
0.619058 0.0594949 0
0.639139 0.0601358 0
0.656062 0.06009 0
0.660334 0.0539712 0
0.67808 0.0555276 0
0.698436 0.0583047 0
0.721126 0.0623484 0
0.745708 0.0680552 0
0.773632 0.0760967 0
0.808042 0.0898909 0
0.856275 0.119127 0
0.00550851 0.125658 0.0241245
0.013901 0.125429 0.0213321
0.0264439 0.122896 0.0183871
0.0447242 0.11989 0.0154269
0.06804 0.115434 0.011429
0.101122 0.109834 0.00709544
0.138277 0.102708 0.0043183
0.176196 0.0949111 0.00259403
0.21442 0.0881361 0.00148013
0.252201 0.0829023 0.000839246
0.287877 0.0790265 0.00047303
0.321126 0.0762036 0.000244144
0.353384 0.0752117 0.000137331
0.385946 0.0744488 7.62951e-05
0.415213 0.0733654 3.0518e-05
0.444495 0.0725719 1.5259e-05
0.472358 0.0720531 0
0.49839 0.0719768 0
0.523491 0.0716411 0
0.547417 0.0706493 0
0.569497 0.0697642 0
0.579767 0.0621347 0
0.593637 0.0587625 0
0.612619 0.0593118 0
0.633433 0.0604105 0
0.653773 0.0625772 0
0.675059 0.0655375 0
0.696468 0.0690623 0
0.719738 0.073518 0
0.744366 0.0793927 0
0.772366 0.0883192 0
0.804761 0.100649 0
0.848142 0.125399 0
0.00604257 0.149813 0.0255894
0.0147402 0.149844 0.0225681
0.0266423 0.148302 0.019501
0.0441291 0.146151 0.0168765
0.0660868 0.142885 0.0130159
0.0942855 0.138857 0.00952163
0.129335 0.132662 0.00563058
0.16759 0.1243 0.00315862
0.206317 0.115373 0.00181582
0.24448 0.108415 0.0010071
0.281209 0.10338 0.000534066
0.317052 0.0979477 0.000244144
0.351644 0.0956588 0.000122072
0.384268 0.0939803 6.10361e-05
0.414054 0.0924544 1.5259e-05
0.44242 0.0906233 0
0.469474 0.0886549 0
0.493156 0.0857404 0
0.501274 0.0722515 0
0.521294 0.0695811 0
0.542931 0.0688334 0
0.565148 0.0689708 0
0.588617 0.0700084 0
0.610071 0.0717937 0
0.632547 0.0734417 0
0.654078 0.0758679 0
0.67628 0.0793317 0
0.697871 0.0832227 0
0.720958 0.0878614 0
0.745098 0.0935378 0
0.772168 0.101869 0
0.80293 0.113024 0
0.842969 0.134768 0
0.00689708 0.173312 0.0270695
0.016022 0.173526 0.0234836
0.027451 0.172274 0.0203555
0.0439307 0.170077 0.017731
0.0644236 0.168704 0.0142977
0.0907912 0.166552 0.0110933
0.121538 0.161837 0.00730907
0.157809 0.154391 0.00407416
0.196735 0.145342 0.00221256
0.235294 0.136751 0.00123598
0.272969 0.130053 0.00062562
0.309514 0.122484 0.000259403
0.344991 0.117845 0.000106813
0.378622 0.113054 1.5259e-05
0.407507 0.106691 0
0.423087 0.090837 0
0.448066 0.0877089 0
0.471382 0.0856794 0
0.494347 0.0846723 0
0.5178 0.0846876 0
0.541878 0.085008 0
0.564767 0.0854505 0
0.589014 0.0868238 0
0.611337 0.088716 0
0.63415 0.0903639 0
0.65626 0.0926375 0
0.678782 0.0959945 0
0.700435 0.099443 0
0.72314 0.103807 0
0.746929 0.109178 0
0.77319 0.116747 0
0.802472 0.127001 0
0.839536 0.145907 0
0.00801099 0.195666 0.0282444
0.0177462 0.195789 0.0240482
0.0291142 0.194308 0.0207523
0.0446326 0.192691 0.0179599
0.0644694 0.192782 0.0152438
0.0894026 0.192859 0.0122835
0.117678 0.189471 0.00869764
0.150484 0.183551 0.00515755
0.187411 0.175235 0.00265507
0.225849 0.165225 0.00128176
0.262913 0.155306 0.000503548
0.291905 0.133745 0
0.322301 0.12253 0
0.354574 0.116014 0
0.38735 0.110643 0
0.417716 0.107256 0
0.446143 0.10576 0
0.47158 0.104479 0
0.495567 0.103777 0
0.519554 0.103792 0
0.544045 0.104158 0
0.567208 0.104463 0
0.591516 0.105699 0
0.614603 0.107408 0
0.637308 0.10898 0
0.65977 0.110933 0
0.682368 0.113695 0
0.704082 0.117006 0
0.726314 0.120867 0
0.749538 0.125856 0
0.775036 0.132876 0
0.803037 0.142092 0
0.837491 0.158923 0
0.00915541 0.216785 0.0289158
0.0195468 0.216526 0.0240787
0.0309148 0.214664 0.0205081
0.0454871 0.214023 0.017731
0.0645457 0.214847 0.0153506
0.0876631 0.216678 0.0122988
0.113573 0.213901 0.00840772
0.141863 0.20737 0.00445563
0.166598 0.185779 0.000381476
0.203525 0.173037 4.57771e-05
0.241154 0.162768 0
0.278889 0.152926 0
0.314504 0.145312 0
0.348013 0.13962 0
0.382376 0.134478 0
0.413382 0.131395 0
0.444694 0.128328 0
0.473426 0.126177 0
0.499367 0.124926 0
0.523629 0.124712 0
0.547997 0.12488 0
0.571221 0.12517 0
0.59556 0.126207 0
0.618814 0.127459 0
0.641611 0.12871 0
0.664149 0.130358 0
0.686687 0.132982 0
0.708507 0.135866 0
0.73022 0.139391 0
0.752682 0.143664 0
0.777554 0.15053 0
0.804089 0.158831 0
0.83653 0.173907 0
0.0099794 0.234974 0.0282292
0.0214389 0.234577 0.0229343
0.0328527 0.232959 0.0188449
0.0460975 0.232349 0.0152895
0.0614176 0.231205 0.010193
0.072694 0.224369 0.0030518
0.0958267 0.221393 0.00161746
0.12285 0.216327 0.000808728
0.15465 0.209339 0.00030518
0.192569 0.201022 3.0518e-05
0.231861 0.191623 0
0.271199 0.181598 0
0.308659 0.173541 0
0.343603 0.167712 0
0.379171 0.16202 0
0.410788 0.158297 0
0.442329 0.154726 0
0.472343 0.151598 0
0.500648 0.149432 0
0.527184 0.148257 0
0.552621 0.147601 0
0.576181 0.147631 0
0.600198 0.148302 0
0.623453 0.148989 0
0.646265 0.149859 0
0.669108 0.151522 0
0.691356 0.153643 0
0.713161 0.156176 0
0.734478 0.159274 0
0.756161 0.162829 0
0.780407 0.169131 0
0.805753 0.176822 0
0.836271 0.189883 0
0.00968948 0.247135 0.0242618
0.0214237 0.237293 0.00869764
0.0298466 0.236088 0.00555428
0.0404669 0.237644 0.00422675
0.0541238 0.240558 0.00320439
0.0717479 0.244419 0.00241093
0.0951553 0.244724 0.0016022
0.120806 0.242695 0.000976577
0.149569 0.238544 0.000534066
0.18201 0.232425 0.000228885
0.22388 0.224598 1.5259e-05
0.264912 0.214694 0
0.303578 0.206043 0
0.339879 0.199405 0
0.377508 0.192554 0
0.409903 0.188128 0
0.441566 0.18381 0
0.471977 0.179934 0
0.50103 0.17705 0
0.528618 0.174777 0
0.555245 0.172656 0
0.580652 0.172015 0
0.605417 0.171786 0
0.628901 0.172045 0
0.651576 0.172641 0
0.674449 0.174014 0
0.696529 0.175753 0
0.718212 0.177874 0
0.739101 0.180362 0
0.760082 0.183307 0
0.783322 0.188968 0
0.807828 0.195682 0
0.836744 0.20734 0
0.00442512 0.237018 0.00802625
0.0221103 0.250385 0.00569161
0.0320439 0.254093 0.00480659
0.0429847 0.25742 0.00416571
0.057084 0.262592 0.00349432
0.0747845 0.267704 0.00283818
0.0969711 0.270161 0.002121
0.120821 0.270481 0.00149538
0.147555 0.268513 0.000961318
0.178088 0.26453 0.000549325
0.215961 0.257496 0.000183108
0.257847 0.248737 3.0518e-05
0.298344 0.240162 0
0.336553 0.232761 0
0.375555 0.224903 0
0.408881 0.219638 0
0.441138 0.21471 0
0.472282 0.210086 0
0.501152 0.206699 0
0.529015 0.203876 0
0.556695 0.200641 0
0.583688 0.198657 0
0.609598 0.197467 0
0.634012 0.196658 0
0.657115 0.196872 0
0.680171 0.197925 0
0.702007 0.199069 0
0.7234 0.200748 0
0.743984 0.202792 0
0.764324 0.205188 0
0.786725 0.210224 0
0.810224 0.216205 0
0.837751 0.22649 0
0.0053254 0.252125 0.00782788
0.0241398 0.267811 0.00598154
0.0359808 0.273152 0.00535592
0.0475776 0.277272 0.00479133
0.0618448 0.282551 0.00424201
0.0799878 0.287678 0.00357061
0.101442 0.292073 0.00289921
0.123888 0.294667 0.00227359
0.149432 0.295399 0.00166323
0.178393 0.293782 0.00109865
0.211933 0.289189 0.00062562
0.251164 0.282277 0.000198367
0.291768 0.275029 4.57771e-05
0.332158 0.267353 0
0.372915 0.258869 0
0.406729 0.252659 0
0.440269 0.246815 0
0.472068 0.24181 0
0.501472 0.237705 0
0.529046 0.23386 0
0.557458 0.230335 0
0.584497 0.227939 0
0.611276 0.225742 0
0.637507 0.223575 0
0.662516 0.222614 0
0.68571 0.223239 0
0.70753 0.223758 0
0.728878 0.22504 0
0.748714 0.226154 0
0.768627 0.22829 0
0.790204 0.232334 0
0.812924 0.237354 0
0.839139 0.245914 0
0.00683604 0.270665 0.00881971
0.0268406 0.287175 0.0071107
0.0407874 0.294133 0.00656138
0.0534218 0.298802 0.00607309
0.0682383 0.303777 0.00560006
0.0864729 0.308888 0.00480659
0.106706 0.31397 0.00411994
0.128786 0.318837 0.0034638
0.153399 0.32105 0.00274662
0.181048 0.321584 0.00204471
0.21181 0.319646 0.00137331
0.245121 0.315236 0.000823987
0.284184 0.309895 0.000320439
0.326726 0.303273 7.62951e-05
0.368917 0.294423 3.0518e-05
0.40325 0.287846 0
0.437903 0.281636 0
0.471351 0.276036 0
0.501762 0.270771 0
0.529473 0.266011 0
0.558114 0.261799 0
0.58526 0.2589 0
0.612024 0.255756 0
0.638498 0.252979 0
0.664317 0.251194 0
0.689769 0.249729 0
0.712718 0.248753 0
0.73402 0.250065 0
0.753414 0.250751 0
0.772976 0.252064 0
0.793927 0.255009 0
0.815717 0.259083 0
0.840604 0.266239 0
0.00947585 0.291386 0.0109712
0.0273594 0.304173 0.00889601
0.0464942 0.314824 0.00839246
0.0603342 0.319814 0.00793469
0.0749065 0.324392 0.00730907
0.0931258 0.329824 0.0065919
0.113161 0.336004 0.00587472
0.134966 0.342168 0.00520333
0.158709 0.346532 0.00442512
0.184329 0.348684 0.00354009
0.211978 0.349248 0.00270085
0.242252 0.348302 0.00199893
0.278477 0.344152 0.00114443
0.319844 0.337987 0.000488289
0.364141 0.33077 0.000137331
0.39971 0.323873 6.10361e-05
0.435996 0.317235 1.5259e-05
0.470451 0.310979 0
0.501884 0.304768 0
0.529976 0.299123 0
0.558679 0.294224 0
0.585962 0.290394 0
0.612665 0.286839 0
0.639109 0.283207 0
0.665446 0.281086 0
0.691615 0.278782 0
0.715618 0.27689 0
0.738369 0.276463 0
0.75819 0.276188 0
0.777264 0.277089 0
0.797513 0.278767 0
0.818524 0.28191 0
0.842374 0.287541 0
0.0132296 0.312367 0.0136263
0.0205692 0.31606 0.0118257
0.0520638 0.335256 0.011017
0.0671397 0.340536 0.0103151
0.0830091 0.344915 0.00968948
0.100969 0.350134 0.00901808
0.120821 0.356771 0.00825513
0.142397 0.362997 0.00746166
0.165743 0.368734 0.00665293
0.189837 0.372152 0.00563058
0.215839 0.374609 0.00466926
0.244221 0.376043 0.00381476
0.277241 0.373419 0.00263981
0.314427 0.36939 0.0015259
0.355245 0.36434 0.000701915
0.393591 0.358877 0.000320439
0.431373 0.352117 0.00015259
0.467124 0.34519 7.62951e-05
0.499596 0.338582 3.0518e-05
0.52929 0.332738 0
0.558801 0.327184 0
0.586297 0.322484 0
0.613123 0.318303 0
0.639994 0.314534 0
0.666133 0.311696 0
0.692302 0.308598 0
0.717098 0.306142 0
0.7411 0.304204 0
0.761837 0.302632 0
0.78143 0.302296 0
0.800916 0.302571 0
0.821439 0.304631 0
0.844297 0.308858 0
0.0179599 0.333745 0.0170596
0.0243839 0.336294 0.0152285
0.0574807 0.355322 0.014313
0.0754864 0.361395 0.0137942
0.0920729 0.365805 0.0132601
0.109926 0.371756 0.0124819
0.129671 0.378302 0.0116426
0.150591 0.384665 0.0105898
0.173083 0.390723 0.0096437
0.195819 0.39559 0.00865187
0.220691 0.399542 0.00766003
0.247623 0.402975 0.00668345
0.277974 0.402289 0.00512703
0.310994 0.400214 0.00364691
0.346853 0.397284 0.00231937
0.386313 0.39292 0.00114443
0.42565 0.386633 0.000595102
0.462486 0.379812 0.000335698
0.496239 0.372625 0.000183108
0.527687 0.366567 0.000106813
0.558236 0.360693 4.57771e-05
0.586099 0.355184 1.5259e-05
0.613031 0.350057 0
0.640314 0.345785 0
0.666819 0.342596 0
0.692988 0.338659 0
0.717662 0.335836 0
0.741863 0.333135 0
0.764233 0.330037 0
0.785 0.327779 0
0.804257 0.326726 0
0.824155 0.327886 0
0.846265 0.330602 0
0.0233463 0.355001 0.0216068
0.0294804 0.357473 0.0200046
0.063859 0.374792 0.018677
0.085359 0.381689 0.0180972
0.102144 0.386496 0.0174563
0.119585 0.391821 0.0168154
0.138506 0.397681 0.0159762
0.158663 0.404242 0.0148928
0.180117 0.410574 0.013901
0.202655 0.416861 0.0129702
0.227207 0.422492 0.0119783
0.253101 0.426749 0.0106508
0.280522 0.428 0.00885023
0.309606 0.428809 0.00732433
0.341726 0.427909 0.00552377
0.378775 0.424979 0.00337224
0.419211 0.420142 0.00173953
0.457557 0.41413 0.000976577
0.492744 0.407202 0.00062562
0.525612 0.400992 0.000396735
0.557321 0.3944 0.000228885
0.585504 0.388464 0.000137331
0.612879 0.382696 7.62951e-05
0.64062 0.377661 4.57771e-05
0.667231 0.373831 3.0518e-05
0.693263 0.369406 1.5259e-05
0.717769 0.365759 1.5259e-05
0.742092 0.362554 0
0.764691 0.358755 0
0.786313 0.355184 0
0.807492 0.351843 0
0.826658 0.351461 1.5259e-05
0.848173 0.35317 3.0518e-05
0.0297093 0.376593 0.0272374
0.0355383 0.378088 0.0253452
0.0631876 0.39089 0.0239109
0.0952163 0.401816 0.0234684
0.112596 0.406744 0.0228122
0.128832 0.411383 0.0221561
0.146929 0.416983 0.0211795
0.166918 0.423316 0.0201419
0.18819 0.43003 0.0191043
0.210986 0.436988 0.0181125
0.235538 0.443534 0.0171969
0.260166 0.44828 0.0158236
0.284947 0.451209 0.0141451
0.311894 0.454002 0.012604
0.341024 0.454719 0.0104219
0.37258 0.453315 0.00794995
0.411887 0.450095 0.00448615
0.450477 0.445441 0.00256352
0.487022 0.439811 0.00158694
0.521447 0.433158 0.00108339
0.55404 0.426337 0.000717174
0.583444 0.420279 0.00047303
0.611872 0.414313 0.000320439
0.639948 0.408728 0.000213626
0.666819 0.404166 0.00015259
0.693217 0.399649 0.000122072
0.717952 0.395499 0.000106813
0.742061 0.391012 7.62951e-05
0.764813 0.386877 7.62951e-05
0.786725 0.3823 6.10361e-05
0.808316 0.378149 6.10361e-05
0.829053 0.375402 9.15541e-05
0.850034 0.375692 0.000167849
0.0368048 0.39826 0.033753
0.0427863 0.399466 0.0318456
0.0553292 0.403784 0.0300145
0.104036 0.421775 0.0295872
0.121614 0.426703 0.0287785
0.137652 0.431067 0.0280003
0.155718 0.436133 0.0272984
0.175631 0.442435 0.0264134
0.197238 0.449439 0.0253452
0.2206 0.456413 0.0243076
0.245563 0.463554 0.0233005
0.267872 0.468452 0.0220798
0.291325 0.473091 0.0208286
0.316442 0.47747 0.0196231
0.343786 0.479225 0.0171969
0.372961 0.479316 0.0142367
0.404807 0.477546 0.0109407
0.441886 0.474708 0.00675975
0.479774 0.47042 0.00404364
0.516045 0.464729 0.00260929
0.550256 0.457893 0.00183108
0.580728 0.451865 0.00131228
0.610452 0.445686 0.000915541
0.639124 0.439689 0.000656138
0.666087 0.434485 0.000503548
0.692866 0.429389 0.000396735
0.7178 0.424842 0.000335698
0.742016 0.419654 0.00030518
0.764797 0.415152 0.000289921
0.786908 0.409812 0.000274662
0.808667 0.40502 0.000274662
0.830228 0.400153 0.00030518
0.85182 0.398505 0.000457771
0.0453651 0.419028 0.0412451
0.0515145 0.419699 0.0391546
0.0627146 0.423117 0.0375067
0.11223 0.440894 0.0366979
0.132067 0.446632 0.0360723
0.148043 0.450843 0.0354009
0.165637 0.455604 0.0346685
0.185092 0.461677 0.0336309
0.206714 0.468528 0.0326238
0.229999 0.475517 0.0315251
0.254032 0.482506 0.0304417
0.275135 0.488533 0.0295109
0.297688 0.494301 0.0286564
0.32195 0.50013 0.0277867
0.347005 0.502297 0.0251164
0.373648 0.503761 0.0222171
0.40235 0.504555 0.0194247
0.43476 0.502983 0.0150149
0.471031 0.499992 0.00981155
0.509316 0.495476 0.00584421
0.545342 0.489464 0.00407416
0.57734 0.483604 0.00303655
0.608209 0.476951 0.00218204
0.637537 0.470665 0.00161746
0.665263 0.465217 0.00128176
0.692454 0.45951 0.00102235
0.717464 0.454505 0.000900282
0.741665 0.448798 0.000823987
0.764797 0.443488 0.00077821
0.787106 0.437568 0.000747692
0.80856 0.432334 0.00077821
0.830625 0.4262 0.000839246
0.853178 0.421927 0.00102235
0.0545052 0.440497 0.0500954
0.0608225 0.441169 0.0480049
0.071046 0.443137 0.0460059
0.119265 0.46006 0.0449683
0.142016 0.466484 0.0443427
0.158541 0.470573 0.0434882
0.175891 0.475044 0.0427253
0.195422 0.480354 0.0420233
0.216526 0.486686 0.0409857
0.239429 0.493629 0.0398413
0.26099 0.500206 0.0388647
0.282185 0.506569 0.0379644
0.304936 0.513085 0.0372625
0.328664 0.519295 0.0363622
0.351736 0.522835 0.0340887
0.376287 0.52604 0.0317845
0.402625 0.528832 0.0294652
0.43122 0.52871 0.0256962
0.464149 0.526879 0.0199741
0.50042 0.524132 0.0136416
0.538796 0.520394 0.00875868
0.57203 0.514931 0.00645457
0.60444 0.50808 0.00474556
0.634638 0.501915 0.00361639
0.663401 0.496513 0.0028687
0.691051 0.490303 0.00225834
0.716426 0.484504 0.00196841
0.741131 0.478676 0.00180056
0.764416 0.472602 0.00172427
0.786984 0.466712 0.00170901
0.808255 0.460548 0.00175479
0.830259 0.453727 0.00184634
0.854139 0.446754 0.00210575
0.0643473 0.46154 0.0596323
0.0708324 0.462165 0.057435
0.0805219 0.464088 0.0553597
0.107378 0.472557 0.0536355
0.151232 0.486625 0.0534218
0.169085 0.490974 0.0529335
0.185534 0.494896 0.052369
0.204471 0.499855 0.0515755
0.225177 0.506172 0.0504616
0.247364 0.512718 0.049424
0.267063 0.518624 0.0485389
0.288334 0.524956 0.0476692
0.31133 0.531319 0.046952
0.333974 0.537194 0.0459602
0.355901 0.54229 0.0445106
0.378897 0.546914 0.0430457
0.403449 0.550774 0.041062
0.43032 0.552117 0.0375372
0.459007 0.55172 0.033051
0.491264 0.550515 0.026978
0.529351 0.54905 0.0189059
0.564981 0.544579 0.0132143
0.598901 0.538491 0.00968948
0.630533 0.532815 0.00759899
0.660502 0.527199 0.00604257
0.689158 0.520638 0.00479133
0.715297 0.514473 0.00411994
0.740475 0.50808 0.00366217
0.763958 0.501945 0.0034638
0.786618 0.495659 0.00340276
0.808148 0.488426 0.00350958
0.830091 0.481239 0.0037232
0.854047 0.473198 0.00407416
0.0757 0.483772 0.0707408
0.0827344 0.48426 0.0684672
0.0918135 0.485679 0.0662699
0.108949 0.490059 0.0642557
0.1608 0.506447 0.0640421
0.179171 0.510918 0.0633707
0.194888 0.514595 0.0625925
0.212879 0.51902 0.0617075
0.233112 0.524453 0.0609598
0.252186 0.530098 0.060029
0.272068 0.536034 0.0591287
0.293629 0.542077 0.0583658
0.316884 0.548592 0.0576181
0.338369 0.554498 0.0568399
0.35964 0.560403 0.0560159
0.381582 0.566186 0.0552987
0.404929 0.570687 0.0538491
0.429755 0.573388 0.0511788
0.456504 0.574792 0.047425
0.485344 0.575586 0.043061
0.517372 0.575357 0.0369421
0.555261 0.572793 0.0252079
0.592126 0.568048 0.0182345
0.625437 0.563119 0.0143587
0.656443 0.557351 0.0114443
0.685863 0.550835 0.0090486
0.712993 0.544869 0.00767529
0.738567 0.538018 0.00672923
0.762707 0.531441 0.00633249
0.785809 0.524865 0.0062562
0.807538 0.51696 0.00640879
0.829633 0.509392 0.00672923
0.853513 0.500511 0.00727855
0.0897841 0.505837 0.0828107
0.0962234 0.506325 0.080293
0.104601 0.507301 0.0780041
0.118318 0.51017 0.0758831
0.169055 0.52607 0.0755474
0.188251 0.530831 0.0749065
0.203998 0.534249 0.0743267
0.221286 0.538155 0.0738231
0.238849 0.542535 0.0730907
0.25687 0.547509 0.0721447
0.276783 0.553079 0.0712291
0.298955 0.55938 0.0704967
0.32192 0.565789 0.0697948
0.341894 0.571466 0.0690013
0.36321 0.577447 0.0683299
0.384955 0.583429 0.0677501
0.40737 0.588052 0.0665751
0.431144 0.591897 0.0648051
0.455879 0.595071 0.0625467
0.482841 0.597467 0.0590524
0.512078 0.598733 0.0539712
0.543465 0.597498 0.0459449
0.581582 0.596033 0.0330205
0.61706 0.592966 0.0254063
0.650416 0.587396 0.0205234
0.681254 0.581323 0.0170901
0.709743 0.575463 0.0145113
0.736156 0.568246 0.0124819
0.761044 0.561196 0.0113832
0.784878 0.554116 0.0108034
0.806714 0.545602 0.0109865
0.82887 0.537575 0.0115053
0.852964 0.528023 0.0122835
0.10425 0.52781 0.0950942
0.110277 0.527947 0.0929122
0.117952 0.528725 0.0908064
0.129305 0.530709 0.0885328
0.176791 0.545098 0.088365
0.198749 0.550378 0.0877852
0.214603 0.553719 0.0869459
0.229587 0.556909 0.0864881
0.245365 0.560525 0.0861067
0.263355 0.56466 0.0857404
0.283085 0.570092 0.0849622
0.304906 0.57615 0.0840772
0.325277 0.58201 0.0834058
0.345403 0.587854 0.0828107
0.366033 0.593591 0.0821698
0.387793 0.59942 0.0814832
0.409506 0.604669 0.0808881
0.431983 0.609766 0.0804913
0.455024 0.614588 0.0798657
0.479866 0.618173 0.0773632
0.506508 0.620584 0.0734112
0.534997 0.621302 0.0674296
0.567117 0.621225 0.0593118
0.605295 0.620081 0.0439918
0.641993 0.615885 0.0336309
0.674907 0.610666 0.027985
0.704875 0.604852 0.0239719
0.732799 0.597711 0.0205844
0.758953 0.590707 0.0185702
0.783093 0.582925 0.0174105
0.805325 0.574609 0.0174258
0.827863 0.56585 0.0179904
0.852415 0.555856 0.0191043
0.118822 0.549477 0.10779
0.124376 0.549462 0.105699
0.131456 0.550027 0.103731
0.141268 0.5514 0.101762
0.165316 0.557351 0.100114
0.209461 0.568856 0.099443
0.224094 0.572015 0.0992294
0.237507 0.574899 0.0990921
0.252979 0.578134 0.0990768
